;FLAVOR:Marlin
;TIME:2427
;Filament used: 1.53277m
;Layer height: 0.15
;MINX:91.2
;MINY:65.086
;MINZ:0.3
;MAXX:128.8
;MAXY:154.915
;MAXZ:3.75
;Generated with Cura_SteamEngine main
M140 S60
M105
M190 S60
M104 S200
M105
M109 S200
M82 ;absolute extrusion mode
G28 ;Home
G1 Z15.0 F2000 ;Move the platform
G92 E0
G92 E0
G1 F1500 E-6.5
;LAYER_COUNT:24
;LAYER:0
M107
M204 S1000
G0 F7500 X95.529 Y71.898 Z0.3
G0 X91.622 Y79.988
;TYPE:SKIRT
G1 F1500 E0
G1 X91.789 Y79.216 E0.03941
G1 X91.921 Y78.775 E0.06237
G1 X92.48 Y77.098 E0.15056
G1 X92.768 Y76.363 E0.18995
G1 X92.973 Y75.942 E0.21331
G1 X93.795 Y74.375 E0.30159
G1 X94.196 Y73.695 E0.34098
G1 X94.466 Y73.313 E0.36431
G1 X95.529 Y71.898 E0.45261
G1 X96.034 Y71.292 E0.49196
G1 X96.358 Y70.961 E0.51507
G1 X97.637 Y69.731 E0.6036
G1 X98.233 Y69.213 E0.643
G1 X98.62 Y68.929 E0.66695
G1 X100.075 Y67.927 E0.75508
G1 X100.747 Y67.513 E0.79446
G1 X101.152 Y67.306 E0.81715
G1 X102.754 Y66.545 E0.90564
G1 X103.795 Y66.139 E0.96138
G1 X105.078 Y65.742 E1.02839
G1 X105.651 Y65.588 E1.05799
G1 X106.068 Y65.493 E1.07932
G1 X106.862 Y65.355 E1.11953
G1 X108.618 Y65.142 E1.20778
G1 X109.406 Y65.086 E1.24719
G1 X109.87 Y65.091 E1.27034
G1 X111.637 Y65.162 E1.35857
G1 X112.424 Y65.234 E1.398
G1 X112.885 Y65.314 E1.42134
G1 X114.623 Y65.669 E1.50984
G1 X115.388 Y65.866 E1.54925
G1 X115.828 Y66.018 E1.57248
G1 X117.484 Y66.646 E1.66084
G1 X118.207 Y66.963 E1.70022
G1 X118.615 Y67.183 E1.72335
G1 X120.144 Y68.065 E1.81141
G1 X120.808 Y68.493 E1.85082
G1 X121.182 Y68.781 E1.87437
G1 X122.554 Y69.902 E1.96277
G1 X123.14 Y70.432 E2.00219
G1 X123.457 Y70.769 E2.02527
G1 X124.631 Y72.094 E2.11359
G1 X125.124 Y72.711 E2.15299
G1 X125.385 Y73.098 E2.17628
G1 X126.333 Y74.597 E2.26476
G1 X126.721 Y75.285 E2.30417
G1 X126.916 Y75.708 E2.32741
G1 X127.609 Y77.334 E2.41559
G1 X127.882 Y78.075 E2.45499
G1 X128.007 Y78.524 E2.47824
G1 X128.431 Y80.243 E2.56657
G1 X128.581 Y81.018 E2.60595
G1 X128.633 Y81.485 E2.6294
G1 X128.775 Y83.249 E2.71769
G1 X128.8 Y83.875 E2.74894
G1 X128.8 Y143.875 E5.74236
G1 X128.774 Y144.512 E5.77416
G1 X128.73 Y145.049 E5.80104
G1 X128.626 Y145.832 E5.84045
G1 X128.518 Y146.324 E5.86558
G1 X128.387 Y146.842 E5.89224
G1 X128.155 Y147.597 E5.93164
G1 X127.967 Y148.066 E5.95685
G1 X127.751 Y148.558 E5.98366
G1 X127.397 Y149.264 E6.02306
G1 X127.137 Y149.691 E6.048
G1 X126.844 Y150.139 E6.07471
G1 X126.379 Y150.777 E6.1141
G1 X126.057 Y151.15 E6.13868
G1 X125.691 Y151.548 E6.16566
G1 X125.128 Y152.101 E6.20503
G1 X124.751 Y152.415 E6.22951
G1 X124.331 Y152.743 E6.25609
G1 X123.685 Y153.197 E6.29548
G1 X123.231 Y153.462 E6.32171
G1 X122.758 Y153.717 E6.34852
G1 X122.045 Y154.056 E6.38791
G1 X121.593 Y154.227 E6.41202
G1 X121.084 Y154.402 E6.43887
G1 X120.325 Y154.621 E6.47828
G1 X119.837 Y154.719 E6.50311
G1 X119.306 Y154.808 E6.52998
G1 X118.522 Y154.899 E6.56935
G1 X118.017 Y154.915 E6.59456
G1 X117.483 Y154.915 E6.6212
G1 X116.694 Y154.875 E6.66061
G1 X116.194 Y154.808 E6.68578
G1 X115.663 Y154.719 E6.71264
G1 X114.891 Y154.549 E6.75208
G1 X114.416 Y154.402 E6.77689
G1 X113.907 Y154.227 E6.80374
G1 X113.174 Y153.933 E6.84314
G1 X112.742 Y153.717 E6.86724
G1 X112.269 Y153.462 E6.89405
G1 X111.593 Y153.052 E6.93349
G1 X111.169 Y152.743 E6.95967
G1 X110.749 Y152.415 E6.98625
G1 X109.982 Y151.752 E7.03683
G1 X109.628 Y152.101 E7.06164
G1 X109.251 Y152.415 E7.08611
G1 X108.831 Y152.743 E7.1127
G1 X108.185 Y153.197 E7.15209
G1 X107.731 Y153.462 E7.17832
G1 X107.258 Y153.717 E7.20513
G1 X106.545 Y154.056 E7.24451
G1 X106.093 Y154.227 E7.26862
G1 X105.584 Y154.402 E7.29548
G1 X104.825 Y154.621 E7.33489
G1 X104.337 Y154.719 E7.35972
G1 X103.806 Y154.808 E7.38658
G1 X103.022 Y154.899 E7.42596
G1 X102.517 Y154.915 E7.45117
G1 X101.983 Y154.915 E7.47781
G1 X101.194 Y154.875 E7.51722
G1 X100.694 Y154.808 E7.54239
G1 X100.163 Y154.719 E7.56925
G1 X99.391 Y154.549 E7.60869
G1 X98.916 Y154.402 E7.6335
G1 X98.407 Y154.227 E7.66035
G1 X97.674 Y153.933 E7.69975
G1 X97.242 Y153.717 E7.72385
G1 X96.769 Y153.462 E7.75066
G1 X96.093 Y153.052 E7.7901
G1 X95.669 Y152.743 E7.81627
G1 X95.249 Y152.415 E7.84286
G1 X94.652 Y151.899 E7.88223
G1 X94.309 Y151.548 E7.90671
G1 X93.943 Y151.15 E7.93369
G1 X93.438 Y150.542 E7.97312
G1 X93.156 Y150.139 E7.99766
G1 X92.863 Y149.691 E8.02437
G1 X92.465 Y149.009 E8.06376
G1 X92.249 Y148.558 E8.08871
G1 X92.033 Y148.066 E8.11552
G1 X91.753 Y147.327 E8.15494
G1 X91.613 Y146.842 E8.18013
G1 X91.482 Y146.324 E8.20679
G1 X91.327 Y145.55 E8.24617
G1 X91.27 Y145.051 E8.27122
G1 X91.226 Y144.516 E8.29801
G1 X91.2 Y143.877 E8.32991
G1 X91.206 Y83.559 E11.33919
G1 X91.242 Y82.675 E11.38333
G1 X91.337 Y81.738 E11.43032
G1 X91.622 Y79.988 E11.51877
G1 F1500 E5.01877
G0 F7500 X92.405 Y83.607
G1 F1500 E11.51877
G1 X92.441 Y82.723 E11.56291
G1 X92.522 Y81.931 E11.60263
G1 X92.807 Y80.181 E11.69109
G1 X93.06 Y79.155 E11.74381
G1 X93.619 Y77.478 E11.832
G1 X94.035 Y76.499 E11.88507
G1 X94.857 Y74.932 E11.97335
G1 X95.425 Y74.034 E12.02636
G1 X96.488 Y72.619 E12.11466
G1 X97.19 Y71.826 E12.1675
G1 X98.469 Y70.596 E12.25603
G1 X99.301 Y69.917 E12.3096
G1 X100.756 Y68.915 E12.39774
G1 X101.667 Y68.389 E12.45022
G1 X103.269 Y67.628 E12.53871
G1 X104.15 Y67.285 E12.58587
G1 X105.433 Y66.888 E12.65288
G1 X105.918 Y66.758 E12.67793
G1 X106.335 Y66.663 E12.69927
G1 X107.006 Y66.546 E12.73325
G1 X108.762 Y66.333 E12.8215
G1 X109.822 Y66.29 E12.87442
G1 X111.589 Y66.361 E12.96265
G1 X112.645 Y66.49 E13.01573
G1 X114.383 Y66.845 E13.10423
G1 X115.402 Y67.14 E13.15715
G1 X117.058 Y67.768 E13.24551
G1 X118.016 Y68.222 E13.2984
G1 X119.545 Y69.104 E13.38647
G1 X120.423 Y69.71 E13.43969
G1 X121.795 Y70.831 E13.52808
G1 X122.559 Y71.565 E13.58094
G1 X123.733 Y72.89 E13.66926
G1 X124.371 Y73.739 E13.72224
G1 X125.319 Y75.238 E13.81073
G1 X125.813 Y76.178 E13.86371
G1 X126.506 Y77.804 E13.95189
G1 X126.842 Y78.811 E14.00485
G1 X127.266 Y80.53 E14.09318
G1 X127.437 Y81.581 E14.14631
G1 X127.579 Y83.345 E14.2346
G1 X127.6 Y83.875 E14.26106
G1 X127.6 Y143.875 E17.25447
G1 X127.578 Y144.414 E17.28138
G1 X127.534 Y144.951 E17.30827
G1 X127.435 Y145.671 E17.34452
G1 X127.355 Y146.03 E17.36287
G1 X127.224 Y146.548 E17.38953
G1 X127.007 Y147.241 E17.42576
G1 X126.868 Y147.583 E17.44418
G1 X126.652 Y148.075 E17.47099
G1 X126.324 Y148.723 E17.50722
G1 X126.133 Y149.035 E17.52547
G1 X125.84 Y149.483 E17.55218
G1 X125.174 Y150.338 E17.60625
G1 X124.808 Y150.736 E17.63322
G1 X124.012 Y151.47 E17.68724
G1 X123.592 Y151.798 E17.71383
G1 X122.996 Y152.213 E17.75006
G1 X122.662 Y152.406 E17.76931
G1 X122.189 Y152.661 E17.79612
G1 X121.203 Y153.092 E17.8498
G1 X120.694 Y153.267 E17.87665
G1 X119.639 Y153.535 E17.93096
G1 X119.108 Y153.624 E17.95782
G1 X118.386 Y153.705 E17.99407
G1 X118.017 Y153.715 E18.01248
G1 X117.483 Y153.715 E18.03913
G1 X116.758 Y153.675 E18.07535
G1 X116.392 Y153.624 E18.09379
G1 X115.861 Y153.535 E18.12065
G1 X114.806 Y153.267 E18.17495
G1 X114.297 Y153.092 E18.20181
G1 X113.311 Y152.661 E18.25549
G1 X112.838 Y152.406 E18.2823
G1 X112.219 Y152.026 E18.31854
G1 X111.908 Y151.798 E18.33778
G1 X111.488 Y151.47 E18.36437
G1 X110.692 Y150.736 E18.41838
G1 X110.326 Y150.338 E18.44536
G1 X110 Y149.919 E18.47185
G1 X109.674 Y150.338 E18.49833
G1 X109.308 Y150.736 E18.52531
G1 X108.512 Y151.47 E18.57933
G1 X108.092 Y151.798 E18.60591
G1 X107.496 Y152.213 E18.64215
G1 X107.162 Y152.406 E18.66139
G1 X106.689 Y152.661 E18.6882
G1 X105.703 Y153.092 E18.74189
G1 X105.194 Y153.267 E18.76874
G1 X104.139 Y153.535 E18.82305
G1 X103.608 Y153.624 E18.84991
G1 X102.886 Y153.705 E18.88615
G1 X102.517 Y153.715 E18.90457
G1 X101.983 Y153.715 E18.93121
G1 X101.258 Y153.675 E18.96744
G1 X100.892 Y153.624 E18.98587
G1 X100.361 Y153.535 E19.01273
G1 X99.306 Y153.267 E19.06704
G1 X98.797 Y153.092 E19.09389
G1 X97.811 Y152.661 E19.14758
G1 X97.338 Y152.406 E19.17439
G1 X96.719 Y152.026 E19.21062
G1 X96.408 Y151.798 E19.22986
G1 X95.988 Y151.47 E19.25645
G1 X95.192 Y150.736 E19.31047
G1 X94.826 Y150.338 E19.33745
G1 X94.16 Y149.483 E19.39152
G1 X93.867 Y149.035 E19.41822
G1 X93.504 Y148.406 E19.45445
G1 X93.348 Y148.075 E19.47271
G1 X93.132 Y147.583 E19.49952
G1 X92.877 Y146.903 E19.53575
G1 X92.776 Y146.548 E19.55416
G1 X92.645 Y146.03 E19.58082
G1 X92.506 Y145.317 E19.61706
G1 X92.466 Y144.953 E19.63533
G1 X92.422 Y144.418 E19.66211
G1 X92.4 Y143.877 E19.68912
G1 X92.405 Y83.607 E22.69601
G0 F7500 X92.805 Y83.624
G1 F1500 X92.841 Y82.74 E22.74015
G1 X92.917 Y81.995 E22.77751
G1 X93.202 Y80.245 E22.86597
G1 X93.439 Y79.281 E22.91549
G1 X93.998 Y77.604 E23.00368
G1 X94.39 Y76.685 E23.05353
G1 X95.212 Y75.118 E23.14181
G1 X95.745 Y74.274 E23.19161
G1 X96.808 Y72.859 E23.27991
G1 X97.467 Y72.114 E23.32953
G1 X98.746 Y70.884 E23.41806
G1 X99.528 Y70.247 E23.46838
G1 X100.983 Y69.245 E23.55652
G1 X101.839 Y68.751 E23.60582
G1 X103.441 Y67.99 E23.69431
G1 X104.268 Y67.667 E23.7386
G1 X105.551 Y67.27 E23.80561
G1 X106.007 Y67.148 E23.82916
G1 X106.424 Y67.053 E23.85049
G1 X107.054 Y66.943 E23.8824
G1 X108.81 Y66.73 E23.97065
G1 X109.806 Y66.69 E24.02038
G1 X111.573 Y66.761 E24.10861
G1 X112.565 Y66.881 E24.15846
G1 X114.303 Y67.236 E24.24696
G1 X115.26 Y67.514 E24.29668
G1 X116.916 Y68.142 E24.38504
G1 X117.816 Y68.568 E24.43471
G1 X119.345 Y69.45 E24.52278
G1 X120.17 Y70.02 E24.5728
G1 X121.542 Y71.141 E24.6612
G1 X122.26 Y71.83 E24.71084
G1 X123.434 Y73.155 E24.79916
G1 X124.033 Y73.953 E24.84894
G1 X124.981 Y75.452 E24.93743
G1 X125.445 Y76.335 E24.98719
G1 X126.138 Y77.961 E25.07538
G1 X126.454 Y78.907 E25.12514
G1 X126.878 Y80.626 E25.21347
G1 X127.038 Y81.614 E25.2634
G1 X127.18 Y83.378 E25.35169
G1 X127.2 Y83.875 E25.37651
G1 X127.2 Y143.875 E28.36992
G1 X127.179 Y144.381 E28.39519
G1 X127.135 Y144.918 E28.42207
G1 X126.967 Y145.932 E28.47334
G1 X126.836 Y146.45 E28.5
G1 X126.502 Y147.422 E28.55128
G1 X126.286 Y147.914 E28.57808
G1 X125.798 Y148.816 E28.62925
G1 X125.505 Y149.264 E28.65596
G1 X124.88 Y150.067 E28.70672
G1 X124.514 Y150.465 E28.7337
G1 X123.766 Y151.154 E28.78444
G1 X123.346 Y151.482 E28.81102
G1 X122.472 Y152.053 E28.86311
G1 X121.999 Y152.308 E28.88992
G1 X121.073 Y152.714 E28.94036
G1 X120.564 Y152.889 E28.96721
G1 X119.573 Y153.141 E29.01823
G1 X119.042 Y153.23 E29.04509
G1 X118.017 Y153.315 E29.0964
G1 X117.483 Y153.315 E29.12304
G1 X116.458 Y153.23 E29.17436
G1 X115.927 Y153.141 E29.20122
G1 X114.936 Y152.889 E29.25223
G1 X114.427 Y152.714 E29.27908
G1 X113.501 Y152.308 E29.32953
G1 X113.028 Y152.053 E29.35634
G1 X112.154 Y151.482 E29.40842
G1 X111.734 Y151.154 E29.43501
G1 X110.986 Y150.465 E29.48575
G1 X110.62 Y150.067 E29.51272
G1 X110 Y149.27 E29.5631
G1 X109.38 Y150.067 E29.61348
G1 X109.014 Y150.465 E29.64045
G1 X108.266 Y151.154 E29.69119
G1 X107.846 Y151.482 E29.71777
G1 X106.972 Y152.053 E29.76986
G1 X106.499 Y152.308 E29.79667
G1 X105.573 Y152.714 E29.84711
G1 X105.064 Y152.889 E29.87396
G1 X104.073 Y153.141 E29.92498
G1 X103.542 Y153.23 E29.95184
G1 X102.517 Y153.315 E30.00315
G1 X101.983 Y153.315 E30.0298
G1 X100.958 Y153.23 E30.08111
G1 X100.427 Y153.141 E30.10797
G1 X99.436 Y152.889 E30.15898
G1 X98.927 Y152.714 E30.18584
G1 X98.001 Y152.308 E30.23628
G1 X97.528 Y152.053 E30.26309
G1 X96.654 Y151.482 E30.31517
G1 X96.234 Y151.154 E30.34176
G1 X95.486 Y150.465 E30.3925
G1 X95.12 Y150.067 E30.41947
G1 X94.495 Y149.264 E30.47024
G1 X94.202 Y148.816 E30.49695
G1 X93.714 Y147.914 E30.54811
G1 X93.498 Y147.422 E30.57492
G1 X93.164 Y146.45 E30.6262
G1 X93.033 Y145.932 E30.65285
G1 X92.865 Y144.92 E30.70403
G1 X92.821 Y144.385 E30.73081
G1 X92.8 Y143.877 E30.75618
G1 X92.805 Y83.624 E33.76221
G0 F7500 X93.2 Y83.876
G1 F1500 X93.241 Y82.756 E33.81813
G1 X93.311 Y82.06 E33.85303
G1 X93.596 Y80.31 E33.94148
G1 X93.819 Y79.408 E33.98784
G1 X94.378 Y77.731 E34.07603
G1 X94.744 Y76.871 E34.12266
G1 X95.566 Y75.304 E34.21094
G1 X96.065 Y74.514 E34.25756
G1 X97.128 Y73.099 E34.34586
G1 X97.745 Y72.402 E34.3923
G1 X99.024 Y71.172 E34.48083
G1 X99.754 Y70.576 E34.52784
G1 X101.209 Y69.574 E34.61598
G1 X102.01 Y69.112 E34.66211
G1 X103.612 Y68.351 E34.7506
G1 X104.387 Y68.049 E34.79209
G1 X105.67 Y67.652 E34.8591
G1 X106.096 Y67.538 E34.8811
G1 X106.513 Y67.443 E34.90243
G1 X107.103 Y67.34 E34.93232
G1 X108.859 Y67.127 E35.02056
G1 X109.79 Y67.09 E35.06705
G1 X111.557 Y67.161 E35.15528
G1 X112.485 Y67.273 E35.20191
G1 X114.223 Y67.628 E35.29041
G1 X115.119 Y67.888 E35.33696
G1 X116.775 Y68.516 E35.42531
G1 X117.616 Y68.915 E35.47176
G1 X119.145 Y69.797 E35.55982
G1 X119.917 Y70.33 E35.60662
G1 X121.289 Y71.451 E35.69501
G1 X121.96 Y72.096 E35.74145
G1 X123.134 Y73.421 E35.82977
G1 X123.695 Y74.167 E35.87634
G1 X124.643 Y75.666 E35.96482
G1 X125.077 Y76.492 E36.01137
G1 X125.77 Y78.118 E36.09956
G1 X126.065 Y79.003 E36.1461
G1 X126.489 Y80.722 E36.23443
G1 X126.639 Y81.646 E36.28113
G1 X126.781 Y83.41 E36.36942
G1 X126.8 Y83.875 E36.39264
G1 X126.8 Y143.875 E39.38605
G1 X126.781 Y144.349 E39.40972
G1 X126.737 Y144.886 E39.4366
G1 X126.579 Y145.834 E39.48455
G1 X126.448 Y146.352 E39.5112
G1 X126.136 Y147.262 E39.5592
G1 X125.92 Y147.754 E39.58601
G1 X125.463 Y148.597 E39.63385
G1 X125.17 Y149.045 E39.66055
G1 X124.585 Y149.796 E39.70805
G1 X124.219 Y150.194 E39.73502
G1 X123.52 Y150.839 E39.78247
G1 X123.1 Y151.167 E39.80906
G1 X122.282 Y151.701 E39.8578
G1 X121.809 Y151.956 E39.8846
G1 X120.943 Y152.336 E39.93179
G1 X120.434 Y152.511 E39.95864
G1 X119.507 Y152.746 E40.00635
G1 X118.976 Y152.835 E40.03321
G1 X118.017 Y152.915 E40.08122
G1 X117.483 Y152.915 E40.10786
G1 X116.524 Y152.835 E40.15587
G1 X115.993 Y152.746 E40.18274
G1 X115.066 Y152.511 E40.23045
G1 X114.557 Y152.336 E40.2573
G1 X113.691 Y151.956 E40.30448
G1 X113.218 Y151.701 E40.33129
G1 X112.4 Y151.167 E40.38003
G1 X111.98 Y150.839 E40.40661
G1 X111.281 Y150.194 E40.45406
G1 X110.915 Y149.796 E40.48104
G1 X110.33 Y149.045 E40.52853
G1 X109.997 Y148.535 E40.55892
G1 X109.67 Y149.045 E40.58915
G1 X109.085 Y149.796 E40.63664
G1 X108.719 Y150.194 E40.66362
G1 X108.02 Y150.839 E40.71107
G1 X107.6 Y151.167 E40.73765
G1 X106.782 Y151.701 E40.78639
G1 X106.309 Y151.956 E40.8132
G1 X105.443 Y152.336 E40.86038
G1 X104.934 Y152.511 E40.88723
G1 X104.007 Y152.746 E40.93494
G1 X103.476 Y152.835 E40.96181
G1 X102.517 Y152.915 E41.00982
G1 X101.983 Y152.915 E41.03646
G1 X101.024 Y152.835 E41.08447
G1 X100.493 Y152.746 E41.11133
G1 X99.566 Y152.511 E41.15904
G1 X99.057 Y152.336 E41.18589
G1 X98.191 Y151.956 E41.23308
G1 X97.718 Y151.701 E41.25988
G1 X96.9 Y151.167 E41.30862
G1 X96.48 Y150.839 E41.33521
G1 X95.781 Y150.194 E41.38266
G1 X95.415 Y149.796 E41.40964
G1 X94.83 Y149.045 E41.45713
G1 X94.537 Y148.597 E41.48384
G1 X94.08 Y147.754 E41.53168
G1 X93.864 Y147.262 E41.55848
G1 X93.552 Y146.352 E41.60648
G1 X93.421 Y145.834 E41.63313
G1 X93.264 Y144.887 E41.68102
G1 X93.22 Y144.352 E41.70781
G1 X93.2 Y143.877 E41.73152
G1 X93.2 Y83.876 E44.72499
G0 F7500 X93.604 Y83.656
G1 F1500 X93.64 Y82.772 E44.76913
G1 X93.706 Y82.124 E44.80162
G1 X93.991 Y80.374 E44.89008
G1 X94.198 Y79.534 E44.93324
G1 X94.757 Y77.857 E45.02143
G1 X95.098 Y77.057 E45.06482
G1 X95.92 Y75.49 E45.1531
G1 X96.385 Y74.755 E45.19649
G1 X97.448 Y73.34 E45.28479
G1 X98.022 Y72.691 E45.32801
G1 X99.301 Y71.461 E45.41654
G1 X99.981 Y70.906 E45.46033
G1 X101.436 Y69.904 E45.54847
G1 X102.182 Y69.473 E45.59145
G1 X103.784 Y68.712 E45.67994
G1 X104.505 Y68.431 E45.71854
G1 X105.788 Y68.034 E45.78555
G1 X106.185 Y67.928 E45.80605
G1 X106.602 Y67.833 E45.82739
G1 X107.151 Y67.737 E45.85519
G1 X108.907 Y67.524 E45.94344
G1 X109.774 Y67.489 E45.98673
G1 X111.541 Y67.56 E46.07496
G1 X112.405 Y67.665 E46.11838
G1 X114.143 Y68.02 E46.20688
G1 X114.977 Y68.262 E46.2502
G1 X116.633 Y68.89 E46.33856
G1 X117.416 Y69.261 E46.38179
G1 X118.945 Y70.143 E46.46985
G1 X119.664 Y70.639 E46.51343
G1 X121.036 Y71.76 E46.60182
G1 X121.661 Y72.361 E46.64508
G1 X122.835 Y73.686 E46.7334
G1 X123.357 Y74.381 E46.77677
G1 X124.305 Y75.88 E46.86525
G1 X124.709 Y76.649 E46.90859
G1 X125.402 Y78.275 E46.99677
G1 X125.677 Y79.099 E47.04011
G1 X126.101 Y80.818 E47.12844
G1 X126.241 Y81.678 E47.17191
