;FLAVOR:Marlin
;TIME:3822
;Filament used: 2.43644m
;Layer height: 0.15
;MINX:89.7
;MINY:63.86
;MINZ:0.3
;MAXX:130.3
;MAXY:156.142
;MAXZ:11.85
;Generated with Cura_SteamEngine main
M140 S60
M105
M190 S60
M104 S200
M105
M109 S200
M82 ;absolute extrusion mode
G28 ;Home
G1 Z15.0 F2000 ;Move the platform
G92 E0
G92 E0
G1 F1500 E-6.5
;LAYER_COUNT:78
;LAYER:0
M107
M204 S1000
G0 F7500 X93.682 Y72.084 Z0.3
G0 X90.526 Y78.477
;TYPE:SKIRT
G1 F1500 E0
G1 X90.749 Y77.72 E0.03937
G1 X90.903 Y77.315 E0.06099
G1 X91.653 Y75.502 E0.15887
G1 X91.992 Y74.789 E0.19826
G1 X92.211 Y74.407 E0.22023
G1 X93.236 Y72.735 E0.31807
G1 X93.682 Y72.084 E0.35744
G1 X93.954 Y71.747 E0.37905
G1 X95.228 Y70.255 E0.47693
G1 X95.771 Y69.681 E0.51635
G1 X96.094 Y69.389 E0.53807
G1 X97.588 Y68.113 E0.63609
G1 X98.214 Y67.631 E0.67551
G1 X98.58 Y67.393 E0.69729
G1 X100.25 Y66.37 E0.795
G1 X100.943 Y65.992 E0.83438
G1 X101.339 Y65.815 E0.85602
G1 X103.152 Y65.064 E0.95392
G1 X103.896 Y64.799 E0.99333
G1 X104.315 Y64.686 E1.01498
G1 X106.222 Y64.228 E1.11282
G1 X106.999 Y64.082 E1.15227
G1 X107.432 Y64.036 E1.17399
G1 X109.388 Y63.882 E1.27188
G1 X110.177 Y63.86 E1.31126
G1 X110.612 Y63.882 E1.33299
G1 X112.568 Y64.036 E1.43087
G1 X113.351 Y64.138 E1.47027
G1 X113.778 Y64.228 E1.49204
G1 X115.685 Y64.686 E1.58989
G1 X116.442 Y64.909 E1.62926
G1 X116.847 Y65.064 E1.65089
G1 X118.658 Y65.814 E1.74868
G1 X119.372 Y66.152 E1.7881
G1 X119.748 Y66.368 E1.80973
G1 X121.42 Y67.392 E1.90755
G1 X122.071 Y67.838 E1.94692
G1 X122.411 Y68.112 E1.9687
G1 X123.903 Y69.386 E2.06658
G1 X124.477 Y69.929 E2.106
G1 X124.769 Y70.252 E2.12773
G1 X126.045 Y71.746 E2.22575
G1 X126.527 Y72.372 E2.26516
G1 X126.763 Y72.735 E2.28676
G1 X127.787 Y74.405 E2.3845
G1 X128.166 Y75.098 E2.4239
G1 X128.345 Y75.499 E2.44581
G1 X129.095 Y77.311 E2.54365
G1 X129.36 Y78.055 E2.58305
G1 X129.473 Y78.473 E2.60466
G1 X129.931 Y80.381 E2.70255
G1 X130.076 Y81.158 E2.74198
G1 X130.122 Y81.589 E2.76361
G1 X130.276 Y83.544 E2.86145
G1 X130.3 Y84.157 E2.89205
G1 X130.3 Y148.342 E6.09426
G1 X130.26 Y149.131 E6.13367
G1 X130.141 Y149.911 E6.17303
G1 X129.943 Y150.676 E6.21246
G1 X129.669 Y151.416 E6.25183
G1 X129.321 Y152.125 E6.29123
G1 X128.903 Y152.796 E6.33067
G1 X128.42 Y153.42 E6.37004
G1 X127.877 Y153.993 E6.40942
G1 X127.278 Y154.508 E6.44883
G1 X126.63 Y154.959 E6.48822
G1 X125.939 Y155.343 E6.52766
G1 X125.214 Y155.655 E6.56704
G1 X124.461 Y155.892 E6.60642
G1 X123.687 Y156.051 E6.64584
G1 X122.902 Y156.132 E6.68522
G1 X122.5 Y156.142 E6.70528
G1 X120.297 Y156.142 E6.81519
G1 X119.508 Y156.102 E6.8546
G1 X118.969 Y156.02 E6.8818
G1 X118.608 Y156.083 E6.90008
G1 X117.653 Y156.142 E6.94782
G1 X103.51 Y156.142 E7.65342
G1 X102.721 Y156.102 E7.69283
G1 X101.951 Y155.984 E7.73169
G1 X101.482 Y156.072 E7.7555
G1 X100.44 Y156.142 E7.8076
G1 X97.5 Y156.142 E7.95428
G1 X96.711 Y156.102 E7.99369
G1 X95.931 Y155.983 E8.03306
G1 X95.166 Y155.785 E8.07248
G1 X94.426 Y155.511 E8.11185
G1 X93.717 Y155.163 E8.15125
G1 X93.046 Y154.745 E8.19069
G1 X92.422 Y154.262 E8.23006
G1 X91.849 Y153.719 E8.26945
G1 X91.334 Y153.12 E8.30886
G1 X90.883 Y152.472 E8.34825
G1 X90.499 Y151.781 E8.38769
G1 X90.187 Y151.056 E8.42706
G1 X89.95 Y150.303 E8.46645
G1 X89.791 Y149.529 E8.50587
G1 X89.71 Y148.744 E8.54524
G1 X89.7 Y148.342 E8.5653
G1 X89.7 Y84.159 E11.76741
G1 X89.724 Y83.547 E11.79796
G1 X89.878 Y81.59 E11.8959
G1 X89.98 Y80.807 E11.93529
G1 X90.069 Y80.382 E11.95696
G1 X90.526 Y78.477 E12.05469
G1 F1500 E5.55469
G0 F7500 X90.5 Y84.159
G1 F1500 E12.05469
G1 X90.522 Y83.61 E12.08211
G1 X90.676 Y81.653 E12.18004
G1 X90.847 Y80.569 E12.23479
G1 X91.304 Y78.664 E12.33253
G1 X91.643 Y77.621 E12.38724
G1 X92.393 Y75.808 E12.48513
G1 X92.893 Y74.825 E12.54015
G1 X93.918 Y73.153 E12.63799
G1 X94.563 Y72.266 E12.69271
G1 X95.837 Y70.774 E12.79059
G1 X96.614 Y69.997 E12.84541
G1 X98.108 Y68.721 E12.94343
G1 X98.997 Y68.075 E12.99826
G1 X100.667 Y67.052 E13.09597
G1 X101.645 Y66.554 E13.15072
G1 X103.458 Y65.803 E13.24862
G1 X104.502 Y65.464 E13.30339
G1 X106.409 Y65.006 E13.40123
G1 X107.495 Y64.834 E13.45609
G1 X109.451 Y64.68 E13.55398
G1 X110.549 Y64.68 E13.60875
G1 X112.505 Y64.834 E13.70664
G1 X113.591 Y65.006 E13.7615
G1 X115.498 Y65.464 E13.85934
G1 X116.541 Y65.803 E13.91406
G1 X118.352 Y66.553 E14.01185
G1 X119.33 Y67.051 E14.06661
G1 X121.002 Y68.075 E14.16442
G1 X121.892 Y68.721 E14.21929
G1 X123.384 Y69.995 E14.31717
G1 X124.161 Y70.772 E14.37199
G1 X125.437 Y72.266 E14.47001
G1 X126.081 Y73.153 E14.5247
G1 X127.105 Y74.823 E14.62243
G1 X127.606 Y75.805 E14.67743
G1 X128.356 Y77.617 E14.77527
G1 X128.695 Y78.66 E14.82998
G1 X129.153 Y80.568 E14.92788
G1 X129.324 Y81.652 E14.98263
G1 X129.478 Y83.607 E15.08047
G1 X129.5 Y84.157 E15.10793
G1 X129.5 Y148.342 E18.31013
G1 X129.46 Y149.089 E18.34745
G1 X129.341 Y149.827 E18.38475
G1 X129.143 Y150.549 E18.4221
G1 X128.87 Y151.245 E18.4594
G1 X128.523 Y151.908 E18.49673
G1 X128.108 Y152.531 E18.53408
G1 X127.629 Y153.105 E18.57137
G1 X127.092 Y153.626 E18.6087
G1 X126.502 Y154.085 E18.646
G1 X125.866 Y154.48 E18.68335
G1 X125.192 Y154.804 E18.72066
G1 X124.487 Y155.054 E18.75798
G1 X123.759 Y155.228 E18.79532
G1 X123.017 Y155.323 E18.83264
G1 X122.5 Y155.342 E18.85845
G1 X120.297 Y155.342 E18.96836
G1 X119.55 Y155.302 E19.00568
G1 X118.983 Y155.211 E19.03433
G1 X118.313 Y155.311 E19.06813
G1 X117.653 Y155.342 E19.10109
G1 X103.51 Y155.342 E19.80669
G1 X102.763 Y155.302 E19.84401
G1 X101.962 Y155.173 E19.88449
G1 X101.218 Y155.299 E19.92213
G1 X100.44 Y155.342 E19.96101
G1 X97.5 Y155.342 E20.10768
G1 X96.753 Y155.302 E20.14501
G1 X96.015 Y155.183 E20.1823
G1 X95.293 Y154.985 E20.21965
G1 X94.597 Y154.712 E20.25695
G1 X93.934 Y154.365 E20.29428
G1 X93.311 Y153.95 E20.33163
G1 X92.737 Y153.471 E20.36893
G1 X92.216 Y152.934 E20.40626
G1 X91.757 Y152.344 E20.44355
G1 X91.362 Y151.708 E20.4809
G1 X91.038 Y151.034 E20.51821
G1 X90.788 Y150.329 E20.55553
G1 X90.614 Y149.601 E20.59287
G1 X90.519 Y148.859 E20.63019
G1 X90.5 Y148.342 E20.656
G1 X90.5 Y84.159 E23.85811
G0 F7500 X90.9 Y84.159
G1 F1500 X90.92 Y83.641 E23.88397
G1 X91.074 Y81.684 E23.98191
G1 X91.236 Y80.662 E24.03353
G1 X91.693 Y78.757 E24.13127
G1 X92.012 Y77.774 E24.18283
G1 X92.762 Y75.961 E24.28071
G1 X93.234 Y75.035 E24.33257
G1 X94.259 Y73.363 E24.43041
G1 X94.867 Y72.526 E24.48202
G1 X96.141 Y71.034 E24.5799
G1 X96.874 Y70.301 E24.63162
G1 X98.368 Y69.025 E24.72964
G1 X99.206 Y68.416 E24.78132
G1 X100.876 Y67.393 E24.87903
G1 X101.798 Y66.923 E24.93066
G1 X103.611 Y66.172 E25.02856
G1 X104.596 Y65.852 E25.08023
G1 X106.503 Y65.394 E25.17808
G1 X107.526 Y65.232 E25.22975
G1 X109.482 Y65.078 E25.32764
G1 X110.518 Y65.078 E25.37933
G1 X112.474 Y65.232 E25.47721
G1 X113.497 Y65.394 E25.52889
G1 X115.404 Y65.852 E25.62673
G1 X116.388 Y66.172 E25.67836
G1 X118.199 Y66.922 E25.77615
G1 X119.121 Y67.392 E25.82778
G1 X120.793 Y68.416 E25.9256
G1 X121.632 Y69.025 E25.97732
G1 X123.124 Y70.299 E26.0752
G1 X123.857 Y71.032 E26.12692
G1 X125.133 Y72.526 E26.22494
G1 X125.74 Y73.362 E26.27648
G1 X126.764 Y75.032 E26.37421
G1 X127.236 Y75.958 E26.42607
G1 X127.986 Y77.77 E26.52391
G1 X128.306 Y78.753 E26.57548
G1 X128.764 Y80.661 E26.67338
G1 X128.926 Y81.684 E26.72505
G1 X129.08 Y83.639 E26.82289
G1 X129.1 Y84.157 E26.84875
G1 X129.1 Y148.342 E30.05095
G1 X129.06 Y149.067 E30.08718
G1 X128.941 Y149.784 E30.12344
G1 X128.743 Y150.483 E30.15968
G1 X128.47 Y151.156 E30.19592
G1 X128.125 Y151.795 E30.23215
G1 X127.711 Y152.392 E30.26839
G1 X127.235 Y152.94 E30.30461
G1 X126.701 Y153.433 E30.34087
G1 X126.116 Y153.863 E30.37709
G1 X125.487 Y154.227 E30.41334
G1 X124.822 Y154.52 E30.4496
G1 X124.129 Y154.738 E30.48584
G1 X123.417 Y154.878 E30.52204
G1 X122.5 Y154.942 E30.56791
G1 X120.297 Y154.942 E30.67781
G1 X119.572 Y154.902 E30.71404
G1 X118.964 Y154.801 E30.74479
G1 X118.516 Y154.885 E30.76753
G1 X117.653 Y154.942 E30.81068
G1 X103.51 Y154.942 E31.51627
G1 X102.785 Y154.902 E31.5525
G1 X102.068 Y154.783 E31.58876
G1 X101.969 Y154.755 E31.59389
G1 X101.434 Y154.867 E31.62116
G1 X100.44 Y154.942 E31.67089
G1 X97.5 Y154.942 E31.81757
G1 X96.775 Y154.902 E31.8538
G1 X96.058 Y154.783 E31.89006
G1 X95.359 Y154.585 E31.9263
G1 X94.686 Y154.312 E31.96254
G1 X94.047 Y153.967 E31.99877
G1 X93.45 Y153.553 E32.03501
G1 X92.902 Y153.077 E32.07123
G1 X92.409 Y152.543 E32.10748
G1 X91.979 Y151.958 E32.14371
G1 X91.615 Y151.329 E32.17996
G1 X91.322 Y150.664 E32.21622
G1 X91.104 Y149.971 E32.25246
G1 X90.964 Y149.259 E32.28866
G1 X90.9 Y148.342 E32.33452
G1 X90.9 Y84.159 E35.53663
G0 F7500 X91.3 Y84.159
G1 F1500 X91.319 Y83.673 E35.56089
G1 X91.473 Y81.716 E35.65883
G1 X91.625 Y80.756 E35.70732
G1 X92.082 Y78.851 E35.80506
G1 X92.382 Y77.927 E35.85353
G1 X93.132 Y76.114 E35.95141
G1 X93.575 Y75.244 E36.00012
G1 X94.6 Y73.572 E36.09796
G1 X95.171 Y72.786 E36.14643
G1 X96.445 Y71.294 E36.24431
G1 X97.133 Y70.605 E36.29289
G1 X98.627 Y69.329 E36.39091
G1 X99.415 Y68.757 E36.43949
G1 X101.085 Y67.734 E36.53719
G1 X101.951 Y67.293 E36.58568
G1 X103.764 Y66.542 E36.68358
G1 X104.689 Y66.241 E36.73211
G1 X106.596 Y65.783 E36.82996
G1 X107.557 Y65.631 E36.8785
G1 X109.513 Y65.477 E36.97639
G1 X110.487 Y65.477 E37.02498
G1 X112.443 Y65.631 E37.12287
G1 X113.404 Y65.783 E37.17141
G1 X115.311 Y66.241 E37.26925
G1 X116.235 Y66.542 E37.31774
G1 X118.046 Y67.292 E37.41553
G1 X118.912 Y67.733 E37.46401
G1 X120.584 Y68.757 E37.56183
G1 X121.372 Y69.329 E37.61041
G1 X122.864 Y70.603 E37.70829
G1 X123.553 Y71.291 E37.75687
G1 X124.829 Y72.785 E37.85489
G1 X125.399 Y73.571 E37.90333
G1 X126.423 Y75.241 E38.00106
G1 X126.867 Y76.111 E38.04979
G1 X127.617 Y77.923 E38.14763
G1 X127.917 Y78.847 E38.1961
G1 X128.375 Y80.755 E38.29399
G1 X128.527 Y81.715 E38.34248
G1 X128.681 Y83.67 E38.44032
G1 X128.7 Y84.157 E38.46464
G1 X128.7 Y148.342 E41.66684
G1 X128.66 Y149.045 E41.70197
G1 X128.541 Y149.739 E41.7371
G1 X128.343 Y150.414 E41.77219
G1 X128.071 Y151.063 E41.8073
G1 X127.726 Y151.677 E41.84244
G1 X127.315 Y152.248 E41.87754
G1 X126.841 Y152.769 E41.91268
G1 X126.311 Y153.233 E41.94782
G1 X125.732 Y153.633 E41.98293
G1 X125.111 Y153.965 E42.01806
G1 X124.457 Y154.225 E42.05317
G1 X123.777 Y154.409 E42.08832
G1 X123.081 Y154.515 E42.12344
G1 X122.5 Y154.542 E42.15246
G1 X120.297 Y154.542 E42.26237
G1 X119.594 Y154.502 E42.2975
G1 X118.959 Y154.393 E42.32964
G1 X118.689 Y154.455 E42.34346
G1 X117.653 Y154.542 E42.39533
G1 X103.51 Y154.542 E43.10093
G1 X102.807 Y154.502 E43.13606
G1 X102.113 Y154.383 E43.17119
G1 X101.968 Y154.341 E43.17872
G1 X101.619 Y154.429 E43.19667
G1 X100.922 Y154.523 E43.23176
G1 X100.44 Y154.542 E43.25583
G1 X97.5 Y154.542 E43.40251
G1 X96.797 Y154.502 E43.43764
G1 X96.103 Y154.383 E43.47276
G1 X95.428 Y154.185 E43.50786
G1 X94.779 Y153.913 E43.54297
G1 X94.165 Y153.568 E43.5781
G1 X93.594 Y153.157 E43.6132
G1 X93.073 Y152.683 E43.64834
G1 X92.609 Y152.153 E43.68349
G1 X92.209 Y151.574 E43.7186
G1 X91.877 Y150.953 E43.75373
G1 X91.617 Y150.299 E43.78884
G1 X91.433 Y149.619 E43.82399
G1 X91.327 Y148.923 E43.85911
G1 X91.3 Y148.342 E43.88813
G1 X91.3 Y84.159 E47.09023
G0 F7500 X91.7 Y84.159
G1 F1500 X91.718 Y83.704 E47.11295
G1 X91.872 Y81.747 E47.21088
G1 X92.014 Y80.849 E47.25624
G1 X92.471 Y78.944 E47.35398
G1 X92.751 Y78.08 E47.39929
G1 X93.501 Y76.267 E47.49718
G1 X93.916 Y75.453 E47.54276
G1 X94.941 Y73.781 E47.6406
G1 X95.475 Y73.046 E47.68593
G1 X96.749 Y71.554 E47.78381
G1 X97.393 Y70.91 E47.82925
G1 X98.887 Y69.634 E47.92727
G1 X99.624 Y69.098 E47.97273
G1 X101.294 Y68.075 E48.07044
G1 X102.104 Y67.663 E48.11578
G1 X103.917 Y66.912 E48.21368
G1 X104.783 Y66.63 E48.25912
G1 X106.69 Y66.172 E48.35697
G1 X107.589 Y66.03 E48.40237
G1 X109.545 Y65.876 E48.50026
G1 X110.455 Y65.876 E48.54566
G1 X112.411 Y66.03 E48.64355
G1 X113.31 Y66.172 E48.68896
G1 X115.217 Y66.63 E48.7868
G1 X116.082 Y66.911 E48.83218
G1 X117.893 Y67.661 E48.92997
G1 X118.703 Y68.074 E48.97533
G1 X120.375 Y69.098 E49.07315
G1 X121.112 Y69.633 E49.11858
G1 X122.604 Y70.907 E49.21646
G1 X123.248 Y71.551 E49.2619
G1 X124.524 Y73.045 E49.35992
G1 X125.058 Y73.78 E49.40525
G1 X126.082 Y75.45 E49.50298
G1 X126.497 Y76.264 E49.54856
G1 X127.247 Y78.076 E49.6464
G1 X127.528 Y78.94 E49.69173
G1 X127.986 Y80.848 E49.78963
G1 X128.128 Y81.747 E49.83503
G1 X128.282 Y83.702 E49.93287
G1 X128.3 Y84.157 E49.95559
G1 X128.3 Y148.342 E53.15779
G1 X128.26 Y149.022 E53.19177
G1 X128.141 Y149.692 E53.22572
G1 X127.944 Y150.344 E53.25971
G1 X127.672 Y150.968 E53.29367
G1 X127.328 Y151.556 E53.32765
G1 X126.918 Y152.1 E53.36164
G1 X126.447 Y152.591 E53.39558
G1 X125.922 Y153.025 E53.42957
G1 X125.35 Y153.394 E53.46353
G1 X124.738 Y153.693 E53.49751
G1 X124.096 Y153.918 E53.53145
G1 X123.431 Y154.067 E53.56545
G1 X122.5 Y154.142 E53.61205
G1 X120.297 Y154.142 E53.72195
G1 X119.617 Y154.102 E53.75594
G1 X118.962 Y153.986 E53.78912
G1 X118.83 Y154.021 E53.79594
G1 X118.156 Y154.12 E53.82992
G1 X117.653 Y154.142 E53.85504
G1 X103.51 Y154.142 E54.56064
G1 X102.83 Y154.102 E54.59462
G1 X102.16 Y153.983 E54.62857
G1 X101.974 Y153.927 E54.63826
G1 X101.772 Y153.987 E54.64878
G1 X101.102 Y154.104 E54.68271
G1 X100.44 Y154.142 E54.71579
G1 X97.5 Y154.142 E54.86247
G1 X96.82 Y154.102 E54.89645
G1 X96.15 Y153.983 E54.9304
G1 X95.498 Y153.786 E54.96438
G1 X94.874 Y153.514 E54.99834
G1 X94.286 Y153.17 E55.03233
G1 X93.742 Y152.76 E55.06632
G1 X93.251 Y152.289 E55.10026
G1 X92.817 Y151.764 E55.13424
G1 X92.448 Y151.192 E55.1682
G1 X92.149 Y150.58 E55.20219
G1 X91.924 Y149.938 E55.23612
G1 X91.775 Y149.273 E55.27012
G1 X91.7 Y148.342 E55.31672
G1 X91.7 Y84.159 E58.51883
G0 F7500 X92.1 Y84.159
G1 F1500 X92.117 Y83.735 E58.54
G1 X92.271 Y81.778 E58.63793
G1 X92.403 Y80.942 E58.68016
G1 X92.86 Y79.037 E58.7779
G1 X93.121 Y78.233 E58.82007
G1 X93.871 Y76.42 E58.91795
G1 X94.257 Y75.662 E58.96039
G1 X95.282 Y73.99 E59.05823
G1 X95.779 Y73.305 E59.10046
G1 X97.053 Y71.813 E59.19834
G1 X97.653 Y71.214 E59.24063
G1 X99.147 Y69.938 E59.33866
G1 X99.833 Y69.439 E59.38098
G1 X101.503 Y68.416 E59.47868
G1 X102.257 Y68.032 E59.5209
G1 X104.07 Y67.281 E59.6188
G1 X104.876 Y67.019 E59.66109
G1 X106.783 Y66.561 E59.75893
G1 X107.62 Y66.429 E59.80121
G1 X109.576 Y66.275 E59.89909
G1 X110.424 Y66.275 E59.9414
G1 X112.38 Y66.429 E60.03929
G1 X113.217 Y66.561 E60.08156
G1 X115.124 Y67.019 E60.17941
G1 X115.929 Y67.281 E60.22164
G1 X117.74 Y68.031 E60.31943
G1 X118.494 Y68.415 E60.36165
G1 X120.166 Y69.439 E60.45947
G1 X120.853 Y69.937 E60.5018
G1 X122.345 Y71.211 E60.59968
G1 X122.944 Y71.811 E60.64198
G1 X124.22 Y73.305 E60.74
G1 X124.717 Y73.989 E60.78218
G1 X125.741 Y75.659 E60.87991
G1 X126.127 Y76.417 E60.92235
G1 X126.877 Y78.229 E61.02019
G1 X127.139 Y79.034 E61.06243
G1 X127.597 Y80.942 E61.16032
G1 X127.729 Y81.778 E61.20254
G1 X127.883 Y83.733 E61.30038
G1 X127.9 Y84.157 E61.32155
G1 X127.9 Y148.342 E64.52376
G1 X127.86 Y148.998 E64.55654
G1 X127.741 Y149.644 E64.58932
G1 X127.544 Y150.271 E64.6221
G1 X127.272 Y150.869 E64.65488
G1 X126.93 Y151.43 E64.68766
G1 X126.522 Y151.945 E64.72044
G1 X126.055 Y152.407 E64.75321
G1 X125.535 Y152.808 E64.78597
G1 X124.971 Y153.144 E64.81873
G1 X124.369 Y153.408 E64.85152
G1 X123.74 Y153.598 E64.8843
G1 X123.093 Y153.709 E64.91705
G1 X122.5 Y153.742 E64.94668
G1 X120.297 Y153.742 E65.05659
G1 X119.641 Y153.702 E65.08938
G1 X118.972 Y153.576 E65.12334
G1 X118.294 Y153.704 E65.15777
G1 X117.653 Y153.742 E65.1898
G1 X103.51 Y153.742 E65.8954
G1 X102.854 Y153.702 E65.92819
G1 X102.208 Y153.583 E65.96096
G1 X102.004 Y153.519 E65.97163
G1 X101.25 Y153.681 E66.0101
G1 X100.44 Y153.742 E66.05063
G1 X97.5 Y153.742 E66.1973
G1 X96.844 Y153.702 E66.23009
G1 X96.198 Y153.583 E66.26286
G1 X95.571 Y153.386 E66.29565
G1 X94.973 Y153.114 E66.32843
G1 X94.412 Y152.772 E66.36121
G1 X93.897 Y152.364 E66.39399
G1 X93.435 Y151.897 E66.42676
G1 X93.034 Y151.377 E66.45952
G1 X92.698 Y150.813 E66.49227
G1 X92.434 Y150.211 E66.52507
G1 X92.244 Y149.582 E66.55785
G1 X92.133 Y148.935 E66.5906
G1 X92.1 Y148.342 E66.62023
G1 X92.1 Y84.159 E69.82234
G0 F7500 X92.5 Y84.159
