;FLAVOR:Marlin
;TIME:3871
;Filament used: 2.11468m
;Layer height: 0.15
;MINX:89.7
;MINY:68.013
;MINZ:0.3
;MAXX:130.3
;MAXY:151.987
;MAXZ:11.85
;Generated with Cura_SteamEngine main
M140 S60
M105
M190 S60
M104 S200
M105
M109 S200
M82 ;absolute extrusion mode
G28 ;Home
G1 Z15.0 F2000 ;Move the platform
G92 E0
G92 E0
G1 F1500 E-6.5
;LAYER_COUNT:78
;LAYER:0
M107
M204 S1000
G0 F7500 X92.279 Y72.437 Z0.3
G0 X89.7 Y79.8
;TYPE:SKIRT
G1 F1500 E0
G1 X89.727 Y79.152 E0.03236
G1 X89.782 Y78.492 E0.0654
G1 X89.887 Y77.71 E0.10476
G1 X89.991 Y77.234 E0.12907
G1 X90.152 Y76.595 E0.16195
G1 X90.384 Y75.84 E0.20135
G1 X90.571 Y75.372 E0.2265
G1 X90.836 Y74.767 E0.25945
G1 X91.189 Y74.06 E0.29887
G1 X91.453 Y73.627 E0.32417
G1 X91.814 Y73.075 E0.35708
G1 X92.279 Y72.437 E0.39647
G1 X92.602 Y72.062 E0.42116
G1 X93.052 Y71.573 E0.45431
G1 X93.616 Y71.02 E0.49372
G1 X93.995 Y70.704 E0.51834
G1 X94.513 Y70.3 E0.55111
G1 X95.16 Y69.847 E0.59052
G1 X95.606 Y69.586 E0.6163
G1 X96.188 Y69.272 E0.64929
G1 X96.901 Y68.933 E0.68868
G1 X97.358 Y68.76 E0.71306
G1 X97.984 Y68.545 E0.74608
G1 X98.743 Y68.327 E0.78548
G1 X99.234 Y68.228 E0.81047
G1 X99.887 Y68.119 E0.84349
G1 X100.671 Y68.029 E0.88286
G1 X101.171 Y68.013 E0.90782
G1 X101.829 Y68.013 E0.94065
G1 X102.618 Y68.053 E0.98006
G1 X103.113 Y68.119 E1.00498
G1 X103.766 Y68.228 E1.03801
G1 X104.538 Y68.398 E1.07745
G1 X105.016 Y68.545 E1.1024
G1 X105.642 Y68.76 E1.13542
G1 X106.375 Y69.054 E1.17482
G1 X106.812 Y69.272 E1.19918
G1 X107.394 Y69.586 E1.23218
G1 X108.069 Y69.996 E1.27158
G1 X108.487 Y70.3 E1.29736
G1 X109.005 Y70.704 E1.33014
G1 X109.602 Y71.221 E1.36954
G1 X110 Y71.63 E1.39801
G1 X110.616 Y71.02 E1.44126
G1 X110.995 Y70.704 E1.46588
G1 X111.513 Y70.3 E1.49865
G1 X112.16 Y69.847 E1.53806
G1 X112.606 Y69.586 E1.56384
G1 X113.188 Y69.272 E1.59683
G1 X113.901 Y68.933 E1.63622
G1 X114.358 Y68.76 E1.6606
G1 X114.984 Y68.545 E1.69362
G1 X115.743 Y68.327 E1.73302
G1 X116.234 Y68.228 E1.75801
G1 X116.887 Y68.119 E1.79103
G1 X117.671 Y68.029 E1.83041
G1 X118.171 Y68.013 E1.85536
G1 X118.829 Y68.013 E1.88819
G1 X119.618 Y68.053 E1.9276
G1 X120.113 Y68.119 E1.95252
G1 X120.766 Y68.228 E1.98555
G1 X121.538 Y68.398 E2.02499
G1 X122.016 Y68.545 E2.04994
G1 X122.642 Y68.76 E2.08296
G1 X123.375 Y69.054 E2.12236
G1 X123.812 Y69.272 E2.14672
G1 X124.394 Y69.586 E2.17972
G1 X125.069 Y69.996 E2.21912
G1 X125.487 Y70.3 E2.2449
G1 X126.005 Y70.704 E2.27768
G1 X126.602 Y71.221 E2.31708
G1 X126.948 Y71.573 E2.3417
G1 X127.398 Y72.062 E2.37486
G1 X127.902 Y72.67 E2.41426
G1 X128.186 Y73.075 E2.43893
G1 X128.547 Y73.627 E2.47184
G1 X128.945 Y74.309 E2.51124
G1 X129.162 Y74.763 E2.53634
G1 X129.426 Y75.365 E2.56914
G1 X129.706 Y76.104 E2.60856
G1 X129.846 Y76.59 E2.63379
G1 X130.008 Y77.232 E2.66683
G1 X130.162 Y78.006 E2.7062
G1 X130.218 Y78.49 E2.73051
G1 X130.273 Y79.148 E2.76345
G1 X130.3 Y79.798 E2.79591
G1 X130.3 Y144.187 E6.00829
G1 X130.26 Y144.976 E6.0477
G1 X130.141 Y145.756 E6.08707
G1 X129.943 Y146.521 E6.12649
G1 X129.669 Y147.261 E6.16586
G1 X129.321 Y147.97 E6.20526
G1 X128.903 Y148.641 E6.2447
G1 X128.42 Y149.265 E6.28407
G1 X127.877 Y149.838 E6.32345
G1 X127.278 Y150.353 E6.36286
G1 X126.63 Y150.804 E6.40225
G1 X125.939 Y151.188 E6.44169
G1 X125.214 Y151.5 E6.48107
G1 X124.461 Y151.737 E6.52045
G1 X123.687 Y151.896 E6.55988
G1 X122.902 Y151.977 E6.59925
G1 X122.5 Y151.987 E6.61931
G1 X119.53 Y151.987 E6.76748
G1 X118.741 Y151.947 E6.8069
G1 X118.518 Y151.913 E6.81815
G1 X117.47 Y151.987 E6.87057
G1 X102.53 Y151.987 E7.61593
G1 X101.741 Y151.947 E7.65534
G1 X101.518 Y151.913 E7.66659
G1 X100.47 Y151.987 E7.71901
G1 X97.5 Y151.987 E7.86718
G1 X96.711 Y151.947 E7.9066
G1 X95.931 Y151.828 E7.94596
G1 X95.166 Y151.63 E7.98538
G1 X94.426 Y151.356 E8.02475
G1 X93.717 Y151.008 E8.06416
G1 X93.046 Y150.59 E8.1036
G1 X92.422 Y150.107 E8.14296
G1 X91.849 Y149.564 E8.18235
G1 X91.334 Y148.965 E8.22176
G1 X90.883 Y148.317 E8.26115
G1 X90.499 Y147.626 E8.30059
G1 X90.187 Y146.901 E8.33997
G1 X89.95 Y146.148 E8.37935
G1 X89.791 Y145.374 E8.41877
G1 X89.71 Y144.589 E8.45814
G1 X89.7 Y144.187 E8.4782
G1 X89.7 Y79.8 E11.69049
G0 F7500 X90.1 Y79.8
G1 F1500 X90.126 Y79.185 E11.72119
G1 X90.181 Y78.525 E11.75424
G1 X90.284 Y77.763 E11.7926
G1 X90.379 Y77.332 E11.81462
G1 X90.54 Y76.693 E11.84749
G1 X90.767 Y75.958 E11.88587
G1 X90.938 Y75.532 E11.90877
G1 X91.203 Y74.927 E11.94173
G1 X91.548 Y74.239 E11.98012
G1 X91.788 Y73.846 E12.0031
G1 X92.149 Y73.294 E12.036
G1 X92.603 Y72.673 E12.07438
G1 X92.897 Y72.333 E12.09681
G1 X93.347 Y71.844 E12.12996
G1 X93.896 Y71.306 E12.16831
G1 X94.241 Y71.02 E12.19067
G1 X94.759 Y70.616 E12.22344
G1 X95.389 Y70.175 E12.26181
G1 X95.796 Y69.938 E12.2853
G1 X96.378 Y69.624 E12.3183
G1 X97.073 Y69.295 E12.35666
G1 X97.488 Y69.138 E12.3788
G1 X98.114 Y68.923 E12.41182
G1 X98.854 Y68.712 E12.45021
G1 X99.3 Y68.623 E12.4729
G1 X99.953 Y68.514 E12.50593
G1 X100.717 Y68.427 E12.54429
G1 X101.171 Y68.413 E12.56695
G1 X101.829 Y68.413 E12.59978
G1 X102.597 Y68.453 E12.63815
G1 X103.047 Y68.514 E12.6608
G1 X103.7 Y68.623 E12.69383
G1 X104.451 Y68.789 E12.7322
G1 X104.886 Y68.923 E12.75491
G1 X105.512 Y69.138 E12.78793
G1 X106.225 Y69.426 E12.8263
G1 X106.622 Y69.624 E12.84843
G1 X107.204 Y69.938 E12.88142
G1 X107.861 Y70.338 E12.9198
G1 X108.241 Y70.616 E12.94329
G1 X108.759 Y71.02 E12.97606
G1 X109.34 Y71.524 E13.01443
G1 X109.653 Y71.844 E13.03677
G1 X110 Y72.221 E13.06233
G1 X110.347 Y71.844 E13.08789
G1 X110.896 Y71.306 E13.12624
G1 X111.241 Y71.02 E13.1486
G1 X111.759 Y70.616 E13.18137
G1 X112.389 Y70.175 E13.21974
G1 X112.796 Y69.938 E13.24323
G1 X113.378 Y69.624 E13.27623
G1 X114.073 Y69.295 E13.31459
G1 X114.488 Y69.138 E13.33673
G1 X115.114 Y68.923 E13.36975
G1 X115.854 Y68.712 E13.40814
G1 X116.3 Y68.623 E13.43083
G1 X116.953 Y68.514 E13.46386
G1 X117.717 Y68.427 E13.50222
G1 X118.171 Y68.413 E13.52488
G1 X118.829 Y68.413 E13.55771
G1 X119.597 Y68.453 E13.59608
G1 X120.047 Y68.514 E13.61873
G1 X120.7 Y68.623 E13.65176
G1 X121.451 Y68.789 E13.69013
G1 X121.886 Y68.923 E13.71284
G1 X122.512 Y69.138 E13.74586
G1 X123.225 Y69.426 E13.78423
G1 X123.622 Y69.624 E13.80636
G1 X124.204 Y69.938 E13.83935
G1 X124.861 Y70.338 E13.87773
G1 X125.241 Y70.616 E13.90122
G1 X125.759 Y71.02 E13.93399
G1 X126.34 Y71.524 E13.97236
G1 X126.653 Y71.844 E13.9947
G1 X127.103 Y72.333 E14.02785
G1 X127.594 Y72.925 E14.06622
G1 X127.851 Y73.294 E14.08866
G1 X128.212 Y73.846 E14.12156
G1 X128.599 Y74.51 E14.15991
G1 X128.796 Y74.924 E14.18278
G1 X129.06 Y75.526 E14.21557
G1 X129.332 Y76.246 E14.25397
G1 X129.458 Y76.687 E14.27685
G1 X129.62 Y77.329 E14.30989
G1 X129.769 Y78.084 E14.34828
G1 X129.819 Y78.524 E14.37037
G1 X129.874 Y79.182 E14.40332
G1 X129.9 Y79.798 E14.43408
G1 X129.9 Y144.187 E17.64646
G1 X129.86 Y144.955 E17.68482
G1 X129.741 Y145.715 E17.7232
G1 X129.543 Y146.458 E17.76157
G1 X129.269 Y147.177 E17.79995
G1 X128.922 Y147.863 E17.83831
G1 X128.506 Y148.51 E17.87668
G1 X128.025 Y149.11 E17.91505
G1 X127.484 Y149.657 E17.95343
G1 X126.889 Y150.145 E17.99182
G1 X126.247 Y150.568 E18.03018
G1 X125.564 Y150.923 E18.06858
G1 X124.849 Y151.204 E18.10691
G1 X124.107 Y151.41 E18.14533
G1 X123.349 Y151.538 E18.18368
G1 X122.5 Y151.587 E18.22611
G1 X119.53 Y151.587 E18.37428
G1 X118.762 Y151.547 E18.41265
G1 X118.499 Y151.506 E18.42593
G1 X118.007 Y151.567 E18.45066
G1 X117.47 Y151.587 E18.47747
G1 X102.53 Y151.587 E19.22283
G1 X101.762 Y151.547 E19.2612
G1 X101.499 Y151.506 E19.27448
G1 X101.007 Y151.567 E19.29921
G1 X100.47 Y151.587 E19.32602
G1 X97.5 Y151.587 E19.4742
G1 X96.732 Y151.547 E19.51256
G1 X95.972 Y151.428 E19.55094
G1 X95.229 Y151.23 E19.5893
G1 X94.51 Y150.956 E19.62769
G1 X93.824 Y150.609 E19.66605
G1 X93.177 Y150.193 E19.70442
G1 X92.577 Y149.712 E19.74279
G1 X92.03 Y149.171 E19.78117
G1 X91.542 Y148.576 E19.81956
G1 X91.119 Y147.934 E19.85792
G1 X90.764 Y147.251 E19.89632
G1 X90.483 Y146.536 E19.93465
G1 X90.277 Y145.794 E19.97307
G1 X90.149 Y145.036 E20.01142
G1 X90.1 Y144.187 E20.05385
G1 X90.1 Y79.8 E23.26613
G0 F7500 X90.5 Y79.8
G1 F1500 X90.524 Y79.219 E23.29514
G1 X90.579 Y78.559 E23.32818
G1 X90.681 Y77.818 E23.3655
G1 X90.767 Y77.43 E23.38532
G1 X90.928 Y76.791 E23.4182
G1 X91.149 Y76.076 E23.45554
G1 X91.304 Y75.692 E23.4762
G1 X91.569 Y75.087 E23.50915
G1 X91.905 Y74.419 E23.54645
G1 X92.123 Y74.065 E23.5672
G1 X92.484 Y73.513 E23.6001
G1 X92.926 Y72.909 E23.63744
G1 X93.191 Y72.604 E23.6576
G1 X93.641 Y72.115 E23.69075
G1 X94.176 Y71.592 E23.72808
G1 X94.487 Y71.335 E23.74821
G1 X95.005 Y70.931 E23.78098
G1 X95.619 Y70.503 E23.81832
G1 X95.986 Y70.29 E23.83949
G1 X96.568 Y69.976 E23.87248
G1 X97.245 Y69.657 E23.90982
G1 X97.618 Y69.517 E23.9297
G1 X98.244 Y69.302 E23.96272
G1 X98.964 Y69.097 E24.00007
G1 X99.365 Y69.018 E24.02046
G1 X100.018 Y68.909 E24.05349
G1 X100.762 Y68.825 E24.09084
G1 X101.171 Y68.813 E24.11126
G1 X101.829 Y68.813 E24.14408
G1 X102.576 Y68.853 E24.18141
G1 X102.982 Y68.909 E24.20185
G1 X103.635 Y69.018 E24.23488
G1 X104.365 Y69.18 E24.27219
G1 X104.756 Y69.302 E24.29262
G1 X105.382 Y69.517 E24.32564
G1 X106.075 Y69.797 E24.36293
G1 X106.432 Y69.976 E24.38286
G1 X107.014 Y70.29 E24.41585
G1 X107.652 Y70.68 E24.45316
G1 X107.995 Y70.931 E24.47436
G1 X108.513 Y71.335 E24.50714
G1 X109.077 Y71.826 E24.54444
G1 X109.359 Y72.115 E24.56459
G1 X109.809 Y72.604 E24.59774
G1 X109.995 Y72.83 E24.61234
G1 X110.191 Y72.604 E24.62727
G1 X110.641 Y72.115 E24.66042
G1 X111.176 Y71.592 E24.69775
G1 X111.487 Y71.335 E24.71788
G1 X112.005 Y70.931 E24.75065
G1 X112.619 Y70.503 E24.78799
G1 X112.986 Y70.29 E24.80916
G1 X113.568 Y69.976 E24.84215
G1 X114.245 Y69.657 E24.87949
G1 X114.618 Y69.517 E24.89937
G1 X115.244 Y69.302 E24.93239
G1 X115.964 Y69.097 E24.96974
G1 X116.365 Y69.018 E24.99013
G1 X117.018 Y68.909 E25.02316
G1 X117.762 Y68.825 E25.06051
G1 X118.171 Y68.813 E25.08093
G1 X118.829 Y68.813 E25.11375
G1 X119.576 Y68.853 E25.15108
G1 X119.982 Y68.909 E25.17152
G1 X120.635 Y69.018 E25.20455
G1 X121.365 Y69.18 E25.24186
G1 X121.756 Y69.302 E25.26229
G1 X122.382 Y69.517 E25.29531
G1 X123.075 Y69.797 E25.3326
G1 X123.432 Y69.976 E25.35253
G1 X124.014 Y70.29 E25.38552
G1 X124.652 Y70.68 E25.42283
G1 X124.995 Y70.931 E25.44403
G1 X125.513 Y71.335 E25.4768
G1 X126.077 Y71.826 E25.51411
G1 X126.359 Y72.115 E25.53426
G1 X126.809 Y72.604 E25.56741
G1 X127.285 Y73.181 E25.60473
G1 X127.516 Y73.513 E25.62491
G1 X127.877 Y74.065 E25.65781
G1 X128.253 Y74.712 E25.69515
G1 X128.43 Y75.085 E25.71575
G1 X128.694 Y75.687 E25.74854
G1 X128.957 Y76.387 E25.78585
G1 X129.07 Y76.785 E25.80649
G1 X129.232 Y77.427 E25.83952
G1 X129.376 Y78.161 E25.87684
G1 X129.421 Y78.557 E25.89672
G1 X129.476 Y79.215 E25.92966
G1 X129.5 Y79.798 E25.95878
G1 X129.5 Y144.187 E29.17116
G1 X129.46 Y144.934 E29.20848
G1 X129.341 Y145.672 E29.24577
G1 X129.143 Y146.394 E29.28312
G1 X128.87 Y147.09 E29.32042
G1 X128.523 Y147.753 E29.35776
G1 X128.108 Y148.376 E29.3951
G1 X127.629 Y148.95 E29.4324
G1 X127.092 Y149.471 E29.46973
G1 X126.502 Y149.93 E29.50702
G1 X125.866 Y150.325 E29.54437
G1 X125.192 Y150.649 E29.58168
G1 X124.487 Y150.899 E29.619
G1 X123.759 Y151.073 E29.65634
G1 X123.017 Y151.168 E29.69366
G1 X122.5 Y151.187 E29.71948
G1 X119.53 Y151.187 E29.86765
G1 X118.783 Y151.147 E29.90497
G1 X118.499 Y151.101 E29.91932
G1 X118.213 Y151.147 E29.93378
G1 X117.47 Y151.187 E29.9709
G1 X102.53 Y151.187 E30.71626
G1 X101.783 Y151.147 E30.75358
G1 X101.499 Y151.101 E30.76793
G1 X101.213 Y151.147 E30.78238
G1 X100.47 Y151.187 E30.81951
G1 X97.5 Y151.187 E30.96768
G1 X96.753 Y151.147 E31.005
G1 X96.015 Y151.028 E31.0423
G1 X95.293 Y150.83 E31.07965
G1 X94.597 Y150.557 E31.11695
G1 X93.934 Y150.21 E31.15428
G1 X93.311 Y149.795 E31.19163
G1 X92.737 Y149.316 E31.22892
G1 X92.216 Y148.779 E31.26625
G1 X91.757 Y148.189 E31.30355
G1 X91.362 Y147.553 E31.3409
G1 X91.038 Y146.879 E31.37821
G1 X90.788 Y146.174 E31.41553
G1 X90.614 Y145.446 E31.45287
G1 X90.519 Y144.704 E31.49019
G1 X90.5 Y144.187 E31.516
G1 X90.5 Y79.8 E34.72828
G0 F7500 X90.9 Y79.8
G1 F1500 X90.923 Y79.252 E34.75565
G1 X90.978 Y78.592 E34.78869
G1 X91.155 Y77.527 E34.84255
G1 X91.316 Y76.888 E34.87543
G1 X91.532 Y76.195 E34.91164
G1 X91.671 Y75.853 E34.93006
G1 X91.936 Y75.248 E34.96301
G1 X92.263 Y74.6 E34.99922
G1 X92.457 Y74.284 E35.01772
G1 X92.818 Y73.732 E35.05063
G1 X93.485 Y72.875 E35.10481
G1 X93.935 Y72.386 E35.13796
G1 X94.733 Y71.651 E35.19209
G1 X95.251 Y71.247 E35.22486
G1 X95.848 Y70.832 E35.26113
G1 X96.176 Y70.642 E35.28005
G1 X96.758 Y70.328 E35.31304
G1 X97.748 Y69.895 E35.36695
G1 X98.374 Y69.68 E35.39997
G1 X99.073 Y69.482 E35.43621
G1 X99.431 Y69.412 E35.45441
G1 X100.084 Y69.303 E35.48744
G1 X100.806 Y69.223 E35.52368
G1 X101.171 Y69.213 E35.5419
G1 X101.829 Y69.213 E35.57473
G1 X102.554 Y69.253 E35.61095
G1 X102.916 Y69.303 E35.62918
G1 X103.569 Y69.412 E35.66221
G1 X104.277 Y69.571 E35.69842
G1 X104.626 Y69.68 E35.71666
G1 X105.252 Y69.895 E35.74968
G1 X106.242 Y70.328 E35.80359
G1 X106.824 Y70.642 E35.83658
G1 X107.443 Y71.022 E35.87282
G1 X107.749 Y71.247 E35.89177
G1 X108.267 Y71.651 E35.92454
G1 X109.065 Y72.386 E35.97867
G1 X109.515 Y72.875 E36.01182
G1 X110 Y73.498 E36.05121
G1 X110.485 Y72.875 E36.0906
G1 X110.935 Y72.386 E36.12375
G1 X111.733 Y71.651 E36.17788
G1 X112.251 Y71.247 E36.21065
G1 X112.848 Y70.832 E36.24693
G1 X113.176 Y70.642 E36.26584
G1 X113.758 Y70.328 E36.29883
G1 X114.748 Y69.895 E36.35274
G1 X115.374 Y69.68 E36.38576
G1 X116.073 Y69.482 E36.42201
G1 X116.431 Y69.412 E36.44021
G1 X117.084 Y69.303 E36.47324
G1 X117.806 Y69.223 E36.50948
G1 X118.171 Y69.213 E36.52769
G1 X118.829 Y69.213 E36.56052
G1 X119.554 Y69.253 E36.59675
G1 X119.916 Y69.303 E36.61498
G1 X120.569 Y69.412 E36.64801
G1 X121.277 Y69.571 E36.68421
G1 X121.626 Y69.68 E36.70245
G1 X122.252 Y69.895 E36.73547
G1 X123.242 Y70.328 E36.78938
G1 X123.824 Y70.642 E36.82237
G1 X124.443 Y71.022 E36.85861
G1 X124.749 Y71.247 E36.87756
G1 X125.267 Y71.651 E36.91033
G1 X126.065 Y72.386 E36.96446
G1 X126.515 Y72.875 E36.99761
G1 X127.182 Y73.732 E37.05179
G1 X127.543 Y74.284 E37.0847
G1 X127.906 Y74.912 E37.12089
G1 X128.063 Y75.245 E37.13926
G1 X128.327 Y75.847 E37.17205
G1 X128.582 Y76.528 E37.20833
G1 X128.682 Y76.883 E37.22673
G1 X128.844 Y77.525 E37.25976
G1 X129.022 Y78.59 E37.31363
G1 X129.077 Y79.248 E37.34658
G1 X129.1 Y79.798 E37.37404
G1 X129.1 Y144.187 E40.58642
G1 X129.06 Y144.912 E40.62265
G1 X128.941 Y145.629 E40.65891
G1 X128.743 Y146.328 E40.69515
G1 X128.47 Y147.001 E40.73138
G1 X128.125 Y147.64 E40.76761
G1 X127.711 Y148.237 E40.80386
G1 X127.235 Y148.785 E40.84007
G1 X126.701 Y149.278 E40.87633
G1 X126.116 Y149.708 E40.91255
G1 X125.487 Y150.072 E40.94881
G1 X124.822 Y150.365 E40.98507
G1 X124.129 Y150.583 E41.02131
G1 X123.417 Y150.723 E41.05751
G1 X122.5 Y150.787 E41.10337
G1 X119.53 Y150.787 E41.25155
G1 X118.805 Y150.747 E41.28777
G1 X118.513 Y150.699 E41.30253
G1 X118.389 Y150.723 E41.30884
G1 X117.47 Y150.787 E41.3548
G1 X102.53 Y150.787 E42.10016
G1 X101.805 Y150.747 E42.13638
G1 X101.513 Y150.699 E42.15114
G1 X101.389 Y150.723 E42.15745
G1 X100.47 Y150.787 E42.20341
G1 X97.5 Y150.787 E42.35158
G1 X96.775 Y150.747 E42.38781
G1 X96.058 Y150.628 E42.42407
G1 X95.359 Y150.43 E42.46031
G1 X94.686 Y150.157 E42.49654
G1 X94.047 Y149.812 E42.53277
G1 X93.45 Y149.398 E42.56902
G1 X92.902 Y148.922 E42.60523
G1 X92.409 Y148.388 E42.64149
G1 X91.979 Y147.803 E42.67771
G1 X91.615 Y147.174 E42.71397
G1 X91.322 Y146.509 E42.75023
G1 X91.104 Y145.816 E42.78647
G1 X90.964 Y145.104 E42.82267
G1 X90.9 Y144.187 E42.86853
G1 X90.9 Y79.8 E46.08081
G0 F7500 X91.3 Y79.8
G1 F1500 X91.321 Y79.285 E46.10653
G1 X91.376 Y78.625 E46.13957
G1 X91.543 Y77.625 E46.19015
G1 X91.704 Y76.986 E46.22303
G1 X92.037 Y76.013 E46.27433
G1 X92.302 Y75.408 E46.30729
G1 X92.792 Y74.503 E46.35863
G1 X93.153 Y73.951 E46.39154
G1 X93.78 Y73.146 E46.44244
G1 X94.23 Y72.657 E46.4756
G1 X94.979 Y71.966 E46.52644
G1 X95.497 Y71.562 E46.55921
G1 X96.366 Y70.994 E46.61101
G1 X96.948 Y70.68 E46.644
G1 X97.878 Y70.273 E46.69464
