;FLAVOR:Marlin
;TIME:6265
;Filament used: 3.48163m
;Layer height: 0.15
;MINX:91.2
;MINY:59.525
;MINZ:0.3
;MAXX:128.8
;MAXY:160.475
;MAXZ:40.5
;Generated with Cura_SteamEngine main
M140 S60
M105
M190 S60
M104 S200
M105
M109 S200
M82 ;absolute extrusion mode
G28 ;Home
G1 Z15.0 F2000 ;Move the platform
G92 E0
G92 E0
G1 F1500 E-6.5
;LAYER_COUNT:269
;LAYER:0
M107
M204 S1000
G0 F7500 X92.597 Y62.871 Z0.3
G0 X91.2 Y67.325
;TYPE:SKIRT
G1 F1500 E0
G1 X91.24 Y66.536 E0.03941
G1 X91.359 Y65.756 E0.07878
G1 X91.557 Y64.991 E0.1182
G1 X91.831 Y64.251 E0.15757
G1 X92.179 Y63.542 E0.19697
G1 X92.597 Y62.871 E0.23641
G1 X93.08 Y62.247 E0.27578
G1 X93.623 Y61.674 E0.31517
G1 X94.222 Y61.159 E0.35458
G1 X94.87 Y60.708 E0.39397
G1 X95.561 Y60.324 E0.43341
G1 X96.286 Y60.012 E0.47278
G1 X97.039 Y59.775 E0.51217
G1 X97.813 Y59.616 E0.55159
G1 X98.598 Y59.535 E0.59096
G1 X99 Y59.525 E0.61102
G1 X121 Y59.525 E1.70861
G1 X121.789 Y59.565 E1.74802
G1 X122.569 Y59.684 E1.78739
G1 X123.334 Y59.882 E1.82681
G1 X124.074 Y60.156 E1.86618
G1 X124.783 Y60.504 E1.90558
G1 X125.454 Y60.922 E1.94502
G1 X126.078 Y61.405 E1.98439
G1 X126.651 Y61.948 E2.02377
G1 X127.166 Y62.547 E2.06318
G1 X127.617 Y63.195 E2.10257
G1 X128.001 Y63.886 E2.14201
G1 X128.313 Y64.611 E2.18139
G1 X128.55 Y65.364 E2.22077
G1 X128.709 Y66.138 E2.26019
G1 X128.79 Y66.923 E2.29957
G1 X128.8 Y67.325 E2.31963
G1 X128.8 Y152.675 E6.57776
G1 X128.76 Y153.464 E6.61717
G1 X128.641 Y154.244 E6.65654
G1 X128.443 Y155.009 E6.69596
G1 X128.169 Y155.749 E6.73533
G1 X127.821 Y156.458 E6.77473
G1 X127.403 Y157.129 E6.81417
G1 X126.92 Y157.753 E6.85354
G1 X126.377 Y158.326 E6.89292
G1 X125.778 Y158.841 E6.93233
G1 X125.13 Y159.292 E6.97172
G1 X124.439 Y159.676 E7.01116
G1 X123.714 Y159.988 E7.05054
G1 X122.961 Y160.225 E7.08992
G1 X122.187 Y160.384 E7.12935
G1 X121.402 Y160.465 E7.16872
G1 X121 Y160.475 E7.18878
G1 X99 Y160.475 E8.28636
G1 X98.211 Y160.435 E8.32578
G1 X97.431 Y160.316 E8.36514
G1 X96.666 Y160.118 E8.40457
G1 X95.926 Y159.844 E8.44393
G1 X95.217 Y159.496 E8.48334
G1 X94.546 Y159.078 E8.52278
G1 X93.922 Y158.595 E8.56215
G1 X93.349 Y158.052 E8.60153
G1 X92.834 Y157.453 E8.64094
G1 X92.383 Y156.805 E8.68033
G1 X91.999 Y156.114 E8.71977
G1 X91.687 Y155.389 E8.75915
G1 X91.45 Y154.636 E8.79853
G1 X91.291 Y153.862 E8.83795
G1 X91.21 Y153.077 E8.87732
G1 X91.2 Y152.675 E8.89739
G1 X91.2 Y67.325 E13.15551
G0 F7500 X91.6 Y67.325
G1 F1500 X91.64 Y66.557 E13.19388
G1 X91.759 Y65.797 E13.23226
G1 X91.957 Y65.054 E13.27062
G1 X92.231 Y64.335 E13.30901
G1 X92.578 Y63.649 E13.34736
G1 X92.994 Y63.002 E13.38574
G1 X93.475 Y62.402 E13.42411
G1 X94.016 Y61.855 E13.46249
G1 X94.611 Y61.367 E13.50088
G1 X95.253 Y60.944 E13.53924
G1 X95.936 Y60.589 E13.57764
G1 X96.651 Y60.308 E13.61597
G1 X97.393 Y60.102 E13.65439
G1 X98.151 Y59.974 E13.69274
G1 X99 Y59.925 E13.73517
G1 X121 Y59.925 E14.83275
G1 X121.768 Y59.965 E14.87112
G1 X122.528 Y60.084 E14.9095
G1 X123.271 Y60.282 E14.94786
G1 X123.99 Y60.556 E14.98625
G1 X124.676 Y60.903 E15.0246
G1 X125.323 Y61.319 E15.06297
G1 X125.923 Y61.8 E15.10134
G1 X126.47 Y62.341 E15.13972
G1 X126.958 Y62.936 E15.17811
G1 X127.381 Y63.578 E15.21647
G1 X127.736 Y64.261 E15.25487
G1 X128.017 Y64.976 E15.2932
G1 X128.223 Y65.718 E15.33162
G1 X128.351 Y66.476 E15.36997
G1 X128.4 Y67.325 E15.4124
G1 X128.4 Y152.675 E19.67053
G1 X128.36 Y153.443 E19.7089
G1 X128.241 Y154.203 E19.74728
G1 X128.043 Y154.946 E19.78564
G1 X127.769 Y155.665 E19.82402
G1 X127.422 Y156.351 E19.86238
G1 X127.006 Y156.998 E19.90075
G1 X126.525 Y157.598 E19.93912
G1 X125.984 Y158.145 E19.9775
G1 X125.389 Y158.633 E20.01589
G1 X124.747 Y159.056 E20.05425
G1 X124.064 Y159.411 E20.09265
G1 X123.349 Y159.692 E20.13098
G1 X122.607 Y159.898 E20.1694
G1 X121.849 Y160.026 E20.20775
G1 X121 Y160.075 E20.25018
G1 X99 Y160.075 E21.34776
G1 X98.232 Y160.035 E21.38613
G1 X97.472 Y159.916 E21.42451
G1 X96.729 Y159.718 E21.46287
G1 X96.01 Y159.444 E21.50126
G1 X95.324 Y159.097 E21.53961
G1 X94.677 Y158.681 E21.57799
G1 X94.077 Y158.2 E21.61635
G1 X93.53 Y157.659 E21.65474
G1 X93.042 Y157.064 E21.69313
G1 X92.619 Y156.422 E21.73149
G1 X92.264 Y155.739 E21.76989
G1 X91.983 Y155.024 E21.80822
G1 X91.777 Y154.282 E21.84664
G1 X91.649 Y153.524 E21.88499
G1 X91.6 Y152.675 E21.92741
G1 X91.6 Y67.325 E26.18554
G0 F7500 X92 Y67.325
G1 F1500 X92.04 Y66.578 E26.22286
G1 X92.159 Y65.84 E26.26016
G1 X92.357 Y65.118 E26.29751
G1 X92.63 Y64.422 E26.33481
G1 X92.977 Y63.759 E26.37214
G1 X93.392 Y63.136 E26.40949
G1 X93.871 Y62.562 E26.44679
G1 X94.408 Y62.041 E26.48412
G1 X94.998 Y61.582 E26.52141
G1 X95.634 Y61.187 E26.55876
G1 X96.308 Y60.863 E26.59607
G1 X97.013 Y60.613 E26.63339
G1 X97.741 Y60.439 E26.67073
G1 X98.483 Y60.344 E26.70805
G1 X99 Y60.325 E26.73386
G1 X121 Y60.325 E27.83145
G1 X121.747 Y60.365 E27.86877
G1 X122.485 Y60.484 E27.90606
G1 X123.207 Y60.682 E27.94341
G1 X123.903 Y60.955 E27.98071
G1 X124.566 Y61.302 E28.01805
G1 X125.189 Y61.717 E28.05539
G1 X125.763 Y62.196 E28.09269
G1 X126.284 Y62.733 E28.13002
G1 X126.743 Y63.323 E28.16731
G1 X127.138 Y63.959 E28.20467
G1 X127.462 Y64.633 E28.24197
G1 X127.712 Y65.338 E28.27929
G1 X127.886 Y66.066 E28.31664
G1 X127.981 Y66.808 E28.35396
G1 X128 Y67.325 E28.37977
G1 X128 Y152.675 E32.6379
G1 X127.96 Y153.422 E32.67522
G1 X127.841 Y154.16 E32.71251
G1 X127.643 Y154.882 E32.74986
G1 X127.37 Y155.578 E32.78716
G1 X127.023 Y156.241 E32.8245
G1 X126.608 Y156.864 E32.86184
G1 X126.129 Y157.438 E32.89914
G1 X125.592 Y157.959 E32.93647
G1 X125.002 Y158.418 E32.97376
G1 X124.366 Y158.813 E33.01111
G1 X123.692 Y159.137 E33.04842
G1 X122.987 Y159.387 E33.08574
G1 X122.259 Y159.561 E33.12309
G1 X121.517 Y159.656 E33.16041
G1 X121 Y159.675 E33.18622
G1 X99 Y159.675 E34.2838
G1 X98.253 Y159.635 E34.32112
G1 X97.515 Y159.516 E34.35842
G1 X96.793 Y159.318 E34.39577
G1 X96.097 Y159.045 E34.43307
G1 X95.434 Y158.698 E34.4704
G1 X94.811 Y158.283 E34.50775
G1 X94.237 Y157.804 E34.54505
G1 X93.716 Y157.267 E34.58237
G1 X93.257 Y156.677 E34.61967
G1 X92.862 Y156.041 E34.65702
G1 X92.538 Y155.367 E34.69433
G1 X92.288 Y154.662 E34.73165
G1 X92.114 Y153.934 E34.76899
G1 X92.019 Y153.192 E34.80631
G1 X92 Y152.675 E34.83212
G1 X92 Y67.325 E39.09025
G0 F7500 X92.4 Y67.325
G1 F1500 X92.44 Y66.6 E39.12648
G1 X92.559 Y65.883 E39.16274
G1 X92.757 Y65.184 E39.19898
G1 X93.03 Y64.511 E39.23521
G1 X93.375 Y63.872 E39.27144
G1 X93.789 Y63.275 E39.30769
G1 X94.265 Y62.727 E39.3439
G1 X94.799 Y62.234 E39.38016
G1 X95.384 Y61.804 E39.41638
G1 X96.013 Y61.44 E39.45264
G1 X96.678 Y61.147 E39.4889
G1 X97.371 Y60.929 E39.52514
G1 X98.083 Y60.789 E39.56134
G1 X99 Y60.725 E39.6072
G1 X121 Y60.725 E40.70479
G1 X121.725 Y60.765 E40.74101
G1 X122.442 Y60.884 E40.77727
G1 X123.141 Y61.082 E40.81352
G1 X123.814 Y61.355 E40.84975
G1 X124.453 Y61.7 E40.88598
G1 X125.05 Y62.114 E40.92223
G1 X125.598 Y62.59 E40.95844
G1 X126.091 Y63.124 E40.9947
G1 X126.521 Y63.709 E41.03092
G1 X126.885 Y64.338 E41.06718
G1 X127.178 Y65.003 E41.10343
G1 X127.396 Y65.696 E41.13968
G1 X127.536 Y66.408 E41.17588
G1 X127.6 Y67.325 E41.22174
G1 X127.6 Y152.675 E45.47987
G1 X127.56 Y153.4 E45.51609
G1 X127.441 Y154.117 E45.55235
G1 X127.243 Y154.816 E45.5886
G1 X126.97 Y155.489 E45.62483
G1 X126.625 Y156.128 E45.66106
G1 X126.211 Y156.725 E45.69731
G1 X125.735 Y157.273 E45.73352
G1 X125.201 Y157.766 E45.76978
G1 X124.616 Y158.196 E45.806
G1 X123.987 Y158.56 E45.84226
G1 X123.322 Y158.853 E45.87851
G1 X122.629 Y159.071 E45.91476
G1 X121.917 Y159.211 E45.95096
G1 X121 Y159.275 E45.99682
G1 X99 Y159.275 E47.0944
G1 X98.275 Y159.235 E47.13063
G1 X97.558 Y159.116 E47.16689
G1 X96.859 Y158.918 E47.20314
G1 X96.186 Y158.645 E47.23937
G1 X95.547 Y158.3 E47.2756
G1 X94.95 Y157.886 E47.31184
G1 X94.402 Y157.41 E47.34806
G1 X93.909 Y156.876 E47.38432
G1 X93.479 Y156.291 E47.42054
G1 X93.115 Y155.662 E47.4568
G1 X92.822 Y154.997 E47.49305
G1 X92.604 Y154.304 E47.52929
G1 X92.464 Y153.592 E47.5655
G1 X92.4 Y152.675 E47.61136
G1 X92.4 Y67.325 E51.86949
G0 F7500 X92.8 Y67.325
G1 F1500 X92.84 Y66.622 E51.90462
G1 X92.959 Y65.928 E51.93974
G1 X93.157 Y65.253 E51.97484
G1 X93.429 Y64.604 E52.00995
G1 X93.774 Y63.99 E52.04508
G1 X94.185 Y63.419 E52.08018
G1 X94.659 Y62.898 E52.11532
G1 X95.189 Y62.434 E52.15047
G1 X95.768 Y62.034 E52.18558
G1 X96.389 Y61.702 E52.22071
G1 X97.043 Y61.442 E52.25582
G1 X97.723 Y61.258 E52.29097
G1 X98.419 Y61.152 E52.32609
G1 X99 Y61.125 E52.35511
G1 X121 Y61.125 E53.45269
G1 X121.703 Y61.165 E53.48782
G1 X122.397 Y61.284 E53.52295
G1 X123.072 Y61.482 E53.55804
G1 X123.721 Y61.754 E53.59315
G1 X124.335 Y62.099 E53.62829
G1 X124.906 Y62.51 E53.66339
G1 X125.427 Y62.984 E53.69853
G1 X125.891 Y63.514 E53.73367
G1 X126.291 Y64.093 E53.76878
G1 X126.623 Y64.714 E53.80391
G1 X126.883 Y65.368 E53.83903
G1 X127.067 Y66.048 E53.87417
G1 X127.173 Y66.744 E53.90929
G1 X127.2 Y67.325 E53.93831
G1 X127.2 Y152.675 E58.19644
G1 X127.16 Y153.378 E58.23157
G1 X127.041 Y154.072 E58.2667
G1 X126.843 Y154.747 E58.30179
G1 X126.571 Y155.396 E58.3369
G1 X126.226 Y156.01 E58.37204
G1 X125.815 Y156.581 E58.40714
G1 X125.341 Y157.102 E58.44228
G1 X124.811 Y157.566 E58.47742
G1 X124.232 Y157.966 E58.51253
G1 X123.611 Y158.298 E58.54766
G1 X122.957 Y158.558 E58.58278
G1 X122.277 Y158.742 E58.61792
G1 X121.581 Y158.848 E58.65304
G1 X121 Y158.875 E58.68206
G1 X99 Y158.875 E59.77965
G1 X98.297 Y158.835 E59.81478
G1 X97.603 Y158.716 E59.84991
G1 X96.928 Y158.518 E59.885
G1 X96.279 Y158.246 E59.92011
G1 X95.665 Y157.901 E59.95524
G1 X95.094 Y157.49 E59.99034
G1 X94.573 Y157.016 E60.02548
G1 X94.109 Y156.486 E60.06063
G1 X93.709 Y155.907 E60.09574
G1 X93.377 Y155.286 E60.13087
G1 X93.117 Y154.632 E60.16598
G1 X92.933 Y153.952 E60.20113
G1 X92.827 Y153.256 E60.23625
G1 X92.8 Y152.675 E60.26527
G1 X92.8 Y67.325 E64.5234
G0 F7500 X93.2 Y67.325
G1 F1500 X93.24 Y66.645 E64.55738
G1 X93.359 Y65.975 E64.59133
G1 X93.556 Y65.323 E64.62531
G1 X93.828 Y64.699 E64.65927
G1 X94.172 Y64.111 E64.69326
G1 X94.582 Y63.567 E64.72724
G1 X95.053 Y63.076 E64.76119
G1 X95.578 Y62.642 E64.79517
G1 X96.15 Y62.273 E64.82913
G1 X96.762 Y61.974 E64.86311
G1 X97.404 Y61.749 E64.89705
G1 X98.069 Y61.6 E64.93105
G1 X99 Y61.525 E64.97765
G1 X121 Y61.525 E66.07524
G1 X121.68 Y61.565 E66.10922
G1 X122.35 Y61.684 E66.14317
G1 X123.002 Y61.881 E66.17715
G1 X123.626 Y62.153 E66.21111
G1 X124.214 Y62.497 E66.2451
G1 X124.758 Y62.907 E66.27908
G1 X125.249 Y63.378 E66.31303
G1 X125.683 Y63.903 E66.34701
G1 X126.052 Y64.475 E66.38097
G1 X126.351 Y65.087 E66.41495
G1 X126.576 Y65.729 E66.44889
G1 X126.725 Y66.394 E66.48289
G1 X126.8 Y67.325 E66.52949
G1 X126.8 Y152.675 E70.78762
G1 X126.76 Y153.355 E70.8216
G1 X126.641 Y154.025 E70.85555
G1 X126.444 Y154.677 E70.88953
G1 X126.172 Y155.301 E70.92349
G1 X125.828 Y155.889 E70.95748
G1 X125.418 Y156.433 E70.99147
G1 X124.947 Y156.924 E71.02541
G1 X124.422 Y157.358 E71.05939
G1 X123.85 Y157.727 E71.09335
G1 X123.238 Y158.026 E71.12734
G1 X122.596 Y158.251 E71.16127
G1 X121.931 Y158.4 E71.19527
G1 X121 Y158.475 E71.24187
G1 X99 Y158.475 E72.33946
G1 X98.32 Y158.435 E72.37344
G1 X97.65 Y158.316 E72.40739
G1 X96.998 Y158.119 E72.44137
G1 X96.374 Y157.847 E72.47533
G1 X95.786 Y157.503 E72.50932
G1 X95.242 Y157.093 E72.5433
G1 X94.751 Y156.622 E72.57725
G1 X94.317 Y156.097 E72.61123
G1 X93.948 Y155.525 E72.64519
G1 X93.649 Y154.913 E72.67917
G1 X93.424 Y154.271 E72.71311
G1 X93.275 Y153.606 E72.74711
G1 X93.2 Y152.675 E72.79371
G1 X93.2 Y67.325 E77.05184
G0 F7500 X93.6 Y67.325
G1 F1500 X93.64 Y66.669 E77.08463
G1 X93.759 Y66.023 E77.1174
G1 X93.956 Y65.396 E77.15019
G1 X94.228 Y64.798 E77.18296
G1 X94.57 Y64.237 E77.21574
G1 X94.978 Y63.722 E77.24852
G1 X95.445 Y63.26 E77.2813
G1 X95.965 Y62.859 E77.31406
G1 X96.529 Y62.523 E77.34681
G1 X97.131 Y62.259 E77.37961
G1 X97.76 Y62.069 E77.41239
G1 X98.407 Y61.958 E77.44514
G1 X99 Y61.925 E77.47477
G1 X121 Y61.925 E78.57235
G1 X121.656 Y61.965 E78.60514
G1 X122.302 Y62.084 E78.63791
G1 X122.929 Y62.281 E78.6707
G1 X123.527 Y62.553 E78.70348
G1 X124.088 Y62.895 E78.73626
G1 X124.603 Y63.303 E78.76904
G1 X125.065 Y63.77 E78.80181
G1 X125.466 Y64.29 E78.83457
G1 X125.802 Y64.854 E78.86732
G1 X126.066 Y65.456 E78.90012
G1 X126.256 Y66.085 E78.9329
G1 X126.367 Y66.732 E78.96565
G1 X126.4 Y67.325 E78.99528
G1 X126.4 Y152.675 E83.25341
G1 X126.36 Y153.331 E83.2862
G1 X126.241 Y153.977 E83.31897
G1 X126.044 Y154.604 E83.35176
G1 X125.772 Y155.202 E83.38453
G1 X125.43 Y155.763 E83.41731
G1 X125.022 Y156.278 E83.45009
G1 X124.555 Y156.74 E83.48287
G1 X124.035 Y157.141 E83.51563
G1 X123.471 Y157.477 E83.54838
G1 X122.869 Y157.741 E83.58117
G1 X122.24 Y157.931 E83.61396
G1 X121.593 Y158.042 E83.64671
G1 X121 Y158.075 E83.67634
G1 X99 Y158.075 E84.77392
G1 X98.344 Y158.035 E84.80671
G1 X97.698 Y157.916 E84.83948
G1 X97.071 Y157.719 E84.87227
G1 X96.473 Y157.447 E84.90505
G1 X95.912 Y157.105 E84.93782
G1 X95.397 Y156.697 E84.9706
G1 X94.935 Y156.23 E85.00338
G1 X94.534 Y155.71 E85.03614
G1 X94.198 Y155.146 E85.06889
G1 X93.934 Y154.544 E85.10169
G1 X93.744 Y153.915 E85.13447
G1 X93.633 Y153.268 E85.16722
G1 X93.6 Y152.675 E85.19685
G1 X93.6 Y67.325 E89.45498
G0 F7500 X94 Y67.325
G1 F1500 X94.04 Y66.694 E89.48652
G1 X94.159 Y66.073 E89.51807
G1 X94.356 Y65.473 E89.54957
G1 X94.627 Y64.901 E89.58115
G1 X94.967 Y64.369 E89.61265
G1 X95.373 Y63.884 E89.64421
G1 X95.836 Y63.454 E89.67573
G1 X96.35 Y63.085 E89.7073
G1 X96.906 Y62.785 E89.73882
G1 X97.495 Y62.557 E89.77033
G1 X98.109 Y62.405 E89.80188
G1 X99 Y62.325 E89.84652
G1 X121 Y62.325 E90.9441
G1 X121.631 Y62.365 E90.97564
G1 X122.252 Y62.484 E91.00719
G1 X122.852 Y62.681 E91.0387
G1 X123.424 Y62.952 E91.07027
G1 X123.956 Y63.292 E91.10177
G1 X124.441 Y63.698 E91.13333
G1 X124.871 Y64.161 E91.16485
G1 X125.24 Y64.675 E91.19642
G1 X125.54 Y65.231 E91.22794
G1 X125.768 Y65.82 E91.25945
G1 X125.92 Y66.434 E91.29101
G1 X126 Y67.325 E91.33564
G1 X126 Y152.675 E95.59377
G1 X125.96 Y153.306 E95.62531
G1 X125.841 Y153.927 E95.65686
G1 X125.644 Y154.527 E95.68836
G1 X125.373 Y155.099 E95.71994
G1 X125.033 Y155.631 E95.75144
G1 X124.627 Y156.116 E95.783
G1 X124.164 Y156.546 E95.81452
G1 X123.65 Y156.915 E95.84609
G1 X123.094 Y157.215 E95.87761
G1 X122.505 Y157.443 E95.90912
G1 X121.891 Y157.595 E95.94067
G1 X121 Y157.675 E95.98531
G1 X99 Y157.675 E97.08289
G1 X98.369 Y157.635 E97.11443
G1 X97.748 Y157.516 E97.14598
G1 X97.148 Y157.319 E97.17749
G1 X96.576 Y157.048 E97.20906
G1 X96.044 Y156.708 E97.24056
G1 X95.559 Y156.302 E97.27212
G1 X95.129 Y155.839 E97.30364
G1 X94.76 Y155.325 E97.33521
G1 X94.46 Y154.769 E97.36673
G1 X94.232 Y154.18 E97.39824
G1 X94.08 Y153.566 E97.4298
G1 X94 Y152.675 E97.47443
G1 X94 Y67.325 E101.73256
G0 F7500 X94.4 Y67.325
G1 F1500 X94.44 Y66.72 E101.76281
G1 X94.559 Y66.126 E101.79303
G1 X94.755 Y65.552 E101.82329
G1 X95.026 Y65.009 E101.85357
G1 X95.365 Y64.506 E101.88383
G1 X95.767 Y64.053 E101.91404
G1 X96.225 Y63.656 E101.94428
G1 X96.732 Y63.323 E101.97455
G1 X97.278 Y63.059 E102.0048
G1 X97.854 Y62.87 E102.03505
G1 X98.45 Y62.758 E102.0653
G1 X99 Y62.725 E102.09279
G1 X121 Y62.725 E103.19038
G1 X121.605 Y62.765 E103.22063
G1 X122.199 Y62.884 E103.25085
G1 X122.773 Y63.08 E103.28111
G1 X123.316 Y63.351 E103.31139
G1 X123.819 Y63.69 E103.34165
G1 X124.272 Y64.092 E103.37186
G1 X124.669 Y64.55 E103.4021
G1 X125.002 Y65.057 E103.43237
G1 X125.266 Y65.603 E103.46262
G1 X125.455 Y66.179 E103.49287
G1 X125.567 Y66.775 E103.52312
G1 X125.6 Y67.325 E103.55061
G1 X125.6 Y152.675 E107.80874
G1 X125.56 Y153.28 E107.83899
G1 X125.441 Y153.874 E107.86921
G1 X125.245 Y154.448 E107.89947
G1 X124.974 Y154.991 E107.92975
G1 X124.635 Y155.494 E107.96001
G1 X124.233 Y155.947 E107.99023
G1 X123.775 Y156.344 E108.02047
G1 X123.268 Y156.677 E108.05073
G1 X122.722 Y156.941 E108.08099
G1 X122.146 Y157.13 E108.11123
G1 X121.55 Y157.242 E108.14149
G1 X121 Y157.275 E108.16898
G1 X99 Y157.275 E109.26656
G1 X98.395 Y157.235 E109.29681
G1 X97.801 Y157.116 E109.32703
G1 X97.227 Y156.92 E109.35729
G1 X96.684 Y156.649 E109.38757
G1 X96.181 Y156.31 E109.41783
