;FLAVOR:Marlin
;TIME:2523
;Filament used: 1.62028m
;Layer height: 0.15
;MINX:82.95
;MINY:81.95
;MINZ:0.3
;MAXX:137.05
;MAXY:138.05
;MAXZ:9.3
;Generated with Cura_SteamEngine main
M140 S60
M105
M190 S60
M104 S200
M105
M109 S200
M82 ;absolute extrusion mode
G28 ;Home
G1 Z15.0 F2000 ;Move the platform
G92 E0
G92 E0
G1 F1500 E-6.5
;LAYER_COUNT:61
;LAYER:0
M107
M204 S1000
G0 F7500 X85.373 Y84.099 Z0.3
G0 X82.95 Y89.75
;TYPE:SKIRT
G1 F1500 E0
G1 X82.99 Y88.961 E0.03941
G1 X83.109 Y88.181 E0.07878
G1 X83.307 Y87.416 E0.1182
G1 X83.581 Y86.676 E0.15757
G1 X83.929 Y85.967 E0.19697
G1 X84.347 Y85.296 E0.23641
G1 X84.83 Y84.672 E0.27578
G1 X85.373 Y84.099 E0.31517
G1 X85.972 Y83.584 E0.35458
G1 X86.62 Y83.133 E0.39397
G1 X87.311 Y82.749 E0.43341
G1 X88.036 Y82.437 E0.47278
G1 X88.789 Y82.2 E0.51217
G1 X89.563 Y82.041 E0.55159
G1 X90.348 Y81.96 E0.59096
G1 X90.75 Y81.95 E0.61102
G1 X129.25 Y81.95 E2.53179
G1 X130.039 Y81.99 E2.57121
G1 X130.819 Y82.109 E2.61057
G1 X131.584 Y82.307 E2.65
G1 X132.324 Y82.581 E2.68937
G1 X133.033 Y82.929 E2.72877
G1 X133.704 Y83.347 E2.76821
G1 X134.328 Y83.83 E2.80758
G1 X134.901 Y84.373 E2.84696
G1 X135.416 Y84.972 E2.88637
G1 X135.867 Y85.62 E2.92576
G1 X136.251 Y86.311 E2.9652
G1 X136.563 Y87.036 E3.00458
G1 X136.8 Y87.789 E3.04396
G1 X136.959 Y88.563 E3.08338
G1 X137.04 Y89.348 E3.12275
G1 X137.05 Y89.75 E3.14282
G1 X137.05 Y112.25 E4.26535
G1 X137.01 Y113.039 E4.30476
G1 X136.891 Y113.819 E4.34412
G1 X136.693 Y114.584 E4.38355
G1 X136.419 Y115.324 E4.42292
G1 X136.071 Y116.033 E4.46232
G1 X135.653 Y116.704 E4.50176
G1 X135.17 Y117.328 E4.54113
G1 X134.627 Y117.901 E4.58051
G1 X134.05 Y118.397 E4.61847
G1 X134.05 Y130.25 E5.20982
G1 X134.01 Y131.039 E5.24924
G1 X133.891 Y131.819 E5.2886
G1 X133.693 Y132.584 E5.32802
G1 X133.419 Y133.324 E5.36739
G1 X133.071 Y134.033 E5.4068
G1 X132.653 Y134.704 E5.44624
G1 X132.17 Y135.328 E5.4856
G1 X131.627 Y135.901 E5.52499
G1 X131.028 Y136.416 E5.5644
G1 X130.38 Y136.867 E5.60379
G1 X129.689 Y137.251 E5.64323
G1 X128.964 Y137.563 E5.6826
G1 X128.211 Y137.8 E5.72199
G1 X127.437 Y137.959 E5.76141
G1 X126.652 Y138.04 E5.80078
G1 X126.25 Y138.05 E5.82084
G1 X93.75 Y138.05 E7.44228
G1 X92.961 Y138.01 E7.48169
G1 X92.181 Y137.891 E7.52105
G1 X91.416 Y137.693 E7.56048
G1 X90.676 Y137.419 E7.59985
G1 X89.967 Y137.071 E7.63925
G1 X89.296 Y136.653 E7.67869
G1 X88.672 Y136.17 E7.71806
G1 X88.099 Y135.627 E7.75744
G1 X87.584 Y135.028 E7.79685
G1 X87.133 Y134.38 E7.83624
G1 X86.749 Y133.689 E7.87568
G1 X86.437 Y132.964 E7.91506
G1 X86.2 Y132.211 E7.95444
G1 X86.041 Y131.437 E7.99386
G1 X85.96 Y130.652 E8.03324
G1 X85.95 Y130.25 E8.0533
G1 X85.95 Y118.385 E8.64524
G1 X85.672 Y118.17 E8.66278
G1 X85.099 Y117.627 E8.70216
G1 X84.584 Y117.028 E8.74157
G1 X84.133 Y116.38 E8.78096
G1 X83.749 Y115.689 E8.8204
G1 X83.437 Y114.964 E8.85978
G1 X83.2 Y114.211 E8.89916
G1 X83.041 Y113.437 E8.93858
G1 X82.96 Y112.652 E8.97796
G1 X82.95 Y112.25 E8.99802
G1 X82.95 Y89.75 E10.12055
G0 F7500 X83.35 Y89.75
G1 F1500 X83.39 Y88.982 E10.15892
G1 X83.509 Y88.222 E10.19729
G1 X83.707 Y87.479 E10.23566
G1 X83.981 Y86.76 E10.27404
G1 X84.328 Y86.074 E10.3124
G1 X84.744 Y85.427 E10.35077
G1 X85.225 Y84.827 E10.38914
G1 X85.766 Y84.28 E10.42752
G1 X86.361 Y83.792 E10.46591
G1 X87.003 Y83.369 E10.50427
G1 X87.686 Y83.014 E10.54267
G1 X88.401 Y82.733 E10.581
G1 X89.143 Y82.527 E10.61942
G1 X89.901 Y82.399 E10.65777
G1 X90.75 Y82.35 E10.7002
G1 X129.25 Y82.35 E12.62097
G1 X130.018 Y82.39 E12.65934
G1 X130.778 Y82.509 E12.69772
G1 X131.521 Y82.707 E12.73608
G1 X132.24 Y82.981 E12.77447
G1 X132.926 Y83.328 E12.81282
G1 X133.573 Y83.744 E12.8512
G1 X134.173 Y84.225 E12.88956
G1 X134.72 Y84.766 E12.92794
G1 X135.208 Y85.361 E12.96634
G1 X135.631 Y86.003 E13.00469
G1 X135.986 Y86.686 E13.0431
G1 X136.267 Y87.401 E13.08142
G1 X136.473 Y88.143 E13.11984
G1 X136.601 Y88.901 E13.15819
G1 X136.65 Y89.75 E13.20062
G1 X136.65 Y112.25 E14.32315
G1 X136.61 Y113.018 E14.36152
G1 X136.491 Y113.778 E14.3999
G1 X136.293 Y114.521 E14.43826
G1 X136.019 Y115.24 E14.47665
G1 X135.672 Y115.926 E14.515
G1 X135.256 Y116.573 E14.55338
G1 X134.775 Y117.173 E14.59174
G1 X134.234 Y117.72 E14.63012
G1 X133.65 Y118.199 E14.66781
G1 X133.65 Y130.25 E15.26903
G1 X133.61 Y131.018 E15.3074
G1 X133.491 Y131.778 E15.34578
G1 X133.293 Y132.521 E15.38414
G1 X133.019 Y133.24 E15.42253
G1 X132.672 Y133.926 E15.46088
G1 X132.256 Y134.573 E15.49926
G1 X131.775 Y135.173 E15.53762
G1 X131.234 Y135.72 E15.57601
G1 X130.639 Y136.208 E15.6144
G1 X129.997 Y136.631 E15.65276
G1 X129.314 Y136.986 E15.69116
G1 X128.599 Y137.267 E15.72949
G1 X127.857 Y137.473 E15.76791
G1 X127.099 Y137.601 E15.80626
G1 X126.25 Y137.65 E15.84868
G1 X93.75 Y137.65 E17.47012
G1 X92.982 Y137.61 E17.50848
G1 X92.222 Y137.491 E17.54686
G1 X91.479 Y137.293 E17.58522
G1 X90.76 Y137.019 E17.62361
G1 X90.074 Y136.672 E17.66197
G1 X89.427 Y136.256 E17.70034
G1 X88.827 Y135.775 E17.73871
G1 X88.28 Y135.234 E17.77709
G1 X87.792 Y134.639 E17.81548
G1 X87.369 Y133.997 E17.85384
G1 X87.014 Y133.314 E17.89224
G1 X86.733 Y132.599 E17.93057
G1 X86.527 Y131.857 E17.96899
G1 X86.399 Y131.099 E18.00734
G1 X86.35 Y130.25 E18.04977
G1 X86.35 Y118.194 E18.65124
G1 X85.827 Y117.775 E18.68468
G1 X85.28 Y117.234 E18.72306
G1 X84.792 Y116.639 E18.76145
G1 X84.369 Y115.997 E18.79981
G1 X84.014 Y115.314 E18.83821
G1 X83.733 Y114.599 E18.87654
G1 X83.527 Y113.857 E18.91496
G1 X83.399 Y113.099 E18.95331
G1 X83.35 Y112.25 E18.99574
G1 X83.35 Y89.75 E20.11827
G0 F7500 X83.75 Y89.75
G1 F1500 X83.79 Y89.003 E20.15559
G1 X83.909 Y88.265 E20.19288
G1 X84.107 Y87.543 E20.23023
G1 X84.38 Y86.847 E20.26753
G1 X84.727 Y86.184 E20.30487
G1 X85.142 Y85.561 E20.34221
G1 X85.621 Y84.987 E20.37951
G1 X86.158 Y84.466 E20.41684
G1 X86.748 Y84.007 E20.45413
G1 X87.384 Y83.612 E20.49148
G1 X88.058 Y83.288 E20.52879
G1 X88.763 Y83.038 E20.56611
G1 X89.491 Y82.864 E20.60345
G1 X90.233 Y82.769 E20.64078
G1 X90.75 Y82.75 E20.66659
G1 X129.25 Y82.75 E22.58736
G1 X129.997 Y82.79 E22.62468
G1 X130.735 Y82.909 E22.66197
G1 X131.457 Y83.107 E22.69933
G1 X132.153 Y83.38 E22.73662
G1 X132.816 Y83.727 E22.77396
G1 X133.439 Y84.142 E22.8113
G1 X134.013 Y84.621 E22.8486
G1 X134.534 Y85.158 E22.88593
G1 X134.993 Y85.748 E22.92322
G1 X135.388 Y86.384 E22.96058
G1 X135.712 Y87.058 E22.99789
G1 X135.962 Y87.763 E23.0352
G1 X136.136 Y88.491 E23.07255
G1 X136.231 Y89.233 E23.10987
G1 X136.25 Y89.75 E23.13568
G1 X136.25 Y112.25 E24.25821
G1 X136.21 Y112.997 E24.29553
G1 X136.091 Y113.735 E24.33282
G1 X135.893 Y114.457 E24.37018
G1 X135.62 Y115.153 E24.40747
G1 X135.273 Y115.816 E24.44481
G1 X134.858 Y116.439 E24.48215
G1 X134.379 Y117.013 E24.51945
G1 X133.842 Y117.534 E24.55678
G1 X133.25 Y117.994 E24.59418
G1 X133.25 Y130.25 E25.20564
G1 X133.21 Y130.997 E25.24296
G1 X133.091 Y131.735 E25.28025
G1 X132.893 Y132.457 E25.3176
G1 X132.62 Y133.153 E25.3549
G1 X132.273 Y133.816 E25.39224
G1 X131.858 Y134.439 E25.42958
G1 X131.379 Y135.013 E25.46688
G1 X130.842 Y135.534 E25.50421
G1 X130.252 Y135.993 E25.5415
G1 X129.616 Y136.388 E25.57886
G1 X128.942 Y136.712 E25.61617
G1 X128.237 Y136.962 E25.65348
G1 X127.509 Y137.136 E25.69083
G1 X126.767 Y137.231 E25.72815
G1 X126.25 Y137.25 E25.75396
G1 X93.75 Y137.25 E27.37539
G1 X93.003 Y137.21 E27.41271
G1 X92.265 Y137.091 E27.45001
G1 X91.543 Y136.893 E27.48736
G1 X90.847 Y136.62 E27.52466
G1 X90.184 Y136.273 E27.56199
G1 X89.561 Y135.858 E27.59934
G1 X88.987 Y135.379 E27.63663
G1 X88.466 Y134.842 E27.67396
G1 X88.007 Y134.252 E27.71126
G1 X87.612 Y133.616 E27.74861
G1 X87.288 Y132.942 E27.78592
G1 X87.038 Y132.237 E27.82324
G1 X86.864 Y131.509 E27.86058
G1 X86.769 Y130.767 E27.8979
G1 X86.75 Y130.25 E27.92371
G1 X86.75 Y117.984 E28.53566
G1 X86.561 Y117.858 E28.547
G1 X85.987 Y117.379 E28.58429
G1 X85.466 Y116.842 E28.62162
G1 X85.007 Y116.252 E28.65892
G1 X84.612 Y115.616 E28.69627
G1 X84.288 Y114.942 E28.73358
G1 X84.038 Y114.237 E28.7709
G1 X83.864 Y113.509 E28.80824
G1 X83.769 Y112.767 E28.84556
G1 X83.75 Y112.25 E28.87137
G1 X83.75 Y89.75 E29.9939
G0 F7500 X84.15 Y89.75
G1 F1500 X84.19 Y89.025 E30.03012
G1 X84.309 Y88.308 E30.06639
G1 X84.507 Y87.609 E30.10263
G1 X84.78 Y86.936 E30.13886
G1 X85.125 Y86.297 E30.17509
G1 X85.539 Y85.7 E30.21134
G1 X86.015 Y85.152 E30.24755
G1 X86.549 Y84.659 E30.28381
G1 X87.134 Y84.229 E30.32003
G1 X87.763 Y83.865 E30.35629
G1 X88.428 Y83.572 E30.39254
G1 X89.121 Y83.354 E30.42879
G1 X89.833 Y83.214 E30.46499
G1 X90.75 Y83.15 E30.51085
G1 X129.25 Y83.15 E32.43162
G1 X129.975 Y83.19 E32.46785
G1 X130.692 Y83.309 E32.50411
G1 X131.391 Y83.507 E32.54036
G1 X132.064 Y83.78 E32.57659
G1 X132.703 Y84.125 E32.61282
G1 X133.3 Y84.539 E32.64906
G1 X133.848 Y85.015 E32.68528
G1 X134.341 Y85.549 E32.72154
G1 X134.771 Y86.134 E32.75776
G1 X135.135 Y86.763 E32.79402
G1 X135.428 Y87.428 E32.83027
G1 X135.646 Y88.121 E32.86651
G1 X135.786 Y88.833 E32.90272
G1 X135.85 Y89.75 E32.94858
G1 X135.85 Y112.25 E34.07111
G1 X135.81 Y112.975 E34.10733
G1 X135.691 Y113.692 E34.14359
G1 X135.493 Y114.391 E34.17984
G1 X135.22 Y115.064 E34.21607
G1 X134.875 Y115.703 E34.2523
G1 X134.461 Y116.3 E34.28855
G1 X133.985 Y116.848 E34.32476
G1 X133.451 Y117.341 E34.36102
G1 X132.85 Y117.78 E34.39815
G1 X132.85 Y130.25 E35.02028
G1 X132.81 Y130.975 E35.05651
G1 X132.691 Y131.692 E35.09277
G1 X132.493 Y132.391 E35.12901
G1 X132.22 Y133.064 E35.16525
G1 X131.875 Y133.703 E35.20148
G1 X131.461 Y134.3 E35.23772
G1 X130.985 Y134.848 E35.27393
G1 X130.451 Y135.341 E35.31019
G1 X129.866 Y135.771 E35.34641
G1 X129.237 Y136.135 E35.38267
G1 X128.572 Y136.428 E35.41893
G1 X127.879 Y136.646 E35.45517
G1 X127.167 Y136.786 E35.49137
G1 X126.25 Y136.85 E35.53723
G1 X93.75 Y136.85 E37.15866
G1 X93.025 Y136.81 E37.19489
G1 X92.308 Y136.691 E37.23115
G1 X91.609 Y136.493 E37.2674
G1 X90.936 Y136.22 E37.30363
G1 X90.297 Y135.875 E37.33986
G1 X89.7 Y135.461 E37.3761
G1 X89.152 Y134.985 E37.41232
G1 X88.659 Y134.451 E37.44858
G1 X88.229 Y133.866 E37.4848
G1 X87.865 Y133.237 E37.52106
G1 X87.572 Y132.572 E37.55731
G1 X87.354 Y131.879 E37.59355
G1 X87.214 Y131.167 E37.62976
G1 X87.15 Y130.25 E37.67562
G1 X87.15 Y117.773 E38.2981
G1 X86.7 Y117.461 E38.32542
G1 X86.152 Y116.985 E38.36163
G1 X85.659 Y116.451 E38.39789
G1 X85.229 Y115.866 E38.43411
G1 X84.865 Y115.237 E38.47037
G1 X84.572 Y114.572 E38.50662
G1 X84.354 Y113.879 E38.54287
G1 X84.214 Y113.167 E38.57907
G1 X84.15 Y112.25 E38.62493
G1 X84.15 Y89.75 E39.74746
G0 F7500 X84.55 Y89.75
G1 F1500 X84.59 Y89.047 E39.78259
G1 X84.709 Y88.353 E39.81772
G1 X84.907 Y87.678 E39.85281
G1 X85.179 Y87.029 E39.88792
G1 X85.524 Y86.415 E39.92306
G1 X85.935 Y85.844 E39.95816
G1 X86.409 Y85.323 E39.9933
G1 X86.939 Y84.859 E40.02844
G1 X87.518 Y84.459 E40.06355
G1 X88.139 Y84.127 E40.09868
G1 X88.793 Y83.867 E40.13379
G1 X89.473 Y83.683 E40.16894
G1 X90.169 Y83.577 E40.20406
G1 X90.75 Y83.55 E40.23308
G1 X129.25 Y83.55 E42.15385
G1 X129.953 Y83.59 E42.18898
G1 X130.647 Y83.709 E42.22411
G1 X131.322 Y83.907 E42.25921
G1 X131.971 Y84.179 E42.29431
G1 X132.585 Y84.524 E42.32945
G1 X133.156 Y84.935 E42.36455
G1 X133.677 Y85.409 E42.39969
G1 X134.141 Y85.939 E42.43483
G1 X134.541 Y86.518 E42.46994
G1 X134.873 Y87.139 E42.50507
G1 X135.133 Y87.793 E42.54019
G1 X135.317 Y88.473 E42.57533
G1 X135.423 Y89.169 E42.61046
G1 X135.45 Y89.75 E42.63947
G1 X135.45 Y112.25 E43.762
G1 X135.41 Y112.953 E43.79713
G1 X135.291 Y113.647 E43.83226
G1 X135.093 Y114.322 E43.86736
G1 X134.821 Y114.971 E43.90246
G1 X134.476 Y115.585 E43.9376
G1 X134.065 Y116.156 E43.9727
G1 X133.591 Y116.677 E44.00784
G1 X133.061 Y117.141 E44.04298
G1 X132.45 Y117.558 E44.07989
G1 X132.45 Y130.25 E44.7131
G1 X132.41 Y130.953 E44.74823
G1 X132.291 Y131.647 E44.78335
G1 X132.093 Y132.322 E44.81845
G1 X131.821 Y132.971 E44.85356
G1 X131.476 Y133.585 E44.88869
G1 X131.065 Y134.156 E44.92379
G1 X130.591 Y134.677 E44.95893
G1 X130.061 Y135.141 E44.99408
G1 X129.482 Y135.541 E45.02919
G1 X128.861 Y135.873 E45.06432
G1 X128.207 Y136.133 E45.09943
G1 X127.527 Y136.317 E45.13458
G1 X126.831 Y136.423 E45.1697
G1 X126.25 Y136.45 E45.19872
G1 X93.75 Y136.45 E46.82015
G1 X93.047 Y136.41 E46.85528
G1 X92.353 Y136.291 E46.89041
G1 X91.678 Y136.093 E46.9255
G1 X91.029 Y135.821 E46.96061
G1 X90.415 Y135.476 E46.99575
G1 X89.844 Y135.065 E47.03085
G1 X89.323 Y134.591 E47.06599
G1 X88.859 Y134.061 E47.10113
G1 X88.459 Y133.482 E47.13624
G1 X88.127 Y132.861 E47.17137
G1 X87.867 Y132.207 E47.20648
G1 X87.683 Y131.527 E47.24163
G1 X87.577 Y130.831 E47.27675
G1 X87.55 Y130.25 E47.30577
G1 X87.55 Y117.573 E47.93823
G1 X86.844 Y117.065 E47.98162
G1 X86.323 Y116.591 E48.01676
G1 X85.859 Y116.061 E48.0519
G1 X85.459 Y115.482 E48.08701
G1 X85.127 Y114.861 E48.12215
G1 X84.867 Y114.207 E48.15726
G1 X84.683 Y113.527 E48.1924
G1 X84.577 Y112.831 E48.22753
G1 X84.55 Y112.25 E48.25654
G1 X84.55 Y89.75 E49.37907
G0 F7500 X84.95 Y89.75
G1 F1500 X84.99 Y89.07 E49.41306
G1 X85.109 Y88.4 E49.44701
G1 X85.306 Y87.748 E49.48099
G1 X85.578 Y87.124 E49.51495
G1 X85.922 Y86.536 E49.54894
G1 X86.332 Y85.992 E49.58292
G1 X86.803 Y85.501 E49.61687
G1 X87.328 Y85.067 E49.65085
G1 X87.9 Y84.698 E49.68481
G1 X88.512 Y84.399 E49.71879
G1 X89.154 Y84.174 E49.75273
G1 X89.819 Y84.025 E49.78673
G1 X90.75 Y83.95 E49.83333
G1 X129.25 Y83.95 E51.7541
G1 X129.93 Y83.99 E51.78808
G1 X130.6 Y84.109 E51.82203
G1 X131.252 Y84.306 E51.85602
G1 X131.876 Y84.578 E51.88998
G1 X132.464 Y84.922 E51.92396
G1 X133.008 Y85.332 E51.95795
G1 X133.499 Y85.803 E51.99189
G1 X133.933 Y86.328 E52.02588
G1 X134.302 Y86.9 E52.05984
G1 X134.601 Y87.512 E52.09382
G1 X134.826 Y88.154 E52.12776
G1 X134.975 Y88.819 E52.16176
G1 X135.05 Y89.75 E52.20835
G1 X135.05 Y112.25 E53.33088
G1 X135.01 Y112.93 E53.36487
G1 X134.891 Y113.6 E53.39882
G1 X134.694 Y114.252 E53.4328
G1 X134.422 Y114.876 E53.46676
G1 X134.078 Y115.464 E53.50075
G1 X133.668 Y116.008 E53.53473
G1 X133.197 Y116.499 E53.56868
G1 X132.672 Y116.933 E53.60266
G1 X132.05 Y117.334 E53.63958
G1 X132.05 Y130.25 E54.28396
G1 X132.01 Y130.93 E54.31795
G1 X131.891 Y131.6 E54.3519
G1 X131.694 Y132.252 E54.38588
G1 X131.422 Y132.876 E54.41984
G1 X131.078 Y133.464 E54.45382
G1 X130.668 Y134.008 E54.48781
G1 X130.197 Y134.499 E54.52175
G1 X129.672 Y134.933 E54.55574
G1 X129.1 Y135.302 E54.5897
G1 X128.488 Y135.601 E54.62368
G1 X127.846 Y135.826 E54.65762
G1 X127.181 Y135.975 E54.69162
G1 X126.25 Y136.05 E54.73822
G1 X93.75 Y136.05 E56.35965
G1 X93.07 Y136.01 E56.39363
G1 X92.4 Y135.891 E56.42758
G1 X91.748 Y135.694 E56.46156
G1 X91.124 Y135.422 E56.49552
G1 X90.536 Y135.078 E56.52951
G1 X89.992 Y134.668 E56.5635
G1 X89.501 Y134.197 E56.59744
G1 X89.067 Y133.672 E56.63142
G1 X88.698 Y133.1 E56.66538
G1 X88.399 Y132.488 E56.69937
G1 X88.174 Y131.846 E56.73331
G1 X88.025 Y131.181 E56.7673
G1 X87.95 Y130.25 E56.8139
G1 X87.95 Y117.32 E57.45898
G1 X87.536 Y117.078 E57.48291
G1 X86.992 Y116.668 E57.51689
G1 X86.501 Y116.197 E57.55084
G1 X86.067 Y115.672 E57.58482
G1 X85.698 Y115.1 E57.61878
G1 X85.399 Y114.488 E57.65276
G1 X85.174 Y113.846 E57.6867
G1 X85.025 Y113.181 E57.7207
G1 X84.95 Y112.25 E57.7673
G1 X84.95 Y89.75 E58.88983
G0 F7500 X85.35 Y89.75
G1 F1500 X85.39 Y89.094 E58.92262
G1 X85.509 Y88.448 E58.95539
G1 X85.706 Y87.821 E58.98818
G1 X85.978 Y87.223 E59.02095
G1 X86.32 Y86.662 E59.05373
G1 X86.728 Y86.147 E59.08651
G1 X87.195 Y85.685 E59.11929
G1 X87.715 Y85.284 E59.15205
G1 X88.279 Y84.948 E59.1848
G1 X88.881 Y84.684 E59.21759
G1 X89.51 Y84.494 E59.25038
G1 X90.157 Y84.383 E59.28313
G1 X90.75 Y84.35 E59.31276
G1 X129.25 Y84.35 E61.23353
G1 X129.906 Y84.39 E61.26632
G1 X130.552 Y84.509 E61.29909
G1 X131.179 Y84.706 E61.33188
G1 X131.777 Y84.978 E61.36465
G1 X132.338 Y85.32 E61.39743
G1 X132.853 Y85.728 E61.43021
G1 X133.315 Y86.195 E61.46299
G1 X133.716 Y86.715 E61.49575
G1 X134.052 Y87.279 E61.5285
G1 X134.316 Y87.881 E61.5613
G1 X134.506 Y88.51 E61.59408
G1 X134.617 Y89.157 E61.62683
G1 X134.65 Y89.75 E61.65646
G1 X134.65 Y112.25 E62.77899
G1 X134.61 Y112.906 E62.81178
G1 X134.491 Y113.552 E62.84455
