;FLAVOR:Marlin
;TIME:2240
;Filament used: 1.28621m
;Layer height: 0.15
;MINX:81.025
;MINY:89.7
;MINZ:0.3
;MAXX:138.975
;MAXY:130.3
;MAXZ:9.3
;Generated with Cura_SteamEngine main
M140 S60
M105
M190 S60
M104 S200
M105
M109 S200
M82 ;absolute extrusion mode
G28 ;Home
G1 Z15.0 F2000 ;Move the platform
G92 E0
G92 E0
G1 F1500 E-6.5
;LAYER_COUNT:61
;LAYER:0
M107
M204 S1000
G0 F7500 X83.448 Y91.849 Z0.3
G0 X81.025 Y97.5
;TYPE:SKIRT
G1 F1500 E0
G1 X81.065 Y96.711 E0.03941
G1 X81.184 Y95.931 E0.07878
G1 X81.382 Y95.166 E0.1182
G1 X81.656 Y94.426 E0.15757
G1 X82.004 Y93.717 E0.19697
G1 X82.422 Y93.046 E0.23641
G1 X82.905 Y92.422 E0.27578
G1 X83.448 Y91.849 E0.31517
G1 X84.047 Y91.334 E0.35458
G1 X84.695 Y90.883 E0.39397
G1 X85.386 Y90.499 E0.43341
G1 X86.111 Y90.187 E0.47278
G1 X86.864 Y89.95 E0.51217
G1 X87.638 Y89.791 E0.55159
G1 X88.423 Y89.71 E0.59096
G1 X88.825 Y89.7 E0.61102
G1 X131.175 Y89.7 E2.72387
G1 X131.964 Y89.74 E2.76329
G1 X132.744 Y89.859 E2.80265
G1 X133.509 Y90.057 E2.84207
G1 X134.249 Y90.331 E2.88144
G1 X134.958 Y90.679 E2.92085
G1 X135.629 Y91.097 E2.96029
G1 X136.253 Y91.58 E2.99965
G1 X136.826 Y92.123 E3.03904
G1 X137.341 Y92.722 E3.07845
G1 X137.792 Y93.37 E3.11784
G1 X138.176 Y94.061 E3.15728
G1 X138.488 Y94.786 E3.19665
G1 X138.725 Y95.539 E3.23604
G1 X138.884 Y96.313 E3.27546
G1 X138.965 Y97.098 E3.31483
G1 X138.975 Y97.5 E3.33489
G1 X138.975 Y100.471 E3.48312
G1 X138.935 Y101.26 E3.52253
G1 X138.901 Y101.485 E3.53388
G1 X138.975 Y102.529 E3.5861
G1 X138.975 Y117.471 E4.33156
G1 X138.935 Y118.26 E4.37097
G1 X138.901 Y118.485 E4.38233
G1 X138.975 Y119.529 E4.43454
G1 X138.975 Y122.5 E4.58277
G1 X138.935 Y123.289 E4.62218
G1 X138.816 Y124.069 E4.66155
G1 X138.618 Y124.834 E4.70097
G1 X138.344 Y125.574 E4.74034
G1 X137.996 Y126.283 E4.77974
G1 X137.578 Y126.954 E4.81918
G1 X137.095 Y127.578 E4.85855
G1 X136.552 Y128.151 E4.89793
G1 X135.953 Y128.666 E4.93734
G1 X135.305 Y129.117 E4.97673
G1 X134.614 Y129.501 E5.01617
G1 X133.889 Y129.813 E5.05555
G1 X133.136 Y130.05 E5.09493
G1 X132.362 Y130.209 E5.13435
G1 X131.577 Y130.29 E5.17373
G1 X131.175 Y130.3 E5.19379
G1 X88.825 Y130.3 E7.30664
G1 X88.036 Y130.26 E7.34605
G1 X87.256 Y130.141 E7.38542
G1 X86.491 Y129.943 E7.42484
G1 X85.751 Y129.669 E7.46421
G1 X85.042 Y129.321 E7.50361
G1 X84.371 Y128.903 E7.54305
G1 X83.747 Y128.42 E7.58242
G1 X83.174 Y127.877 E7.62181
G1 X82.659 Y127.278 E7.66122
G1 X82.208 Y126.63 E7.7006
G1 X81.824 Y125.939 E7.74004
G1 X81.512 Y125.214 E7.77942
G1 X81.275 Y124.461 E7.81881
G1 X81.116 Y123.687 E7.85823
G1 X81.035 Y122.902 E7.8976
G1 X81.025 Y122.5 E7.91766
G1 X81.025 Y97.5 E9.16492
G0 F7500 X81.425 Y97.5
G1 F1500 X81.465 Y96.732 E9.20328
G1 X81.584 Y95.972 E9.24166
G1 X81.782 Y95.229 E9.28002
G1 X82.056 Y94.51 E9.31841
G1 X82.403 Y93.824 E9.35677
G1 X82.819 Y93.177 E9.39514
G1 X83.3 Y92.577 E9.43351
G1 X83.841 Y92.03 E9.47189
G1 X84.436 Y91.542 E9.51028
G1 X85.078 Y91.119 E9.54864
G1 X85.761 Y90.764 E9.58704
G1 X86.476 Y90.483 E9.62537
G1 X87.218 Y90.277 E9.66379
G1 X87.976 Y90.149 E9.70214
G1 X88.825 Y90.1 E9.74457
G1 X131.175 Y90.1 E11.85742
G1 X131.943 Y90.14 E11.89578
G1 X132.703 Y90.259 E11.93416
G1 X133.446 Y90.457 E11.97252
G1 X134.165 Y90.731 E12.01091
G1 X134.851 Y91.078 E12.04927
G1 X135.498 Y91.494 E12.08764
G1 X136.098 Y91.975 E12.12601
G1 X136.645 Y92.516 E12.16439
G1 X137.133 Y93.111 E12.20278
G1 X137.556 Y93.753 E12.24114
G1 X137.911 Y94.436 E12.27954
G1 X138.192 Y95.151 E12.31787
G1 X138.398 Y95.893 E12.35629
G1 X138.526 Y96.651 E12.39464
G1 X138.575 Y97.5 E12.43707
G1 X138.575 Y100.471 E12.58529
G1 X138.535 Y101.239 E12.62366
G1 X138.494 Y101.501 E12.63689
G1 X138.555 Y101.985 E12.66123
G1 X138.575 Y102.529 E12.68839
G1 X138.575 Y117.471 E13.43384
G1 X138.535 Y118.239 E13.47221
G1 X138.494 Y118.501 E13.48544
G1 X138.555 Y118.985 E13.50978
G1 X138.575 Y119.529 E13.53694
G1 X138.575 Y122.5 E13.68516
G1 X138.535 Y123.268 E13.72353
G1 X138.416 Y124.028 E13.76191
G1 X138.218 Y124.771 E13.80027
G1 X137.944 Y125.49 E13.83866
G1 X137.597 Y126.176 E13.87701
G1 X137.181 Y126.823 E13.91539
G1 X136.7 Y127.423 E13.95375
G1 X136.159 Y127.97 E13.99214
G1 X135.564 Y128.458 E14.03053
G1 X134.922 Y128.881 E14.06888
G1 X134.239 Y129.236 E14.10729
G1 X133.524 Y129.517 E14.14562
G1 X132.782 Y129.723 E14.18403
G1 X132.024 Y129.851 E14.22239
G1 X131.175 Y129.9 E14.26481
G1 X88.825 Y129.9 E16.37766
G1 X88.057 Y129.86 E16.41603
G1 X87.297 Y129.741 E16.45441
G1 X86.554 Y129.543 E16.49277
G1 X85.835 Y129.269 E16.53116
G1 X85.149 Y128.922 E16.56951
G1 X84.502 Y128.506 E16.60789
G1 X83.902 Y128.025 E16.64625
G1 X83.355 Y127.484 E16.68464
G1 X82.867 Y126.889 E16.72303
G1 X82.444 Y126.247 E16.76139
G1 X82.089 Y125.564 E16.79979
G1 X81.808 Y124.849 E16.83812
G1 X81.602 Y124.107 E16.87653
G1 X81.474 Y123.349 E16.91489
G1 X81.425 Y122.5 E16.95731
G1 X81.425 Y97.5 E18.20457
G0 F7500 X81.825 Y97.5
G1 F1500 X81.865 Y96.753 E18.24189
G1 X81.984 Y96.015 E18.27918
G1 X82.182 Y95.293 E18.31654
G1 X82.455 Y94.597 E18.35383
G1 X82.802 Y93.934 E18.39117
G1 X83.217 Y93.311 E18.42851
G1 X83.696 Y92.737 E18.46581
G1 X84.233 Y92.216 E18.50314
G1 X84.823 Y91.757 E18.54043
G1 X85.459 Y91.362 E18.57779
G1 X86.133 Y91.038 E18.6151
G1 X86.838 Y90.788 E18.65241
G1 X87.566 Y90.614 E18.68976
G1 X88.308 Y90.519 E18.72708
G1 X88.825 Y90.5 E18.75289
G1 X131.175 Y90.5 E20.86574
G1 X131.922 Y90.54 E20.90306
G1 X132.66 Y90.659 E20.94036
G1 X133.382 Y90.857 E20.97771
G1 X134.078 Y91.13 E21.01501
G1 X134.741 Y91.477 E21.05234
G1 X135.364 Y91.892 E21.08968
G1 X135.938 Y92.371 E21.12698
G1 X136.459 Y92.908 E21.16431
G1 X136.918 Y93.498 E21.20161
G1 X137.313 Y94.134 E21.23896
G1 X137.637 Y94.808 E21.27627
G1 X137.887 Y95.513 E21.31358
G1 X138.061 Y96.241 E21.35093
G1 X138.156 Y96.983 E21.38825
G1 X138.175 Y97.5 E21.41406
G1 X138.175 Y100.471 E21.56228
G1 X138.135 Y101.218 E21.5996
G1 X138.09 Y101.5 E21.61385
G1 X138.135 Y101.78 E21.628
G1 X138.175 Y102.529 E21.66542
G1 X138.175 Y117.471 E22.41088
G1 X138.135 Y118.218 E22.4482
G1 X138.09 Y118.5 E22.46245
G1 X138.135 Y118.78 E22.4766
G1 X138.175 Y119.529 E22.51402
G1 X138.175 Y122.5 E22.66224
G1 X138.135 Y123.247 E22.69956
G1 X138.016 Y123.985 E22.73686
G1 X137.818 Y124.707 E22.77421
G1 X137.545 Y125.403 E22.81151
G1 X137.198 Y126.066 E22.84884
G1 X136.783 Y126.689 E22.88619
G1 X136.304 Y127.263 E22.92349
G1 X135.767 Y127.784 E22.96081
G1 X135.177 Y128.243 E22.99811
G1 X134.541 Y128.638 E23.03546
G1 X133.867 Y128.962 E23.07277
G1 X133.162 Y129.212 E23.11009
G1 X132.434 Y129.386 E23.14743
G1 X131.692 Y129.481 E23.18475
G1 X131.175 Y129.5 E23.21056
G1 X88.825 Y129.5 E25.32341
G1 X88.078 Y129.46 E25.36073
G1 X87.34 Y129.341 E25.39803
G1 X86.618 Y129.143 E25.43538
G1 X85.922 Y128.87 E25.47268
G1 X85.259 Y128.523 E25.51001
G1 X84.636 Y128.108 E25.54736
G1 X84.062 Y127.629 E25.58466
G1 X83.541 Y127.092 E25.62198
G1 X83.082 Y126.502 E25.65928
G1 X82.687 Y125.866 E25.69663
G1 X82.363 Y125.192 E25.73394
G1 X82.113 Y124.487 E25.77126
G1 X81.939 Y123.759 E25.8086
G1 X81.844 Y123.017 E25.84592
G1 X81.825 Y122.5 E25.87173
G1 X81.825 Y97.5 E27.11899
G0 F7500 X82.225 Y97.5
G1 F1500 X82.265 Y96.775 E27.15521
G1 X82.384 Y96.058 E27.19147
G1 X82.582 Y95.359 E27.22772
G1 X82.855 Y94.686 E27.26395
G1 X83.2 Y94.047 E27.30018
G1 X83.614 Y93.45 E27.33643
G1 X84.09 Y92.902 E27.37264
G1 X84.624 Y92.409 E27.4089
G1 X85.209 Y91.979 E27.44512
G1 X85.838 Y91.615 E27.48138
G1 X86.503 Y91.322 E27.51763
G1 X87.196 Y91.104 E27.55388
G1 X87.908 Y90.964 E27.59008
G1 X88.825 Y90.9 E27.63594
G1 X131.175 Y90.9 E29.74879
G1 X131.9 Y90.94 E29.78502
G1 X132.617 Y91.059 E29.82128
G1 X133.316 Y91.257 E29.85752
G1 X133.989 Y91.53 E29.89375
G1 X134.628 Y91.875 E29.92998
G1 X135.225 Y92.289 E29.96623
G1 X135.773 Y92.765 E30.00244
G1 X136.266 Y93.299 E30.0387
G1 X136.696 Y93.884 E30.07492
G1 X137.06 Y94.513 E30.11118
G1 X137.353 Y95.178 E30.14744
G1 X137.571 Y95.871 E30.18368
G1 X137.711 Y96.583 E30.21988
G1 X137.775 Y97.5 E30.26574
G1 X137.775 Y100.471 E30.41397
G1 X137.735 Y101.196 E30.45019
G1 X137.687 Y101.487 E30.46491
G1 X137.71 Y101.604 E30.47085
G1 X137.775 Y102.529 E30.51712
G1 X137.775 Y117.471 E31.26258
G1 X137.735 Y118.196 E31.2988
G1 X137.687 Y118.487 E31.31352
G1 X137.71 Y118.604 E31.31946
G1 X137.775 Y119.529 E31.36573
G1 X137.775 Y122.5 E31.51395
G1 X137.735 Y123.225 E31.55018
G1 X137.616 Y123.942 E31.58644
G1 X137.418 Y124.641 E31.62268
G1 X137.145 Y125.314 E31.65892
G1 X136.8 Y125.953 E31.69514
G1 X136.386 Y126.55 E31.73139
G1 X135.91 Y127.098 E31.7676
G1 X135.376 Y127.591 E31.80386
G1 X134.791 Y128.021 E31.84008
G1 X134.162 Y128.385 E31.87634
G1 X133.497 Y128.678 E31.9126
G1 X132.804 Y128.896 E31.94884
G1 X132.092 Y129.036 E31.98504
G1 X131.175 Y129.1 E32.0309
G1 X88.825 Y129.1 E34.14375
G1 X88.1 Y129.06 E34.17998
G1 X87.383 Y128.941 E34.21624
G1 X86.684 Y128.743 E34.25248
G1 X86.011 Y128.47 E34.28872
G1 X85.372 Y128.125 E34.32495
G1 X84.775 Y127.711 E34.36119
G1 X84.227 Y127.235 E34.39741
G1 X83.734 Y126.701 E34.43367
G1 X83.304 Y126.116 E34.46989
G1 X82.94 Y125.487 E34.50614
G1 X82.647 Y124.822 E34.5424
G1 X82.429 Y124.129 E34.57864
G1 X82.289 Y123.417 E34.61484
G1 X82.225 Y122.5 E34.66071
G1 X82.225 Y97.5 E35.90796
G0 F7500 X82.625 Y97.5
G1 F1500 X82.665 Y96.797 E35.94309
G1 X82.784 Y96.103 E35.97822
G1 X82.982 Y95.428 E36.01331
G1 X83.254 Y94.779 E36.04842
G1 X83.599 Y94.165 E36.08356
G1 X84.01 Y93.594 E36.11866
G1 X84.484 Y93.073 E36.1538
G1 X85.014 Y92.609 E36.18894
G1 X85.593 Y92.209 E36.22405
G1 X86.214 Y91.877 E36.25918
G1 X86.868 Y91.617 E36.29429
G1 X87.548 Y91.433 E36.32944
G1 X88.244 Y91.327 E36.36456
G1 X88.825 Y91.3 E36.39358
G1 X131.175 Y91.3 E38.50643
G1 X131.878 Y91.34 E38.54156
G1 X132.572 Y91.459 E38.57669
G1 X133.247 Y91.657 E38.61178
G1 X133.896 Y91.929 E38.64689
G1 X134.51 Y92.274 E38.68203
G1 X135.081 Y92.685 E38.71713
G1 X135.602 Y93.159 E38.75227
G1 X136.066 Y93.689 E38.78741
G1 X136.466 Y94.268 E38.82252
G1 X136.798 Y94.889 E38.85765
G1 X137.058 Y95.543 E38.89277
G1 X137.242 Y96.223 E38.92791
G1 X137.348 Y96.919 E38.96304
G1 X137.375 Y97.5 E38.99205
G1 X137.375 Y100.471 E39.14028
G1 X137.335 Y101.174 E39.17541
G1 X137.284 Y101.472 E39.19049
G1 X137.364 Y102.156 E39.22485
G1 X137.375 Y102.529 E39.24346
G1 X137.375 Y117.471 E39.98892
G1 X137.335 Y118.174 E40.02405
G1 X137.284 Y118.472 E40.03914
G1 X137.364 Y119.156 E40.07349
G1 X137.375 Y119.529 E40.09211
G1 X137.375 Y122.5 E40.24033
G1 X137.335 Y123.203 E40.27546
G1 X137.216 Y123.897 E40.31059
G1 X137.018 Y124.572 E40.34569
G1 X136.746 Y125.221 E40.3808
G1 X136.401 Y125.835 E40.41593
G1 X135.99 Y126.406 E40.45103
G1 X135.516 Y126.927 E40.48617
G1 X134.986 Y127.391 E40.52132
G1 X134.407 Y127.791 E40.55643
G1 X133.786 Y128.123 E40.59156
G1 X133.132 Y128.383 E40.62667
G1 X132.452 Y128.567 E40.66181
G1 X131.756 Y128.673 E40.69694
G1 X131.175 Y128.7 E40.72596
G1 X88.825 Y128.7 E42.83881
G1 X88.122 Y128.66 E42.87394
G1 X87.428 Y128.541 E42.90906
G1 X86.753 Y128.343 E42.94416
G1 X86.104 Y128.071 E42.97927
G1 X85.49 Y127.726 E43.0144
G1 X84.919 Y127.315 E43.0495
G1 X84.398 Y126.841 E43.08464
G1 X83.934 Y126.311 E43.11979
G1 X83.534 Y125.732 E43.1549
G1 X83.202 Y125.111 E43.19003
G1 X82.942 Y124.457 E43.22514
G1 X82.758 Y123.777 E43.26029
G1 X82.652 Y123.081 E43.29541
G1 X82.625 Y122.5 E43.32443
G1 X82.625 Y97.5 E44.57168
G0 F7500 X83.025 Y97.5
G1 F1500 X83.065 Y96.82 E44.60567
G1 X83.184 Y96.15 E44.63962
G1 X83.381 Y95.498 E44.6736
G1 X83.653 Y94.874 E44.70756
G1 X83.997 Y94.286 E44.74154
G1 X84.407 Y93.742 E44.77553
G1 X84.878 Y93.251 E44.80947
G1 X85.403 Y92.817 E44.84346
G1 X85.975 Y92.448 E44.87742
G1 X86.587 Y92.149 E44.9114
G1 X87.229 Y91.924 E44.94534
G1 X87.894 Y91.775 E44.97934
G1 X88.825 Y91.7 E45.02594
G1 X131.175 Y91.7 E47.13879
G1 X131.855 Y91.74 E47.17277
G1 X132.525 Y91.859 E47.20672
G1 X133.177 Y92.056 E47.2407
G1 X133.801 Y92.328 E47.27466
G1 X134.389 Y92.672 E47.30865
G1 X134.933 Y93.082 E47.34263
G1 X135.424 Y93.553 E47.37658
G1 X135.858 Y94.078 E47.41056
G1 X136.227 Y94.65 E47.44452
G1 X136.526 Y95.262 E47.4785
G1 X136.751 Y95.904 E47.51244
G1 X136.9 Y96.569 E47.54644
G1 X136.975 Y97.5 E47.59304
G1 X136.975 Y100.471 E47.74126
G1 X136.935 Y101.151 E47.77525
G1 X136.875 Y101.492 E47.79252
G1 X136.952 Y102.013 E47.8188
G1 X136.975 Y102.529 E47.84457
G1 X136.975 Y117.471 E48.59003
G1 X136.935 Y118.151 E48.62401
G1 X136.875 Y118.492 E48.64128
G1 X136.952 Y119.013 E48.66756
G1 X136.975 Y119.529 E48.69333
G1 X136.975 Y122.5 E48.84155
G1 X136.935 Y123.18 E48.87554
G1 X136.816 Y123.85 E48.90948
G1 X136.619 Y124.502 E48.94347
G1 X136.347 Y125.126 E48.97743
G1 X136.003 Y125.714 E49.01141
G1 X135.593 Y126.258 E49.0454
G1 X135.122 Y126.749 E49.07934
G1 X134.597 Y127.183 E49.11333
G1 X134.025 Y127.552 E49.14729
G1 X133.413 Y127.851 E49.18127
G1 X132.771 Y128.076 E49.21521
G1 X132.106 Y128.225 E49.24921
G1 X131.175 Y128.3 E49.29581
G1 X88.825 Y128.3 E51.40866
G1 X88.145 Y128.26 E51.44264
G1 X87.475 Y128.141 E51.47659
G1 X86.823 Y127.944 E51.51057
G1 X86.199 Y127.672 E51.54453
G1 X85.611 Y127.328 E51.57852
G1 X85.067 Y126.918 E51.6125
G1 X84.576 Y126.447 E51.64645
G1 X84.142 Y125.922 E51.68043
G1 X83.773 Y125.35 E51.71439
G1 X83.474 Y124.738 E51.74837
G1 X83.249 Y124.096 E51.78231
G1 X83.1 Y123.431 E51.81631
G1 X83.025 Y122.5 E51.86291
G1 X83.025 Y97.5 E53.11016
G0 F7500 X83.425 Y97.5
G1 F1500 X83.465 Y96.844 E53.14295
G1 X83.584 Y96.198 E53.17573
G1 X83.781 Y95.571 E53.20851
G1 X84.053 Y94.973 E53.24129
G1 X84.395 Y94.412 E53.27407
G1 X84.803 Y93.897 E53.30685
G1 X85.27 Y93.435 E53.33962
G1 X85.79 Y93.034 E53.37238
G1 X86.354 Y92.698 E53.40514
G1 X86.956 Y92.434 E53.43793
G1 X87.585 Y92.244 E53.47071
G1 X88.232 Y92.133 E53.50346
G1 X88.825 Y92.1 E53.53309
G1 X131.175 Y92.1 E55.64594
G1 X131.831 Y92.14 E55.67873
G1 X132.477 Y92.259 E55.7115
G1 X133.104 Y92.456 E55.74429
G1 X133.702 Y92.728 E55.77707
G1 X134.263 Y93.07 E55.80985
G1 X134.778 Y93.478 E55.84263
G1 X135.24 Y93.945 E55.8754
G1 X135.641 Y94.465 E55.90816
G1 X135.977 Y95.029 E55.94091
G1 X136.241 Y95.631 E55.97371
G1 X136.431 Y96.26 E56.00649
G1 X136.542 Y96.907 E56.03924
G1 X136.575 Y97.5 E56.06887
G1 X136.575 Y100.471 E56.21709
G1 X136.535 Y101.127 E56.24988
G1 X136.466 Y101.5 E56.26881
G1 X136.538 Y101.9 E56.28908
G1 X136.575 Y102.529 E56.32052
G1 X136.575 Y117.471 E57.06598
G1 X136.535 Y118.127 E57.09877
G1 X136.466 Y118.5 E57.11769
G1 X136.538 Y118.9 E57.13797
G1 X136.575 Y119.529 E57.1694
G1 X136.575 Y122.5 E57.31763
G1 X136.535 Y123.156 E57.35042
G1 X136.416 Y123.802 E57.38319
G1 X136.219 Y124.429 E57.41598
G1 X135.947 Y125.027 E57.44875
G1 X135.605 Y125.588 E57.48153
G1 X135.197 Y126.103 E57.51431
G1 X134.73 Y126.565 E57.54709
G1 X134.21 Y126.966 E57.57985
G1 X133.646 Y127.302 E57.6126
G1 X133.044 Y127.566 E57.64539
G1 X132.415 Y127.756 E57.67818
G1 X131.768 Y127.867 E57.71093
G1 X131.175 Y127.9 E57.74056
G1 X88.825 Y127.9 E59.85341
G1 X88.169 Y127.86 E59.8862
G1 X87.523 Y127.741 E59.91897
G1 X86.896 Y127.544 E59.95176
G1 X86.298 Y127.272 E59.98453
G1 X85.737 Y126.93 E60.01731
G1 X85.222 Y126.522 E60.05009
G1 X84.76 Y126.055 E60.08286
G1 X84.359 Y125.535 E60.11562
G1 X84.023 Y124.971 E60.14838
G1 X83.759 Y124.369 E60.18117
G1 X83.569 Y123.74 E60.21395
G1 X83.458 Y123.093 E60.2467
G1 X83.425 Y122.5 E60.27633
G1 X83.425 Y97.5 E61.52359
G0 F7500 X83.825 Y97.5
G1 F1500 X83.865 Y96.869 E61.55513
G1 X83.984 Y96.248 E61.58668
G1 X84.181 Y95.648 E61.61819
G1 X84.452 Y95.076 E61.64976
G1 X84.792 Y94.544 E61.68126
G1 X85.198 Y94.059 E61.71282
G1 X85.661 Y93.629 E61.74434
G1 X86.175 Y93.26 E61.77591
G1 X86.731 Y92.96 E61.80743
G1 X87.32 Y92.732 E61.83894
G1 X87.934 Y92.58 E61.8705
G1 X88.825 Y92.5 E61.91513
G1 X131.175 Y92.5 E64.02798
G1 X131.806 Y92.54 E64.05952
G1 X132.427 Y92.659 E64.09107
G1 X133.027 Y92.856 E64.12257
G1 X133.599 Y93.127 E64.15415
G1 X134.131 Y93.467 E64.18565
G1 X134.616 Y93.873 E64.21721
G1 X135.046 Y94.336 E64.24873
G1 X135.415 Y94.85 E64.2803
G1 X135.715 Y95.406 E64.31182
G1 X135.943 Y95.995 E64.34333
G1 X136.095 Y96.609 E64.37488
G1 X136.175 Y97.5 E64.41952
