;FLAVOR:Marlin
;TIME:1953
;Filament used: 1.08249m
;Layer height: 0.15
;MINX:83.95
;MINY:89.95
;MINZ:0.3
;MAXX:136.05
;MAXY:130.05
;MAXZ:8.55
;Generated with Cura_SteamEngine main
M140 S60
M105
M190 S60
M104 S200
M105
M109 S200
M82 ;absolute extrusion mode
G28 ;Home
G1 Z15.0 F2000 ;Move the platform
G92 E0
G92 E0
G1 F1500 E-6.5
;LAYER_COUNT:56
;LAYER:0
M107
M204 S1000
G0 F7500 X86.373 Y92.099 Z0.3
G0 X83.95 Y97.75
;TYPE:SKIRT
G1 F1500 E0
G1 X83.99 Y96.961 E0.03941
G1 X84.109 Y96.181 E0.07878
G1 X84.307 Y95.416 E0.1182
G1 X84.581 Y94.676 E0.15757
G1 X84.929 Y93.967 E0.19697
G1 X85.347 Y93.296 E0.23641
G1 X85.83 Y92.672 E0.27578
G1 X86.373 Y92.099 E0.31517
G1 X86.972 Y91.584 E0.35458
G1 X87.62 Y91.133 E0.39397
G1 X88.311 Y90.749 E0.43341
G1 X89.036 Y90.437 E0.47278
G1 X89.789 Y90.2 E0.51217
G1 X90.563 Y90.041 E0.55159
G1 X91.348 Y89.96 E0.59096
G1 X91.75 Y89.95 E0.61102
G1 X128.25 Y89.95 E2.43201
G1 X129.039 Y89.99 E2.47143
G1 X129.819 Y90.109 E2.51079
G1 X130.584 Y90.307 E2.55022
G1 X131.324 Y90.581 E2.58958
G1 X132.033 Y90.929 E2.62899
G1 X132.704 Y91.347 E2.66843
G1 X133.328 Y91.83 E2.7078
G1 X133.901 Y92.373 E2.74718
G1 X134.416 Y92.972 E2.78659
G1 X134.867 Y93.62 E2.82598
G1 X135.251 Y94.311 E2.86542
G1 X135.563 Y95.036 E2.9048
G1 X135.8 Y95.789 E2.94418
G1 X135.959 Y96.563 E2.9836
G1 X136.04 Y97.348 E3.02297
G1 X136.05 Y97.75 E3.04304
G1 X136.05 Y122.25 E4.26535
G1 X136.01 Y123.039 E4.30476
G1 X135.891 Y123.819 E4.34412
G1 X135.693 Y124.584 E4.38355
G1 X135.419 Y125.324 E4.42292
G1 X135.071 Y126.033 E4.46232
G1 X134.653 Y126.704 E4.50176
G1 X134.17 Y127.328 E4.54113
G1 X133.627 Y127.901 E4.58051
G1 X133.028 Y128.416 E4.61992
G1 X132.38 Y128.867 E4.65931
G1 X131.689 Y129.251 E4.69875
G1 X130.964 Y129.563 E4.73813
G1 X130.211 Y129.8 E4.77751
G1 X129.437 Y129.959 E4.81693
G1 X128.652 Y130.04 E4.85631
G1 X128.25 Y130.05 E4.87637
G1 X91.75 Y130.05 E6.69736
G1 X90.961 Y130.01 E6.73677
G1 X90.181 Y129.891 E6.77614
G1 X89.416 Y129.693 E6.81556
G1 X88.676 Y129.419 E6.85493
G1 X87.967 Y129.071 E6.89433
G1 X87.296 Y128.653 E6.93378
G1 X86.672 Y128.17 E6.97314
G1 X86.099 Y127.627 E7.01253
G1 X85.584 Y127.028 E7.05194
G1 X85.133 Y126.38 E7.09133
G1 X84.749 Y125.689 E7.13077
G1 X84.437 Y124.964 E7.17014
G1 X84.2 Y124.211 E7.20953
G1 X84.041 Y123.437 E7.24895
G1 X83.96 Y122.652 E7.28832
G1 X83.95 Y122.25 E7.30838
G1 X83.95 Y97.75 E8.53069
G0 F7500 X84.35 Y97.75
G1 F1500 X84.39 Y96.982 E8.56906
G1 X84.509 Y96.222 E8.60744
G1 X84.707 Y95.479 E8.6458
G1 X84.981 Y94.76 E8.68419
G1 X85.328 Y94.074 E8.72254
G1 X85.744 Y93.427 E8.76092
G1 X86.225 Y92.827 E8.79928
G1 X86.766 Y92.28 E8.83767
G1 X87.361 Y91.792 E8.87606
G1 X88.003 Y91.369 E8.91441
G1 X88.686 Y91.014 E8.95282
G1 X89.401 Y90.733 E8.99115
G1 X90.143 Y90.527 E9.02956
G1 X90.901 Y90.399 E9.06792
G1 X91.75 Y90.35 E9.11034
G1 X128.25 Y90.35 E10.93134
G1 X129.018 Y90.39 E10.9697
G1 X129.778 Y90.509 E11.00808
G1 X130.521 Y90.707 E11.04644
G1 X131.24 Y90.981 E11.08483
G1 X131.926 Y91.328 E11.12319
G1 X132.573 Y91.744 E11.16156
G1 X133.173 Y92.225 E11.19993
G1 X133.72 Y92.766 E11.23831
G1 X134.208 Y93.361 E11.2767
G1 X134.631 Y94.003 E11.31506
G1 X134.986 Y94.686 E11.35346
G1 X135.267 Y95.401 E11.39179
G1 X135.473 Y96.143 E11.43021
G1 X135.601 Y96.901 E11.46856
G1 X135.65 Y97.75 E11.51099
G1 X135.65 Y122.25 E12.7333
G1 X135.61 Y123.018 E12.77166
G1 X135.491 Y123.778 E12.81004
G1 X135.293 Y124.521 E12.8484
G1 X135.019 Y125.24 E12.88679
G1 X134.672 Y125.926 E12.92515
G1 X134.256 Y126.573 E12.96352
G1 X133.775 Y127.173 E13.00189
G1 X133.234 Y127.72 E13.04027
G1 X132.639 Y128.208 E13.07866
G1 X131.997 Y128.631 E13.11702
G1 X131.314 Y128.986 E13.15542
G1 X130.599 Y129.267 E13.19375
G1 X129.857 Y129.473 E13.23217
G1 X129.099 Y129.601 E13.27052
G1 X128.25 Y129.65 E13.31295
G1 X91.75 Y129.65 E15.13394
G1 X90.982 Y129.61 E15.17231
G1 X90.222 Y129.491 E15.21069
G1 X89.479 Y129.293 E15.24905
G1 X88.76 Y129.019 E15.28743
G1 X88.074 Y128.672 E15.32579
G1 X87.427 Y128.256 E15.36416
G1 X86.827 Y127.775 E15.40253
G1 X86.28 Y127.234 E15.44091
G1 X85.792 Y126.639 E15.4793
G1 X85.369 Y125.997 E15.51766
G1 X85.014 Y125.314 E15.55606
G1 X84.733 Y124.599 E15.59439
G1 X84.527 Y123.857 E15.63281
G1 X84.399 Y123.099 E15.67116
G1 X84.35 Y122.25 E15.71359
G1 X84.35 Y97.75 E16.9359
G0 F7500 X84.75 Y97.75
G1 F1500 X84.79 Y97.003 E16.97322
G1 X84.909 Y96.265 E17.01052
G1 X85.107 Y95.543 E17.04787
G1 X85.38 Y94.847 E17.08517
G1 X85.727 Y94.184 E17.1225
G1 X86.142 Y93.561 E17.15985
G1 X86.621 Y92.987 E17.19714
G1 X87.158 Y92.466 E17.23447
G1 X87.748 Y92.007 E17.27177
G1 X88.384 Y91.612 E17.30912
G1 X89.058 Y91.288 E17.34643
G1 X89.763 Y91.038 E17.38375
G1 X90.491 Y90.864 E17.42109
G1 X91.233 Y90.769 E17.45841
G1 X91.75 Y90.75 E17.48422
G1 X128.25 Y90.75 E19.30521
G1 X128.997 Y90.79 E19.34253
G1 X129.735 Y90.909 E19.37983
G1 X130.457 Y91.107 E19.41718
G1 X131.153 Y91.38 E19.45448
G1 X131.816 Y91.727 E19.49181
G1 X132.439 Y92.142 E19.52916
G1 X133.013 Y92.621 E19.56646
G1 X133.534 Y93.158 E19.60378
G1 X133.993 Y93.748 E19.64108
G1 X134.388 Y94.384 E19.67843
G1 X134.712 Y95.058 E19.71574
G1 X134.962 Y95.763 E19.75306
G1 X135.136 Y96.491 E19.7904
G1 X135.231 Y97.233 E19.82772
G1 X135.25 Y97.75 E19.85353
G1 X135.25 Y122.25 E21.07584
G1 X135.21 Y122.997 E21.11316
G1 X135.091 Y123.735 E21.15046
G1 X134.893 Y124.457 E21.18781
G1 X134.62 Y125.153 E21.22511
G1 X134.273 Y125.816 E21.26244
G1 X133.858 Y126.439 E21.29979
G1 X133.379 Y127.013 E21.33709
G1 X132.842 Y127.534 E21.37441
G1 X132.252 Y127.993 E21.41171
G1 X131.616 Y128.388 E21.44906
G1 X130.942 Y128.712 E21.48637
G1 X130.237 Y128.962 E21.52369
G1 X129.509 Y129.136 E21.56103
G1 X128.767 Y129.231 E21.59835
G1 X128.25 Y129.25 E21.62416
G1 X91.75 Y129.25 E23.44515
G1 X91.003 Y129.21 E23.48248
G1 X90.265 Y129.091 E23.51977
G1 X89.543 Y128.893 E23.55712
G1 X88.847 Y128.62 E23.59442
G1 X88.184 Y128.273 E23.63175
G1 X87.561 Y127.858 E23.6691
G1 X86.987 Y127.379 E23.7064
G1 X86.466 Y126.842 E23.74373
G1 X86.007 Y126.252 E23.78102
G1 X85.612 Y125.616 E23.81837
G1 X85.288 Y124.942 E23.85568
G1 X85.038 Y124.237 E23.893
G1 X84.864 Y123.509 E23.93034
G1 X84.769 Y122.767 E23.96766
G1 X84.75 Y122.25 E23.99347
G1 X84.75 Y97.75 E25.21578
G0 F7500 X85.15 Y97.75
G1 F1500 X85.19 Y97.025 E25.25201
G1 X85.309 Y96.308 E25.28827
G1 X85.507 Y95.609 E25.32452
G1 X85.78 Y94.936 E25.36075
G1 X86.125 Y94.297 E25.39698
G1 X86.539 Y93.7 E25.43322
G1 X87.015 Y93.152 E25.46944
G1 X87.549 Y92.659 E25.5057
G1 X88.134 Y92.229 E25.54192
G1 X88.763 Y91.865 E25.57818
G1 X89.428 Y91.572 E25.61443
G1 X90.121 Y91.354 E25.65067
G1 X90.833 Y91.214 E25.68688
G1 X91.75 Y91.15 E25.73274
G1 X128.25 Y91.15 E27.55373
G1 X128.975 Y91.19 E27.58995
G1 X129.692 Y91.309 E27.62622
G1 X130.391 Y91.507 E27.66246
G1 X131.064 Y91.78 E27.69869
G1 X131.703 Y92.125 E27.73492
G1 X132.3 Y92.539 E27.77117
G1 X132.848 Y93.015 E27.80738
G1 X133.341 Y93.549 E27.84364
G1 X133.771 Y94.134 E27.87986
G1 X134.135 Y94.763 E27.91612
G1 X134.428 Y95.428 E27.95238
G1 X134.646 Y96.121 E27.98862
G1 X134.786 Y96.833 E28.02482
G1 X134.85 Y97.75 E28.07068
G1 X134.85 Y122.25 E29.29299
G1 X134.81 Y122.975 E29.32922
G1 X134.691 Y123.692 E29.36548
G1 X134.493 Y124.391 E29.40172
G1 X134.22 Y125.064 E29.43796
G1 X133.875 Y125.703 E29.47419
G1 X133.461 Y126.3 E29.51043
G1 X132.985 Y126.848 E29.54664
G1 X132.451 Y127.341 E29.5829
G1 X131.866 Y127.771 E29.61913
G1 X131.237 Y128.135 E29.65538
G1 X130.572 Y128.428 E29.69164
G1 X129.879 Y128.646 E29.72788
G1 X129.167 Y128.786 E29.76408
G1 X128.25 Y128.85 E29.80994
G1 X91.75 Y128.85 E31.63094
G1 X91.025 Y128.81 E31.66716
G1 X90.308 Y128.691 E31.70342
G1 X89.609 Y128.493 E31.73967
G1 X88.936 Y128.22 E31.7759
G1 X88.297 Y127.875 E31.81213
G1 X87.7 Y127.461 E31.84838
G1 X87.152 Y126.985 E31.88459
G1 X86.659 Y126.451 E31.92085
G1 X86.229 Y125.866 E31.95707
G1 X85.865 Y125.237 E31.99333
G1 X85.572 Y124.572 E32.02958
G1 X85.354 Y123.879 E32.06583
G1 X85.214 Y123.167 E32.10203
G1 X85.15 Y122.25 E32.14789
G1 X85.15 Y97.75 E33.3702
G0 F7500 X85.55 Y97.75
G1 F1500 X85.59 Y97.047 E33.40533
G1 X85.709 Y96.353 E33.44046
G1 X85.907 Y95.678 E33.47555
G1 X86.179 Y95.029 E33.51066
G1 X86.524 Y94.415 E33.5458
G1 X86.935 Y93.844 E33.5809
G1 X87.409 Y93.323 E33.61604
G1 X87.939 Y92.859 E33.65118
G1 X88.518 Y92.459 E33.68629
G1 X89.139 Y92.127 E33.72142
G1 X89.793 Y91.867 E33.75653
G1 X90.473 Y91.683 E33.79168
G1 X91.169 Y91.577 E33.8268
G1 X91.75 Y91.55 E33.85582
G1 X128.25 Y91.55 E35.67681
G1 X128.953 Y91.59 E35.71194
G1 X129.647 Y91.709 E35.74707
G1 X130.322 Y91.907 E35.78217
G1 X130.971 Y92.179 E35.81727
G1 X131.585 Y92.524 E35.85241
G1 X132.156 Y92.935 E35.88751
G1 X132.677 Y93.409 E35.92265
G1 X133.141 Y93.939 E35.95779
G1 X133.541 Y94.518 E35.9929
G1 X133.873 Y95.139 E36.02803
G1 X134.133 Y95.793 E36.06315
G1 X134.317 Y96.473 E36.09829
G1 X134.423 Y97.169 E36.13342
G1 X134.45 Y97.75 E36.16243
G1 X134.45 Y122.25 E37.38474
G1 X134.41 Y122.953 E37.41987
G1 X134.291 Y123.647 E37.455
G1 X134.093 Y124.322 E37.4901
G1 X133.821 Y124.971 E37.5252
G1 X133.476 Y125.585 E37.56034
G1 X133.065 Y126.156 E37.59544
G1 X132.591 Y126.677 E37.63058
G1 X132.061 Y127.141 E37.66572
G1 X131.482 Y127.541 E37.70083
G1 X130.861 Y127.873 E37.73597
G1 X130.207 Y128.133 E37.77108
G1 X129.527 Y128.317 E37.80622
G1 X128.831 Y128.423 E37.84135
G1 X128.25 Y128.45 E37.87036
G1 X91.75 Y128.45 E39.69136
G1 X91.047 Y128.41 E39.72649
G1 X90.353 Y128.291 E39.76162
G1 X89.678 Y128.093 E39.79671
G1 X89.029 Y127.821 E39.83182
G1 X88.415 Y127.476 E39.86695
G1 X87.844 Y127.065 E39.90205
G1 X87.323 Y126.591 E39.93719
G1 X86.859 Y126.061 E39.97234
G1 X86.459 Y125.482 E40.00745
G1 X86.127 Y124.861 E40.04258
G1 X85.867 Y124.207 E40.07769
G1 X85.683 Y123.527 E40.11284
G1 X85.577 Y122.831 E40.14796
G1 X85.55 Y122.25 E40.17698
G1 X85.55 Y97.75 E41.39929
G0 F7500 X85.95 Y97.75
G1 F1500 X85.99 Y97.07 E41.43327
G1 X86.109 Y96.4 E41.46722
G1 X86.306 Y95.748 E41.5012
G1 X86.578 Y95.124 E41.53516
G1 X86.922 Y94.536 E41.56915
G1 X87.332 Y93.992 E41.60313
G1 X87.803 Y93.501 E41.63708
G1 X88.328 Y93.067 E41.67106
G1 X88.9 Y92.698 E41.70502
G1 X89.512 Y92.399 E41.739
G1 X90.154 Y92.174 E41.77294
G1 X90.819 Y92.025 E41.80694
G1 X91.75 Y91.95 E41.85354
G1 X128.25 Y91.95 E43.67453
G1 X128.93 Y91.99 E43.70852
G1 X129.6 Y92.109 E43.74247
G1 X130.252 Y92.306 E43.77645
G1 X130.876 Y92.578 E43.81041
G1 X131.464 Y92.922 E43.8444
G1 X132.008 Y93.332 E43.87838
G1 X132.499 Y93.803 E43.91233
G1 X132.933 Y94.328 E43.94631
G1 X133.302 Y94.9 E43.98027
G1 X133.601 Y95.512 E44.01425
G1 X133.826 Y96.154 E44.04819
G1 X133.975 Y96.819 E44.08219
G1 X134.05 Y97.75 E44.12879
G1 X134.05 Y122.25 E45.3511
G1 X134.01 Y122.93 E45.38508
G1 X133.891 Y123.6 E45.41903
G1 X133.694 Y124.252 E45.45301
G1 X133.422 Y124.876 E45.48697
G1 X133.078 Y125.464 E45.52096
G1 X132.668 Y126.008 E45.55495
G1 X132.197 Y126.499 E45.58889
G1 X131.672 Y126.933 E45.62287
G1 X131.1 Y127.302 E45.65683
G1 X130.488 Y127.601 E45.69082
G1 X129.846 Y127.826 E45.72475
G1 X129.181 Y127.975 E45.75875
G1 X128.25 Y128.05 E45.80535
G1 X91.75 Y128.05 E47.62635
G1 X91.07 Y128.01 E47.66033
G1 X90.4 Y127.891 E47.69428
G1 X89.748 Y127.694 E47.72826
G1 X89.124 Y127.422 E47.76222
G1 X88.536 Y127.078 E47.79621
G1 X87.992 Y126.668 E47.83019
G1 X87.501 Y126.197 E47.86414
G1 X87.067 Y125.672 E47.89812
G1 X86.698 Y125.1 E47.93208
G1 X86.399 Y124.488 E47.96606
G1 X86.174 Y123.846 E48
G1 X86.025 Y123.181 E48.034
G1 X85.95 Y122.25 E48.0806
G1 X85.95 Y97.75 E49.30291
G0 F7500 X86.35 Y97.75
G1 F1500 X86.39 Y97.094 E49.3357
G1 X86.509 Y96.448 E49.36847
G1 X86.706 Y95.821 E49.40126
G1 X86.978 Y95.223 E49.43403
G1 X87.32 Y94.662 E49.46681
G1 X87.728 Y94.147 E49.49959
G1 X88.195 Y93.685 E49.53237
G1 X88.715 Y93.284 E49.56513
G1 X89.279 Y92.948 E49.59788
G1 X89.881 Y92.684 E49.63067
G1 X90.51 Y92.494 E49.66346
G1 X91.157 Y92.383 E49.69621
G1 X91.75 Y92.35 E49.72584
G1 X128.25 Y92.35 E51.54683
G1 X128.906 Y92.39 E51.57962
G1 X129.552 Y92.509 E51.61239
G1 X130.179 Y92.706 E51.64518
G1 X130.777 Y92.978 E51.67795
G1 X131.338 Y93.32 E51.71073
G1 X131.853 Y93.728 E51.74351
G1 X132.315 Y94.195 E51.77629
G1 X132.716 Y94.715 E51.80905
G1 X133.052 Y95.279 E51.8418
G1 X133.316 Y95.881 E51.87459
G1 X133.506 Y96.51 E51.90738
G1 X133.617 Y97.157 E51.94013
G1 X133.65 Y97.75 E51.96976
G1 X133.65 Y122.25 E53.19207
G1 X133.61 Y122.906 E53.22486
G1 X133.491 Y123.552 E53.25763
G1 X133.294 Y124.179 E53.29042
G1 X133.022 Y124.777 E53.32319
G1 X132.68 Y125.338 E53.35597
G1 X132.272 Y125.853 E53.38875
G1 X131.805 Y126.315 E53.42152
G1 X131.285 Y126.716 E53.45428
G1 X130.721 Y127.052 E53.48704
G1 X130.119 Y127.316 E53.51983
G1 X129.49 Y127.506 E53.55261
G1 X128.843 Y127.617 E53.58536
G1 X128.25 Y127.65 E53.615
G1 X91.75 Y127.65 E55.43599
G1 X91.094 Y127.61 E55.46878
G1 X90.448 Y127.491 E55.50155
G1 X89.821 Y127.294 E55.53434
G1 X89.223 Y127.022 E55.56711
G1 X88.662 Y126.68 E55.59989
G1 X88.147 Y126.272 E55.63267
G1 X87.685 Y125.805 E55.66544
G1 X87.284 Y125.285 E55.69821
G1 X86.948 Y124.721 E55.73096
G1 X86.684 Y124.119 E55.76375
G1 X86.494 Y123.49 E55.79653
G1 X86.383 Y122.843 E55.82928
G1 X86.35 Y122.25 E55.85892
G1 X86.35 Y97.75 E57.08123
G0 F7500 X86.75 Y97.75
G1 F1500 X86.79 Y97.119 E57.11277
G1 X86.909 Y96.498 E57.14431
G1 X87.106 Y95.898 E57.17582
G1 X87.377 Y95.326 E57.2074
G1 X87.717 Y94.794 E57.2389
G1 X88.123 Y94.309 E57.27045
G1 X88.586 Y93.879 E57.30198
G1 X89.1 Y93.51 E57.33355
G1 X89.656 Y93.21 E57.36507
G1 X90.245 Y92.982 E57.39658
G1 X90.859 Y92.83 E57.42813
G1 X91.75 Y92.75 E57.47276
G1 X128.25 Y92.75 E59.29376
G1 X128.881 Y92.79 E59.3253
G1 X129.502 Y92.909 E59.35685
G1 X130.102 Y93.106 E59.38835
G1 X130.674 Y93.377 E59.41993
G1 X131.206 Y93.717 E59.45143
G1 X131.691 Y94.123 E59.48298
G1 X132.121 Y94.586 E59.51451
G1 X132.49 Y95.1 E59.54608
G1 X132.79 Y95.656 E59.5776
G1 X133.018 Y96.245 E59.60911
G1 X133.17 Y96.859 E59.64066
G1 X133.25 Y97.75 E59.68529
G1 X133.25 Y122.25 E60.9076
G1 X133.21 Y122.881 E60.93915
G1 X133.091 Y123.502 E60.97069
G1 X132.894 Y124.102 E61.0022
G1 X132.623 Y124.674 E61.03378
G1 X132.283 Y125.206 E61.06528
G1 X131.877 Y125.691 E61.09683
G1 X131.414 Y126.121 E61.12836
G1 X130.9 Y126.49 E61.15992
G1 X130.344 Y126.79 E61.19144
G1 X129.755 Y127.018 E61.22295
G1 X129.141 Y127.17 E61.25451
G1 X128.25 Y127.25 E61.29914
G1 X91.75 Y127.25 E63.12013
G1 X91.119 Y127.21 E63.15168
G1 X90.498 Y127.091 E63.18322
G1 X89.898 Y126.894 E63.21473
G1 X89.326 Y126.623 E63.24631
G1 X88.794 Y126.283 E63.27781
G1 X88.309 Y125.877 E63.30936
G1 X87.879 Y125.414 E63.34089
G1 X87.51 Y124.9 E63.37245
G1 X87.21 Y124.344 E63.40397
G1 X86.982 Y123.755 E63.43548
G1 X86.83 Y123.141 E63.46704
G1 X86.75 Y122.25 E63.51167
G1 X86.75 Y97.75 E64.73398
G0 F7500 X87.15 Y97.75
G1 F1500 X87.19 Y97.145 E64.76423
G1 X87.309 Y96.551 E64.79446
G1 X87.505 Y95.977 E64.82472
G1 X87.776 Y95.434 E64.85499
G1 X88.115 Y94.931 E64.88525
G1 X88.517 Y94.478 E64.91547
G1 X88.975 Y94.081 E64.94571
G1 X89.482 Y93.748 E64.97597
G1 X90.028 Y93.484 E65.00623
G1 X90.604 Y93.295 E65.03647
G1 X91.2 Y93.183 E65.06673
G1 X91.75 Y93.15 E65.09422
G1 X128.25 Y93.15 E66.91521
G1 X128.855 Y93.19 E66.94546
G1 X129.449 Y93.309 E66.97568
G1 X130.023 Y93.505 E67.00594
G1 X130.566 Y93.776 E67.03622
G1 X131.069 Y94.115 E67.06648
G1 X131.522 Y94.517 E67.0967
G1 X131.919 Y94.975 E67.12694
G1 X132.252 Y95.482 E67.1572
G1 X132.516 Y96.028 E67.18746
G1 X132.705 Y96.604 E67.2177
G1 X132.817 Y97.2 E67.24796
G1 X132.85 Y97.75 E67.27545
G1 X132.85 Y122.25 E68.49776
G1 X132.81 Y122.855 E68.528
G1 X132.691 Y123.449 E68.55823
G1 X132.495 Y124.023 E68.58849
G1 X132.224 Y124.566 E68.61877
G1 X131.885 Y125.069 E68.64903
G1 X131.483 Y125.522 E68.67924
G1 X131.025 Y125.919 E68.70948
G1 X130.518 Y126.252 E68.73974
G1 X129.972 Y126.516 E68.77
G1 X129.396 Y126.705 E68.80025
G1 X128.8 Y126.817 E68.8305
G1 X128.25 Y126.85 E68.85799
G1 X91.75 Y126.85 E70.67898
G1 X91.145 Y126.81 E70.70923
G1 X90.551 Y126.691 E70.73946
G1 X89.977 Y126.495 E70.76972
G1 X89.434 Y126.224 E70.79999
G1 X88.931 Y125.885 E70.83026
