;FLAVOR:Marlin
;TIME:9717
;Filament used: 5.86001m
;Layer height: 0.15
;MINX:77.2
;MINY:49.7
;MINZ:0.3
;MAXX:142.8
;MAXY:170.3
;MAXZ:39
;Generated with Cura_SteamEngine main
M140 S60
M105
M190 S60
M104 S200
M105
M109 S200
M82 ;absolute extrusion mode
G28 ;Home
G1 Z15.0 F2000 ;Move the platform
G92 E0
G92 E0
G1 F1500 E-6.5
;LAYER_COUNT:259
;LAYER:0
M107
M204 S1000
G0 F7500 X78.597 Y53.046 Z0.3
G0 X77.2 Y57.5
;TYPE:SKIRT
G1 F1500 E0
G1 X77.24 Y56.711 E0.03941
G1 X77.359 Y55.931 E0.07878
G1 X77.557 Y55.166 E0.1182
G1 X77.831 Y54.426 E0.15757
G1 X78.179 Y53.717 E0.19697
G1 X78.597 Y53.046 E0.23641
G1 X79.08 Y52.422 E0.27578
G1 X79.623 Y51.849 E0.31517
G1 X80.222 Y51.334 E0.35458
G1 X80.87 Y50.883 E0.39397
G1 X81.561 Y50.499 E0.43341
G1 X82.286 Y50.187 E0.47278
G1 X83.039 Y49.95 E0.51217
G1 X83.813 Y49.791 E0.55159
G1 X84.598 Y49.71 E0.59096
G1 X85 Y49.7 E0.61102
G1 X135 Y49.7 E3.10553
G1 X135.789 Y49.74 E3.14495
G1 X136.569 Y49.859 E3.18431
G1 X137.334 Y50.057 E3.22373
G1 X138.074 Y50.331 E3.2631
G1 X138.783 Y50.679 E3.30251
G1 X139.454 Y51.097 E3.34195
G1 X140.078 Y51.58 E3.38131
G1 X140.651 Y52.123 E3.4207
G1 X141.166 Y52.722 E3.46011
G1 X141.617 Y53.37 E3.4995
G1 X142.001 Y54.061 E3.53894
G1 X142.313 Y54.786 E3.57831
G1 X142.55 Y55.539 E3.6177
G1 X142.709 Y56.313 E3.65712
G1 X142.79 Y57.098 E3.69649
G1 X142.8 Y57.5 E3.71655
G1 X142.8 Y162.5 E8.95503
G1 X142.76 Y163.289 E8.99444
G1 X142.641 Y164.069 E9.0338
G1 X142.443 Y164.834 E9.07323
G1 X142.169 Y165.574 E9.1126
G1 X141.821 Y166.283 E9.152
G1 X141.403 Y166.954 E9.19144
G1 X140.92 Y167.578 E9.23081
G1 X140.377 Y168.151 E9.27019
G1 X139.778 Y168.666 E9.3096
G1 X139.13 Y169.117 E9.34899
G1 X138.439 Y169.501 E9.38843
G1 X137.714 Y169.813 E9.42781
G1 X136.961 Y170.05 E9.46719
G1 X136.187 Y170.209 E9.50661
G1 X135.402 Y170.29 E9.54599
G1 X135 Y170.3 E9.56605
G1 X85 Y170.3 E12.06056
G1 X84.211 Y170.26 E12.09997
G1 X83.431 Y170.141 E12.13934
G1 X82.666 Y169.943 E12.17876
G1 X81.926 Y169.669 E12.21813
G1 X81.217 Y169.321 E12.25753
G1 X80.546 Y168.903 E12.29697
G1 X79.922 Y168.42 E12.33634
G1 X79.349 Y167.877 E12.37572
G1 X78.834 Y167.278 E12.41513
G1 X78.383 Y166.63 E12.45452
G1 X77.999 Y165.939 E12.49396
G1 X77.687 Y165.214 E12.53334
G1 X77.45 Y164.461 E12.57272
G1 X77.291 Y163.687 E12.61215
G1 X77.21 Y162.902 E12.65152
G1 X77.2 Y162.5 E12.67158
G1 X77.2 Y57.5 E17.91005
G0 F7500 X77.6 Y57.5
G1 F1500 X77.64 Y56.732 E17.94842
G1 X77.759 Y55.972 E17.9868
G1 X77.957 Y55.229 E18.02516
G1 X78.231 Y54.51 E18.06355
G1 X78.578 Y53.824 E18.1019
G1 X78.994 Y53.177 E18.14028
G1 X79.475 Y52.577 E18.17864
G1 X80.016 Y52.03 E18.21702
G1 X80.611 Y51.542 E18.25542
G1 X81.253 Y51.119 E18.29377
G1 X81.936 Y50.764 E18.33218
G1 X82.651 Y50.483 E18.3705
G1 X83.393 Y50.277 E18.40892
G1 X84.151 Y50.149 E18.44727
G1 X85 Y50.1 E18.4897
G1 X135 Y50.1 E20.98421
G1 X135.768 Y50.14 E21.02258
G1 X136.528 Y50.259 E21.06096
G1 X137.271 Y50.457 E21.09932
G1 X137.99 Y50.731 E21.13771
G1 X138.676 Y51.078 E21.17606
G1 X139.323 Y51.494 E21.21444
G1 X139.923 Y51.975 E21.2528
G1 X140.47 Y52.516 E21.29118
G1 X140.958 Y53.111 E21.32958
G1 X141.381 Y53.753 E21.36793
G1 X141.736 Y54.436 E21.40634
G1 X142.017 Y55.151 E21.44466
G1 X142.223 Y55.893 E21.48308
G1 X142.351 Y56.651 E21.52143
G1 X142.4 Y57.5 E21.56386
G1 X142.4 Y162.5 E26.80233
G1 X142.36 Y163.268 E26.8407
G1 X142.241 Y164.028 E26.87908
G1 X142.043 Y164.771 E26.91744
G1 X141.769 Y165.49 E26.95583
G1 X141.422 Y166.176 E26.99418
G1 X141.006 Y166.823 E27.03256
G1 X140.525 Y167.423 E27.07092
G1 X139.984 Y167.97 E27.10931
G1 X139.389 Y168.458 E27.1477
G1 X138.747 Y168.881 E27.18606
G1 X138.064 Y169.236 E27.22446
G1 X137.349 Y169.517 E27.26279
G1 X136.607 Y169.723 E27.3012
G1 X135.849 Y169.851 E27.33956
G1 X135 Y169.9 E27.38198
G1 X85 Y169.9 E29.87649
G1 X84.232 Y169.86 E29.91486
G1 X83.472 Y169.741 E29.95324
G1 X82.729 Y169.543 E29.9916
G1 X82.01 Y169.269 E30.02999
G1 X81.324 Y168.922 E30.06834
G1 X80.677 Y168.506 E30.10672
G1 X80.077 Y168.025 E30.14508
G1 X79.53 Y167.484 E30.18347
G1 X79.042 Y166.889 E30.22186
G1 X78.619 Y166.247 E30.26022
G1 X78.264 Y165.564 E30.29862
G1 X77.983 Y164.849 E30.33695
G1 X77.777 Y164.107 E30.37537
G1 X77.649 Y163.349 E30.41372
G1 X77.6 Y162.5 E30.45614
G1 X77.6 Y57.5 E35.69462
G0 F7500 X78 Y57.5
G1 F1500 X78.04 Y56.753 E35.73194
G1 X78.159 Y56.015 E35.76923
G1 X78.357 Y55.293 E35.80658
G1 X78.63 Y54.597 E35.84388
G1 X78.977 Y53.934 E35.88122
G1 X79.392 Y53.311 E35.91856
G1 X79.871 Y52.737 E35.95586
G1 X80.408 Y52.216 E35.99319
G1 X80.998 Y51.757 E36.03048
G1 X81.634 Y51.362 E36.06783
G1 X82.308 Y51.038 E36.10514
G1 X83.013 Y50.788 E36.14246
G1 X83.741 Y50.614 E36.1798
G1 X84.483 Y50.519 E36.21713
G1 X85 Y50.5 E36.24294
G1 X135 Y50.5 E38.73745
G1 X135.747 Y50.54 E38.77477
G1 X136.485 Y50.659 E38.81206
G1 X137.207 Y50.857 E38.84941
G1 X137.903 Y51.13 E38.88671
G1 X138.566 Y51.477 E38.92405
G1 X139.189 Y51.892 E38.96139
G1 X139.763 Y52.371 E38.99869
G1 X140.284 Y52.908 E39.03602
G1 X140.743 Y53.498 E39.07331
G1 X141.138 Y54.134 E39.11066
G1 X141.462 Y54.808 E39.14797
G1 X141.712 Y55.513 E39.18529
G1 X141.886 Y56.241 E39.22263
G1 X141.981 Y56.983 E39.25996
G1 X142 Y57.5 E39.28577
G1 X142 Y162.5 E44.52424
G1 X141.96 Y163.247 E44.56156
G1 X141.841 Y163.985 E44.59885
G1 X141.643 Y164.707 E44.6362
G1 X141.37 Y165.403 E44.6735
G1 X141.023 Y166.066 E44.71084
G1 X140.608 Y166.689 E44.74818
G1 X140.129 Y167.263 E44.78548
G1 X139.592 Y167.784 E44.82281
G1 X139.002 Y168.243 E44.8601
G1 X138.366 Y168.638 E44.89746
G1 X137.692 Y168.962 E44.93476
G1 X136.987 Y169.212 E44.97208
G1 X136.259 Y169.386 E45.00943
G1 X135.517 Y169.481 E45.04675
G1 X135 Y169.5 E45.07256
G1 X85 Y169.5 E47.56707
G1 X84.253 Y169.46 E47.60439
G1 X83.515 Y169.341 E47.64168
G1 X82.793 Y169.143 E47.67903
G1 X82.097 Y168.87 E47.71633
G1 X81.434 Y168.523 E47.75367
G1 X80.811 Y168.108 E47.79101
G1 X80.237 Y167.629 E47.82831
G1 X79.716 Y167.092 E47.86564
G1 X79.257 Y166.502 E47.90293
G1 X78.862 Y165.866 E47.94029
G1 X78.538 Y165.192 E47.97759
G1 X78.288 Y164.487 E48.01491
G1 X78.114 Y163.759 E48.05226
G1 X78.019 Y163.017 E48.08958
G1 X78 Y162.5 E48.11539
G1 X78 Y57.5 E53.35386
G0 F7500 X78.4 Y57.5
G1 F1500 X78.44 Y56.775 E53.39008
G1 X78.559 Y56.058 E53.42635
G1 X78.757 Y55.359 E53.46259
G1 X79.03 Y54.686 E53.49882
G1 X79.375 Y54.047 E53.53505
G1 X79.789 Y53.45 E53.5713
G1 X80.265 Y52.902 E53.60751
G1 X80.799 Y52.409 E53.64377
G1 X81.384 Y51.979 E53.67999
G1 X82.013 Y51.615 E53.71625
G1 X82.678 Y51.322 E53.7525
G1 X83.371 Y51.104 E53.78875
G1 X84.083 Y50.964 E53.82495
G1 X85 Y50.9 E53.87081
G1 X135 Y50.9 E56.36532
G1 X135.725 Y50.94 E56.40155
G1 X136.442 Y51.059 E56.43781
G1 X137.141 Y51.257 E56.47405
G1 X137.814 Y51.53 E56.51029
G1 X138.453 Y51.875 E56.54652
G1 X139.05 Y52.289 E56.58276
G1 X139.598 Y52.765 E56.61897
G1 X140.091 Y53.299 E56.65523
G1 X140.521 Y53.884 E56.69146
G1 X140.885 Y54.513 E56.72771
G1 X141.178 Y55.178 E56.76397
G1 X141.396 Y55.871 E56.80021
G1 X141.536 Y56.583 E56.83641
G1 X141.6 Y57.5 E56.88227
G1 X141.6 Y162.5 E62.12075
G1 X141.56 Y163.225 E62.15697
G1 X141.441 Y163.942 E62.19323
G1 X141.243 Y164.641 E62.22948
G1 X140.97 Y165.314 E62.26571
G1 X140.625 Y165.953 E62.30194
G1 X140.211 Y166.55 E62.33818
G1 X139.735 Y167.098 E62.3744
G1 X139.201 Y167.591 E62.41066
G1 X138.616 Y168.021 E62.44688
G1 X137.987 Y168.385 E62.48314
G1 X137.322 Y168.678 E62.51939
G1 X136.629 Y168.896 E62.55563
G1 X135.917 Y169.036 E62.59184
G1 X135 Y169.1 E62.6377
G1 X85 Y169.1 E65.13221
G1 X84.275 Y169.06 E65.16843
G1 X83.558 Y168.941 E65.20469
G1 X82.859 Y168.743 E65.24094
G1 X82.186 Y168.47 E65.27717
G1 X81.547 Y168.125 E65.3134
G1 X80.95 Y167.711 E65.34965
G1 X80.402 Y167.235 E65.38586
G1 X79.909 Y166.701 E65.42212
G1 X79.479 Y166.116 E65.45834
G1 X79.115 Y165.487 E65.4946
G1 X78.822 Y164.822 E65.53085
G1 X78.604 Y164.129 E65.5671
G1 X78.464 Y163.417 E65.6033
G1 X78.4 Y162.5 E65.64916
G1 X78.4 Y57.5 E70.88763
G0 F7500 X78.8 Y57.5
G1 F1500 X78.84 Y56.797 E70.92276
G1 X78.959 Y56.103 E70.95789
G1 X79.157 Y55.428 E70.99298
G1 X79.429 Y54.779 E71.02809
G1 X79.774 Y54.165 E71.06323
G1 X80.185 Y53.594 E71.09833
G1 X80.659 Y53.073 E71.13347
G1 X81.189 Y52.609 E71.16861
G1 X81.768 Y52.209 E71.20372
G1 X82.389 Y51.877 E71.23885
G1 X83.043 Y51.617 E71.27397
G1 X83.723 Y51.433 E71.30911
G1 X84.419 Y51.327 E71.34423
G1 X85 Y51.3 E71.37325
G1 X135 Y51.3 E73.86776
G1 X135.703 Y51.34 E73.90289
G1 X136.397 Y51.459 E73.93802
G1 X137.072 Y51.657 E73.97312
G1 X137.721 Y51.929 E74.00822
G1 X138.335 Y52.274 E74.04336
G1 X138.906 Y52.685 E74.07846
G1 X139.427 Y53.159 E74.1136
G1 X139.891 Y53.689 E74.14874
G1 X140.291 Y54.268 E74.18385
G1 X140.623 Y54.889 E74.21898
G1 X140.883 Y55.543 E74.2541
G1 X141.067 Y56.223 E74.28924
G1 X141.173 Y56.919 E74.32437
G1 X141.2 Y57.5 E74.35338
G1 X141.2 Y162.5 E79.59185
G1 X141.16 Y163.203 E79.62698
G1 X141.041 Y163.897 E79.66211
G1 X140.843 Y164.572 E79.69721
G1 X140.571 Y165.221 E79.73232
G1 X140.226 Y165.835 E79.76745
G1 X139.815 Y166.406 E79.80255
G1 X139.341 Y166.927 E79.83769
G1 X138.811 Y167.391 E79.87284
G1 X138.232 Y167.791 E79.90795
G1 X137.611 Y168.123 E79.94308
G1 X136.957 Y168.383 E79.97819
G1 X136.277 Y168.567 E80.01333
G1 X135.581 Y168.673 E80.04846
G1 X135 Y168.7 E80.07748
G1 X85 Y168.7 E82.57199
G1 X84.297 Y168.66 E82.60712
G1 X83.603 Y168.541 E82.64224
G1 X82.928 Y168.343 E82.67734
G1 X82.279 Y168.071 E82.71245
G1 X81.665 Y167.726 E82.74758
G1 X81.094 Y167.315 E82.78268
G1 X80.573 Y166.841 E82.81782
G1 X80.109 Y166.311 E82.85297
G1 X79.709 Y165.732 E82.88808
G1 X79.377 Y165.111 E82.92321
G1 X79.117 Y164.457 E82.95832
G1 X78.933 Y163.777 E82.99347
G1 X78.827 Y163.081 E83.02859
G1 X78.8 Y162.5 E83.05761
G1 X78.8 Y57.5 E88.29608
G0 F7500 X79.2 Y57.5
G1 F1500 X79.24 Y56.82 E88.33006
G1 X79.359 Y56.15 E88.36401
G1 X79.556 Y55.498 E88.39799
G1 X79.828 Y54.874 E88.43195
G1 X80.172 Y54.286 E88.46594
G1 X80.582 Y53.742 E88.49993
G1 X81.053 Y53.251 E88.53387
G1 X81.578 Y52.817 E88.56785
G1 X82.15 Y52.448 E88.60181
G1 X82.762 Y52.149 E88.63579
G1 X83.404 Y51.924 E88.66973
G1 X84.069 Y51.775 E88.70373
G1 X85 Y51.7 E88.75033
G1 X135 Y51.7 E91.24484
G1 X135.68 Y51.74 E91.27883
G1 X136.35 Y51.859 E91.31278
G1 X137.002 Y52.056 E91.34676
G1 X137.626 Y52.328 E91.38072
G1 X138.214 Y52.672 E91.4147
G1 X138.758 Y53.082 E91.44869
G1 X139.249 Y53.553 E91.48263
G1 X139.683 Y54.078 E91.51662
G1 X140.052 Y54.65 E91.55058
G1 X140.351 Y55.262 E91.58456
G1 X140.576 Y55.904 E91.6185
G1 X140.725 Y56.569 E91.6525
G1 X140.8 Y57.5 E91.6991
G1 X140.8 Y162.5 E96.93757
G1 X140.76 Y163.18 E96.97155
G1 X140.641 Y163.85 E97.0055
G1 X140.444 Y164.502 E97.03948
G1 X140.172 Y165.126 E97.07344
G1 X139.828 Y165.714 E97.10743
G1 X139.418 Y166.258 E97.14142
G1 X138.947 Y166.749 E97.17536
G1 X138.422 Y167.183 E97.20934
G1 X137.85 Y167.552 E97.2433
G1 X137.238 Y167.851 E97.27728
G1 X136.596 Y168.076 E97.31122
G1 X135.931 Y168.225 E97.34522
G1 X135 Y168.3 E97.39182
G1 X85 Y168.3 E99.88633
G1 X84.32 Y168.26 E99.92032
G1 X83.65 Y168.141 E99.95427
G1 X82.998 Y167.944 E99.98825
G1 X82.374 Y167.672 E100.02221
G1 X81.786 Y167.328 E100.05619
G1 X81.242 Y166.918 E100.09018
G1 X80.751 Y166.447 E100.12412
G1 X80.317 Y165.922 E100.15811
G1 X79.948 Y165.35 E100.19207
G1 X79.649 Y164.738 E100.22605
G1 X79.424 Y164.096 E100.25999
G1 X79.275 Y163.431 E100.29399
G1 X79.2 Y162.5 E100.34059
G1 X79.2 Y57.5 E105.57906
G0 F7500 X79.6 Y57.5
G1 F1500 X79.64 Y56.844 E105.61185
G1 X79.759 Y56.198 E105.64462
G1 X79.956 Y55.571 E105.67741
G1 X80.228 Y54.973 E105.71018
G1 X80.57 Y54.412 E105.74296
G1 X80.978 Y53.897 E105.77574
G1 X81.445 Y53.435 E105.80851
G1 X81.965 Y53.034 E105.84128
G1 X82.529 Y52.698 E105.87403
G1 X83.131 Y52.434 E105.90682
G1 X83.76 Y52.244 E105.9396
G1 X84.407 Y52.133 E105.97235
G1 X85 Y52.1 E106.00199
G1 X135 Y52.1 E108.4965
G1 X135.656 Y52.14 E108.52928
G1 X136.302 Y52.259 E108.56206
G1 X136.929 Y52.456 E108.59484
G1 X137.527 Y52.728 E108.62762
G1 X138.088 Y53.07 E108.6604
G1 X138.603 Y53.478 E108.69318
G1 X139.065 Y53.945 E108.72595
G1 X139.466 Y54.465 E108.75871
G1 X139.802 Y55.029 E108.79147
G1 X140.066 Y55.631 E108.82426
G1 X140.256 Y56.26 E108.85704
G1 X140.367 Y56.907 E108.88979
G1 X140.4 Y57.5 E108.91942
G1 X140.4 Y162.5 E114.15789
G1 X140.36 Y163.156 E114.19068
G1 X140.241 Y163.802 E114.22346
G1 X140.044 Y164.429 E114.25624
G1 X139.772 Y165.027 E114.28902
G1 X139.43 Y165.588 E114.3218
G1 X139.022 Y166.103 E114.35458
G1 X138.555 Y166.565 E114.38735
G1 X138.035 Y166.966 E114.42011
G1 X137.471 Y167.302 E114.45287
G1 X136.869 Y167.566 E114.48566
G1 X136.24 Y167.756 E114.51844
G1 X135.593 Y167.867 E114.55119
G1 X135 Y167.9 E114.58082
G1 X85 Y167.9 E117.07533
G1 X84.344 Y167.86 E117.10812
G1 X83.698 Y167.741 E117.14089
G1 X83.071 Y167.544 E117.17368
G1 X82.473 Y167.272 E117.20646
G1 X81.912 Y166.93 E117.23924
G1 X81.397 Y166.522 E117.27202
G1 X80.935 Y166.055 E117.30479
G1 X80.534 Y165.535 E117.33755
G1 X80.198 Y164.971 E117.3703
G1 X79.934 Y164.369 E117.4031
G1 X79.744 Y163.74 E117.43588
G1 X79.633 Y163.093 E117.46863
G1 X79.6 Y162.5 E117.49826
G1 X79.6 Y57.5 E122.73673
G0 F7500 X80 Y57.5
G1 F1500 X80.04 Y56.869 E122.76828
G1 X80.159 Y56.248 E122.79982
G1 X80.356 Y55.648 E122.83133
G1 X80.627 Y55.076 E122.86291
G1 X80.967 Y54.544 E122.8944
G1 X81.373 Y54.059 E122.92596
G1 X81.836 Y53.629 E122.95748
G1 X82.35 Y53.26 E122.98905
G1 X82.906 Y52.96 E123.02057
G1 X83.495 Y52.732 E123.05208
G1 X84.109 Y52.58 E123.08364
G1 X85 Y52.5 E123.12827
G1 X135 Y52.5 E125.62278
G1 X135.631 Y52.54 E125.65432
G1 X136.252 Y52.659 E125.68587
G1 X136.852 Y52.856 E125.71738
G1 X137.424 Y53.127 E125.74895
G1 X137.956 Y53.467 E125.78045
G1 X138.441 Y53.873 E125.81201
G1 X138.871 Y54.336 E125.84353
G1 X139.24 Y54.85 E125.8751
G1 X139.54 Y55.406 E125.90662
G1 X139.768 Y55.995 E125.93813
G1 X139.92 Y56.609 E125.96969
G1 X140 Y57.5 E126.01432
G1 X140 Y162.5 E131.25279
G1 X139.96 Y163.131 E131.28433
G1 X139.841 Y163.752 E131.31588
G1 X139.644 Y164.352 E131.34739
G1 X139.373 Y164.924 E131.37896
G1 X139.033 Y165.456 E131.41046
G1 X138.627 Y165.941 E131.44202
G1 X138.164 Y166.371 E131.47354
G1 X137.65 Y166.74 E131.50511
G1 X137.094 Y167.04 E131.53663
G1 X136.505 Y167.268 E131.56814
G1 X135.891 Y167.42 E131.5997
G1 X135 Y167.5 E131.64433
G1 X85 Y167.5 E134.13884
G1 X84.369 Y167.46 E134.17038
G1 X83.748 Y167.341 E134.20193
G1 X83.148 Y167.144 E134.23343
G1 X82.576 Y166.873 E134.26501
G1 X82.044 Y166.533 E134.29651
G1 X81.559 Y166.127 E134.32807
G1 X81.129 Y165.664 E134.35959
G1 X80.76 Y165.15 E134.39116
G1 X80.46 Y164.594 E134.42268
G1 X80.232 Y164.005 E134.45419
G1 X80.08 Y163.391 E134.48574
G1 X80 Y162.5 E134.53038
G1 X80 Y57.5 E139.76885
G0 F7500 X80.4 Y57.5
G1 F1500 X80.44 Y56.895 E139.7991
G1 X80.559 Y56.301 E139.82932
G1 X80.755 Y55.727 E139.85958
G1 X81.026 Y55.184 E139.88986
G1 X81.365 Y54.681 E139.92012
G1 X81.767 Y54.228 E139.95034
G1 X82.225 Y53.831 E139.98057
G1 X82.732 Y53.498 E140.01084
G1 X83.278 Y53.234 E140.04109
G1 X83.854 Y53.045 E140.07134
G1 X84.45 Y52.933 E140.10159
G1 X85 Y52.9 E140.12908
G1 X135 Y52.9 E142.62359
G1 X135.605 Y52.94 E142.65384
G1 X136.199 Y53.059 E142.68407
G1 X136.773 Y53.255 E142.71433
G1 X137.316 Y53.526 E142.7446
G1 X137.819 Y53.865 E142.77486
G1 X138.272 Y54.267 E142.80508
G1 X138.669 Y54.725 E142.83532
G1 X139.002 Y55.232 E142.86558
G1 X139.266 Y55.778 E142.89584
G1 X139.455 Y56.354 E142.92608
G1 X139.567 Y56.95 E142.95634
G1 X139.6 Y57.5 E142.98383
G1 X139.6 Y162.5 E148.2223
G1 X139.56 Y163.105 E148.25255
G1 X139.441 Y163.699 E148.28277
G1 X139.245 Y164.273 E148.31303
G1 X138.974 Y164.816 E148.34331
G1 X138.635 Y165.319 E148.37357
G1 X138.233 Y165.772 E148.40379
G1 X137.775 Y166.169 E148.43403
G1 X137.268 Y166.502 E148.46429
G1 X136.722 Y166.766 E148.49455
G1 X136.146 Y166.955 E148.52479
G1 X135.55 Y167.067 E148.55504
G1 X135 Y167.1 E148.58253
G1 X85 Y167.1 E151.07704
G1 X84.395 Y167.06 E151.10729
G1 X83.801 Y166.941 E151.13752
G1 X83.227 Y166.745 E151.16778
G1 X82.684 Y166.474 E151.19805
G1 X82.181 Y166.135 E151.22832
G1 X81.728 Y165.733 E151.25853
