;FLAVOR:Marlin
;TIME:4836
;Filament used: 3.38749m
;Layer height: 0.15
;MINX:-45.01
;MINY:-51.098
;MINZ:0.3
;MAXX:18.8
;MAXY:54.776
;MAXZ:28.05
;Generated with Cura_SteamEngine main
M140 S60
M105
M190 S60
M104 S200
M105
M109 S200
M82 ;absolute extrusion mode
G21 ;metric values
G90 ;absolute positioning
M82 ;set extruder to absolute mode
M107 ;start with the fan off
G28 ;Home all axes (max endstops)
G1 Z15.0 F9000 ;move the platform down 15mm
G92 E0 ;zero the extruded length
G1 F200 E3 ;extrude 3mm of feed stock
G92 E0 ;zero the extruded length again
G1 F9000
;Put printing message on LCD screen
M117 Printing...
G92 E0
G92 E0
G1 F1500 E-6.5
;LAYER_COUNT:186
;LAYER:0
M107
G0 F3600 X-10.934 Y14.8 Z0.3
G0 X-20.836 Y20.311
;TYPE:SKIRT
G1 F1500 E0
G1 F1800 X-19.974 Y19.511 E0.05867
G1 X-19.486 Y19.122 E0.08981
G1 X-18.523 Y18.466 E0.14794
G1 X-17.979 Y18.152 E0.17928
G1 X-16.952 Y17.655 E0.2362
G1 X-16.356 Y17.419 E0.26818
G1 X-15.502 Y17.13 E0.31316
G1 X-14.586 Y16.923 E0.36001
G1 X-13.462 Y16.754 E0.41672
G1 X-12.824 Y16.705 E0.44864
G1 X-11.912 Y16.688 E0.49415
G1 X-10.205 Y16.757 E0.57938
G1 X-9.583 Y16.807 E0.61051
G1 X-8.535 Y16.934 E0.66318
G1 X-8.987 Y16.626 E0.69047
G1 X-9.487 Y16.229 E0.72232
G1 X-10.158 Y15.639 E0.7669
G1 X-10.934 Y14.8 E0.82391
G1 X-11.789 Y14.76 E0.86662
G1 X-12.352 Y14.674 E0.89503
G1 X-12.496 Y14.736 E0.90285
G1 X-13.249 Y14.973 E0.94224
G1 X-14.023 Y15.132 E0.98166
G1 X-14.808 Y15.213 E1.02103
G1 X-15.277 Y15.223 E1.04443
G1 X-15.852 Y15.844 E1.08666
G1 X-16.72 Y16.649 E1.14572
G1 X-17.209 Y17.038 E1.17689
G1 X-18.16 Y17.686 E1.23431
G1 X-18.703 Y18 E1.2656
G1 X-19.732 Y18.498 E1.32263
G1 X-20.332 Y18.736 E1.35484
G1 X-21.179 Y19.024 E1.39947
G1 X-22.092 Y19.231 E1.44617
G1 X-23.237 Y19.403 E1.50394
G1 X-23.877 Y19.451 E1.53596
G1 X-24.77 Y19.467 E1.58052
G1 X-26.478 Y19.399 E1.6658
G1 X-27.109 Y19.348 E1.69738
G1 X-28.804 Y19.142 E1.78257
G1 X-29.422 Y19.042 E1.8138
G1 X-31.099 Y18.7 E1.89919
G1 X-31.707 Y18.55 E1.93043
G1 X-33.346 Y18.076 E2.01555
G1 X-33.942 Y17.877 E2.0469
G1 X-35.542 Y17.271 E2.13226
G1 X-36.117 Y17.027 E2.16342
G1 X-37.661 Y16.296 E2.24865
G1 X-38.216 Y16.005 E2.27991
G1 X-39.697 Y15.152 E2.36518
G1 X-40.23 Y14.815 E2.39664
G1 X-41.636 Y13.846 E2.48183
G1 X-42.263 Y13.366 E2.52123
G1 X-42.838 Y12.825 E2.56062
G1 X-43.355 Y12.228 E2.60002
G1 X-43.809 Y11.582 E2.63941
G1 X-44.196 Y10.893 E2.67883
G1 X-44.511 Y10.169 E2.71822
G1 X-44.751 Y9.417 E2.75761
G1 X-44.914 Y8.644 E2.79702
G1 X-45.01 Y7.747 E2.84203
G1 X-45.01 Y-6.578 E3.5567
G1 X-44.97 Y-7.367 E3.59612
G1 X-44.851 Y-8.147 E3.63548
G1 X-44.653 Y-8.912 E3.67491
G1 X-44.379 Y-9.652 E3.71427
G1 X-44.031 Y-10.361 E3.75368
G1 X-43.613 Y-11.032 E3.79312
G1 X-43.13 Y-11.656 E3.83249
G1 X-42.587 Y-12.229 E3.87187
G1 X-41.903 Y-12.817 E3.91687
G1 X-40.227 Y-13.971 E4.01839
G1 X-39.7 Y-14.303 E4.04947
G1 X-38.219 Y-15.157 E4.13476
G1 X-37.657 Y-15.452 E4.16642
G1 X-36.113 Y-16.182 E4.25163
G1 X-35.542 Y-16.424 E4.28257
G1 X-33.942 Y-17.03 E4.36793
G1 X-33.346 Y-17.229 E4.39928
G1 X-31.707 Y-17.703 E4.4844
G1 X-31.099 Y-17.853 E4.51564
G1 X-29.34 Y-18.208 E4.60517
G1 X-30.051 Y-18.651 E4.64696
G1 X-30.675 Y-19.134 E4.68633
G1 X-31.248 Y-19.677 E4.72571
G1 X-31.763 Y-20.276 E4.76512
G1 X-32.214 Y-20.924 E4.80451
G1 X-32.598 Y-21.615 E4.84395
G1 X-32.91 Y-22.34 E4.88333
G1 X-33.147 Y-23.093 E4.92271
G1 X-33.306 Y-23.867 E4.96213
G1 X-33.397 Y-24.749 E5.00637
G1 X-33.397 Y-39.054 E5.72005
G1 X-33.357 Y-39.843 E5.75946
G1 X-33.238 Y-40.623 E5.79883
G1 X-33.04 Y-41.388 E5.83825
G1 X-32.766 Y-42.128 E5.87762
G1 X-32.418 Y-42.837 E5.91702
G1 X-32 Y-43.508 E5.95646
G1 X-31.517 Y-44.132 E5.99583
G1 X-30.974 Y-44.705 E6.03522
G1 X-30.375 Y-45.22 E6.07463
G1 X-29.727 Y-45.671 E6.11402
G1 X-29.036 Y-46.055 E6.15345
G1 X-28.311 Y-46.367 E6.19283
G1 X-27.558 Y-46.604 E6.23222
G1 X-26.784 Y-46.763 E6.27164
G1 X-25.999 Y-46.844 E6.31101
G1 X-25.53 Y-46.854 E6.33441
G1 X-24.95 Y-47.479 E6.37695
G1 X-24.101 Y-48.268 E6.43478
G1 X-23.613 Y-48.658 E6.46594
G1 X-22.889 Y-49.179 E6.51044
G1 X-22.089 Y-49.639 E6.55648
G1 X-21.079 Y-50.127 E6.61245
G1 X-20.48 Y-50.365 E6.6446
G1 X-19.628 Y-50.654 E6.68949
G1 X-18.712 Y-50.862 E6.73635
G1 X-17.582 Y-51.032 E6.79336
G1 X-16.941 Y-51.081 E6.82543
G1 X-16.031 Y-51.098 E6.87084
G1 X-14.325 Y-51.029 E6.95602
G1 X-13.7 Y-50.978 E6.98731
G1 X-12.004 Y-50.772 E7.07254
G1 X-11.384 Y-50.672 E7.10388
G1 X-9.708 Y-50.33 E7.18922
G1 X-9.102 Y-50.18 E7.22036
G1 X-7.462 Y-49.706 E7.30553
G1 X-6.865 Y-49.507 E7.33693
G1 X-5.265 Y-48.901 E7.42228
G1 X-4.692 Y-48.658 E7.45334
G1 X-3.149 Y-47.928 E7.5385
G1 X-2.591 Y-47.635 E7.56994
G1 X-1.109 Y-46.781 E7.65527
G1 X-.58 Y-46.448 E7.68646
G1 X0.826 Y-45.48 E7.77162
G1 X1.453 Y-44.999 E7.81105
G1 X2.028 Y-44.458 E7.85044
G1 X2.546 Y-43.862 E7.88983
G1 X3 Y-43.216 E7.92922
G1 X3.387 Y-42.528 E7.96861
G1 X3.703 Y-41.804 E8.00802
G1 X3.943 Y-41.052 E8.0474
G1 X4.106 Y-40.279 E8.08681
G1 X4.203 Y-39.383 E8.13177
G1 X4.203 Y-25.053 E8.8467
G1 X4.163 Y-24.264 E8.88612
G1 X4.044 Y-23.484 E8.92548
G1 X3.846 Y-22.719 E8.9649
G1 X3.572 Y-21.979 E9.00427
G1 X3.224 Y-21.27 E9.04368
G1 X2.806 Y-20.599 E9.08312
G1 X2.323 Y-19.975 E9.12248
G1 X1.78 Y-19.402 E9.16187
G1 X1.184 Y-18.89 E9.20107
G1 X2.589 Y-18.72 E9.27167
G1 X3.217 Y-18.618 E9.30342
G1 X4.893 Y-18.275 E9.38877
G1 X5.491 Y-18.128 E9.41949
G1 X7.131 Y-17.655 E9.50464
G1 X7.736 Y-17.453 E9.53646
G1 X9.336 Y-16.846 E9.62184
G1 X9.905 Y-16.604 E9.65269
G1 X11.448 Y-15.874 E9.73785
G1 X12.003 Y-15.583 E9.76911
G1 X13.485 Y-14.73 E9.85442
G1 X14.02 Y-14.392 E9.886
G1 X15.426 Y-13.423 E9.97119
G1 X16.053 Y-12.943 E10.01058
G1 X16.628 Y-12.402 E10.04997
G1 X17.145 Y-11.805 E10.08937
G1 X17.599 Y-11.159 E10.12876
G1 X17.986 Y-10.47 E10.16819
G1 X18.301 Y-9.746 E10.20758
G1 X18.541 Y-8.994 E10.24696
G1 X18.704 Y-8.221 E10.28637
G1 X18.8 Y-7.324 E10.33138
G1 X18.8 Y7.001 E11.04606
G1 X18.76 Y7.79 E11.08547
G1 X18.641 Y8.57 E11.12484
G1 X18.443 Y9.335 E11.16426
G1 X18.169 Y10.075 E11.20363
G1 X17.821 Y10.784 E11.24303
G1 X17.403 Y11.455 E11.28247
G1 X16.92 Y12.079 E11.32184
G1 X16.377 Y12.652 E11.36123
G1 X15.699 Y13.235 E11.40584
G1 X14.02 Y14.392 E11.50756
G1 X13.485 Y14.73 E11.53914
G1 X12.003 Y15.583 E11.62445
G1 X11.448 Y15.874 E11.65571
G1 X9.905 Y16.604 E11.74087
G1 X9.336 Y16.846 E11.77172
G1 X7.736 Y17.453 E11.8571
G1 X7.131 Y17.655 E11.88892
G1 X5.491 Y18.128 E11.97407
G1 X4.893 Y18.275 E12.00479
G1 X3.217 Y18.618 E12.09014
G1 X2.589 Y18.72 E12.12189
G1 X0.893 Y18.925 E12.20711
G1 X0.27 Y18.975 E12.2383
G1 X-.805 Y19.018 E12.29197
G1 X0.969 Y19.857 E12.38988
G1 X1.528 Y20.15 E12.42136
G1 X3.009 Y21.003 E12.50663
G1 X3.542 Y21.34 E12.53809
G1 X4.948 Y22.309 E12.62328
G1 X5.575 Y22.789 E12.66268
G1 X6.15 Y23.33 E12.70206
G1 X6.667 Y23.927 E12.74147
G1 X7.121 Y24.573 E12.78086
G1 X7.508 Y25.262 E12.82028
G1 X7.823 Y25.986 E12.85967
G1 X8.063 Y26.738 E12.89906
G1 X8.226 Y27.511 E12.93847
G1 X8.322 Y28.408 E12.98348
G1 X8.322 Y42.733 E13.69815
G1 X8.282 Y43.522 E13.73757
G1 X8.163 Y44.302 E13.77693
G1 X7.965 Y45.067 E13.81636
G1 X7.691 Y45.807 E13.85572
G1 X7.343 Y46.516 E13.89513
G1 X6.925 Y47.187 E13.93457
G1 X6.442 Y47.811 E13.97394
G1 X5.899 Y48.384 E14.01332
G1 X5.221 Y48.967 E14.05793
G1 X3.542 Y50.124 E14.15966
G1 X3.009 Y50.461 E14.19112
G1 X1.528 Y51.314 E14.27639
G1 X0.969 Y51.607 E14.30787
G1 X-.575 Y52.337 E14.39308
G1 X-1.142 Y52.578 E14.42382
G1 X-2.742 Y53.185 E14.50919
G1 X-3.346 Y53.386 E14.54095
G1 X-4.985 Y53.859 E14.62606
G1 X-5.585 Y54.007 E14.65689
G1 X-7.262 Y54.35 E14.74229
G1 X-7.888 Y54.452 E14.77393
G1 X-9.583 Y54.657 E14.85911
G1 X-10.207 Y54.707 E14.89034
G1 X-11.926 Y54.776 E14.97617
G1 X-12.837 Y54.759 E15.02163
G1 X-13.474 Y54.71 E15.0535
G1 X-14.642 Y54.531 E15.11246
G1 X-15.253 Y54.389 E15.14375
G1 X-16.344 Y54.049 E15.20076
G1 X-16.936 Y53.816 E15.2325
G1 X-17.975 Y53.316 E15.29003
G1 X-18.511 Y53.007 E15.3209
G1 X-19.465 Y52.358 E15.37846
G1 X-19.965 Y51.961 E15.41031
G1 X-20.632 Y51.374 E15.45464
G1 X-21.411 Y50.532 E15.51187
G1 X-22.267 Y50.492 E15.55462
G1 X-23.047 Y50.373 E15.59399
G1 X-23.812 Y50.175 E15.63341
G1 X-24.552 Y49.901 E15.67278
G1 X-25.261 Y49.553 E15.71218
G1 X-25.932 Y49.135 E15.75162
G1 X-26.556 Y48.652 E15.79099
G1 X-27.129 Y48.109 E15.83038
G1 X-27.644 Y47.51 E15.86979
G1 X-28.095 Y46.862 E15.90917
G1 X-28.479 Y46.171 E15.94861
G1 X-28.791 Y45.446 E15.98799
G1 X-29.028 Y44.693 E16.02738
G1 X-29.187 Y43.919 E16.0668
G1 X-29.278 Y43.037 E16.11103
G1 X-29.278 Y28.732 E16.82471
G1 X-29.238 Y27.943 E16.86413
G1 X-29.119 Y27.163 E16.90349
G1 X-28.921 Y26.398 E16.94292
G1 X-28.647 Y25.658 E16.98228
G1 X-28.299 Y24.949 E17.02169
G1 X-27.881 Y24.278 E17.06113
G1 X-27.398 Y23.654 E17.1005
G1 X-26.855 Y23.081 E17.13988
G1 X-26.256 Y22.566 E17.17929
G1 X-25.608 Y22.115 E17.21868
G1 X-24.917 Y21.731 E17.25812
G1 X-24.192 Y21.419 E17.2975
G1 X-23.439 Y21.182 E17.33688
G1 X-22.665 Y21.023 E17.3763
G1 X-21.88 Y20.942 E17.41567
G1 X-21.411 Y20.932 E17.43908
G1 X-20.836 Y20.311 E17.4813
G1 F1500 E10.9813
G0 F3600 X-24.738 Y18.667
G1 F1500 E17.4813
G1 F1800 X-26.446 Y18.599 E17.56658
G1 X-27.013 Y18.554 E17.59496
G1 X-28.708 Y18.348 E17.68014
G1 X-29.262 Y18.258 E17.70814
G1 X-30.939 Y17.916 E17.79353
G1 X-31.485 Y17.781 E17.82159
G1 X-33.124 Y17.307 E17.90671
G1 X-33.658 Y17.129 E17.9348
G1 X-35.258 Y16.523 E18.02015
G1 X-35.774 Y16.304 E18.04812
G1 X-37.318 Y15.573 E18.13335
G1 X-37.817 Y15.312 E18.16144
G1 X-39.298 Y14.459 E18.24671
G1 X-39.776 Y14.157 E18.27492
G1 X-41.182 Y13.188 E18.36011
G1 X-41.775 Y12.731 E18.39746
G1 X-42.315 Y12.214 E18.43476
G1 X-42.797 Y11.641 E18.47211
G1 X-43.215 Y11.021 E18.50942
G1 X-43.565 Y10.36 E18.54673
G1 X-43.842 Y9.665 E18.58406
G1 X-44.043 Y8.944 E18.6214
G1 X-44.166 Y8.207 E18.65868
G1 X-44.21 Y7.424 E18.69781
G1 X-44.21 Y-6.578 E19.39637
G1 X-44.17 Y-7.325 E19.43369
G1 X-44.051 Y-8.063 E19.47098
G1 X-43.853 Y-8.785 E19.50833
G1 X-43.58 Y-9.481 E19.54563
G1 X-43.233 Y-10.144 E19.58297
G1 X-42.818 Y-10.767 E19.62031
G1 X-42.339 Y-11.341 E19.65761
G1 X-41.802 Y-11.862 E19.69494
G1 X-41.18 Y-12.344 E19.7342
G1 X-39.774 Y-13.312 E19.81936
G1 X-39.301 Y-13.61 E19.84725
G1 X-37.82 Y-14.464 E19.93254
G1 X-37.315 Y-14.728 E19.96097
G1 X-35.771 Y-15.458 E20.04618
G1 X-35.258 Y-15.676 E20.07399
G1 X-33.658 Y-16.282 E20.15935
G1 X-33.124 Y-16.46 E20.18743
G1 X-31.485 Y-16.934 E20.27255
G1 X-30.939 Y-17.069 E20.30061
G1 X-29.262 Y-17.411 E20.386
G1 X-28.708 Y-17.501 E20.414
G1 X-27.013 Y-17.707 E20.49919
G1 X-26.449 Y-17.752 E20.52741
G1 X-24.957 Y-17.812 E20.60191
G1 X-25.163 Y-18.035 E20.61706
G1 X-25.597 Y-18.054 E20.63873
G1 X-26.344 Y-18.094 E20.67605
G1 X-27.082 Y-18.213 E20.71334
G1 X-27.804 Y-18.411 E20.75069
G1 X-28.5 Y-18.684 E20.78799
G1 X-29.163 Y-19.031 E20.82533
G1 X-29.786 Y-19.446 E20.86267
G1 X-30.36 Y-19.925 E20.89997
G1 X-30.881 Y-20.462 E20.9373
G1 X-31.34 Y-21.052 E20.97459
G1 X-31.735 Y-21.688 E21.01195
G1 X-32.059 Y-22.362 E21.04926
G1 X-32.309 Y-23.067 E21.08657
G1 X-32.483 Y-23.795 E21.12392
G1 X-32.578 Y-24.537 E21.16124
G1 X-32.597 Y-25.054 E21.18705
G1 X-32.597 Y-39.054 E21.88551
G1 X-32.557 Y-39.801 E21.92283
G1 X-32.438 Y-40.539 E21.96013
G1 X-32.24 Y-41.261 E21.99748
G1 X-31.967 Y-41.957 E22.03478
G1 X-31.62 Y-42.62 E22.07211
G1 X-31.205 Y-43.243 E22.10946
G1 X-30.726 Y-43.817 E22.14676
G1 X-30.189 Y-44.338 E22.18408
G1 X-29.599 Y-44.797 E22.22138
G1 X-28.963 Y-45.192 E22.25873
G1 X-28.289 Y-45.516 E22.29604
G1 X-27.584 Y-45.766 E22.33336
G1 X-26.856 Y-45.94 E22.3707
G1 X-26.114 Y-46.035 E22.40802
G1 X-25.174 Y-46.061 E22.45494
G1 X-24.364 Y-46.935 E22.51439
G1 X-23.601 Y-47.643 E22.56632
G1 X-23.113 Y-48.033 E22.59748
G1 X-22.234 Y-48.632 E22.65055
G1 X-21.69 Y-48.945 E22.68186
G1 X-20.784 Y-49.383 E22.73207
G1 X-20.185 Y-49.621 E22.76422
G1 X-19.148 Y-49.943 E22.8184
G1 X-18.535 Y-50.082 E22.84976
G1 X-17.521 Y-50.235 E22.90092
G1 X-16.88 Y-50.284 E22.93299
G1 X-16.063 Y-50.298 E22.97376
G1 X-14.357 Y-50.229 E23.05894
G1 X-13.796 Y-50.184 E23.08702
G1 X-12.1 Y-49.978 E23.17225
G1 X-11.544 Y-49.888 E23.20035
G1 X-9.868 Y-49.546 E23.28569
G1 X-9.324 Y-49.412 E23.31364
G1 X-7.684 Y-48.938 E23.39881
G1 X-7.149 Y-48.759 E23.42696
G1 X-5.549 Y-48.153 E23.51232
G1 X-5.034 Y-47.935 E23.54022
G1 X-3.491 Y-47.205 E23.62538
G1 X-2.99 Y-46.942 E23.65361
G1 X-1.508 Y-46.088 E23.73894
G1 X-1.033 Y-45.789 E23.76694
G1 X0.373 Y-44.821 E23.85211
G1 X0.965 Y-44.364 E23.88942
G1 X1.506 Y-43.847 E23.92675
G1 X1.988 Y-43.275 E23.96407
G1 X2.406 Y-42.655 E24.00137
G1 X2.756 Y-41.994 E24.03869
G1 X3.034 Y-41.299 E24.07603
G1 X3.235 Y-40.579 E24.11333
G1 X3.359 Y-39.841 E24.15066
G1 X3.403 Y-39.055 E24.18994
G1 X3.403 Y-25.053 E24.8885
G1 X3.363 Y-24.306 E24.92582
G1 X3.244 Y-23.568 E24.96312
G1 X3.046 Y-22.846 E25.00047
G1 X2.773 Y-22.15 E25.03777
G1 X2.426 Y-21.487 E25.0751
G1 X2.011 Y-20.864 E25.11245
G1 X1.532 Y-20.29 E25.14975
G1 X0.995 Y-19.769 E25.18707
G1 X0.375 Y-19.289 E25.22619
G1 X-1.159 Y-18.232 E25.31913
G1 X0.24 Y-18.175 E25.38899
G1 X0.797 Y-18.13 E25.41687
G1 X2.493 Y-17.925 E25.5021
G1 X3.056 Y-17.834 E25.53055
G1 X4.732 Y-17.491 E25.6159
G1 X5.269 Y-17.359 E25.64349
G1 X6.909 Y-16.886 E25.72864
G1 X7.452 Y-16.705 E25.7572
G1 X9.052 Y-16.098 E25.84257
G1 X9.563 Y-15.881 E25.87027
G1 X11.106 Y-15.151 E25.95543
G1 X11.604 Y-14.89 E25.98348
G1 X13.086 Y-14.037 E26.06879
G1 X13.566 Y-13.734 E26.09711
G1 X14.972 Y-12.765 E26.1823
G1 X15.565 Y-12.308 E26.21965
G1 X16.105 Y-11.791 E26.25695
G1 X16.587 Y-11.218 E26.29431
G1 X17.005 Y-10.598 E26.33161
G1 X17.355 Y-9.937 E26.36893
G1 X17.632 Y-9.242 E26.40625
G1 X17.833 Y-8.521 E26.4436
G1 X17.956 Y-7.784 E26.48087
G1 X18 Y-7.001 E26.52
G1 X18 Y7.001 E27.21856
G1 X17.96 Y7.748 E27.25588
G1 X17.841 Y8.486 E27.29318
G1 X17.643 Y9.208 E27.33053
G1 X17.37 Y9.904 E27.36783
G1 X17.023 Y10.567 E27.40516
G1 X16.608 Y11.19 E27.44251
G1 X16.129 Y11.764 E27.47981
G1 X15.592 Y12.285 E27.51713
G1 X14.972 Y12.765 E27.55625
G1 X13.566 Y13.734 E27.64144
G1 X13.086 Y14.037 E27.66976
G1 X11.604 Y14.89 E27.75507
G1 X11.106 Y15.151 E27.78312
G1 X9.563 Y15.881 E27.86828
G1 X9.052 Y16.098 E27.89598
G1 X7.452 Y16.705 E27.98136
G1 X6.909 Y16.886 E28.00991
G1 X5.269 Y17.359 E28.09507
G1 X4.732 Y17.491 E28.12266
G1 X3.056 Y17.834 E28.20801
G1 X2.493 Y17.925 E28.23646
G1 X0.797 Y18.13 E28.32169
G1 X0.238 Y18.175 E28.34967
G1 X-1.48 Y18.244 E28.43545
G1 X-2.297 Y18.229 E28.47621
G1 X-2.935 Y18.18 E28.50814
G1 X-3.986 Y18.019 E28.56118
G1 X-4.596 Y17.877 E28.59243
G1 X-5.573 Y17.573 E28.64348
G1 X-6.165 Y17.34 E28.67522
G1 X-7.097 Y16.89 E28.72685
G1 X-7.633 Y16.581 E28.75772
G1 X-8.49 Y15.999 E28.8094
G1 X-8.99 Y15.602 E28.84126
G1 X-9.774 Y14.875 E28.8946
G1 X-10.566 Y14.019 E28.95278
G1 X-11 Y14 E28.97445
G1 X-11.747 Y13.96 E29.01177
G1 X-12.422 Y13.851 E29.04589
G1 X-13.223 Y14.135 E29.08829
G1 X-13.951 Y14.309 E29.12563
G1 X-14.693 Y14.404 E29.16295
G1 X-15.21 Y14.423 E29.18876
G1 X-15.642 Y14.44 E29.21033
G1 X-16.439 Y15.301 E29.26886
G1 X-17.218 Y16.023 E29.32185
G1 X-17.707 Y16.412 E29.35303
G1 X-18.561 Y16.994 E29.40459
G1 X-19.104 Y17.308 E29.43588
G1 X-20.027 Y17.755 E29.48704
G1 X-20.627 Y17.993 E29.51925
G1 X-21.658 Y18.312 E29.57309
G1 X-22.27 Y18.451 E29.6044
G1 X-23.296 Y18.605 E29.65616
G1 X-23.936 Y18.653 E29.68818
G1 X-24.738 Y18.667 E29.7282
G1 F1500 E23.2282
G0 F3600 X-28.855 Y17.524
G1 F1500 E29.7282
G1 F1800 X-31.021 Y17.083 E29.83848
G1 X-33.141 Y16.469 E29.94859
G1 X-35.211 Y15.686 E30.05901
G1 X-37.201 Y14.744 E30.16885
G1 X-38.898 Y13.766 E30.26657
G1 X-39.322 Y13.498 E30.29159
G1 X-40.728 Y12.529 E30.37678
G1 X-41.284 Y12.097 E30.41191
G1 X-41.788 Y11.605 E30.44705
G1 X-42.232 Y11.059 E30.48216
G1 X-42.612 Y10.467 E30.51726
G1 X-42.922 Y9.835 E30.55237
G1 X-43.159 Y9.171 E30.58755
G1 X-43.318 Y8.486 E30.62263
G1 X-43.41 Y7.692 E30.66251
G1 X-43.41 Y-6.578 E31.37444
G1 X-43.37 Y-7.281 E31.40957
G1 X-43.251 Y-7.975 E31.4447
G1 X-43.053 Y-8.65 E31.4798
G1 X-42.781 Y-9.299 E31.5149
G1 X-42.436 Y-9.913 E31.55004
G1 X-42.025 Y-10.484 E31.58514
G1 X-41.551 Y-11.005 E31.62028
