;FLAVOR:Marlin
;TIME:3812
;Filament used: 3.09108m
;Layer height: 0.15
;MINX:-54.781
;MINY:-28.05
;MINZ:0.3
;MAXX:55.454
;MAXY:28.05
;MAXZ:9.3
;Generated with Cura_SteamEngine main
M140 S60
M105
M190 S60
M104 S200
M105
M109 S200
M82 ;absolute extrusion mode
G21 ;metric values
G90 ;absolute positioning
M82 ;set extruder to absolute mode
M107 ;start with the fan off
G28 ;Home all axes (max endstops)
G1 Z15.0 F9000 ;move the platform down 15mm
G92 E0 ;zero the extruded length
G1 F200 E3 ;extrude 3mm of feed stock
G92 E0 ;zero the extruded length again
G1 F9000
;Put printing message on LCD screen
M117 Printing...
G92 E0
G92 E0
G1 F1500 E-6.5
;LAYER_COUNT:61
;LAYER:0
M107
G0 F3600 X-3.193 Y3.015 Z0.3
G0 X-4.589 Y7.468
;TYPE:SKIRT
G1 F1500 E0
G1 F1800 X-5.152 Y8.197 E0.04595
G1 X-5.296 Y9.232 E0.09809
G1 X-5.471 Y10.115 E0.143
G1 X-5.901 Y11.777 E0.22864
G1 X-6.171 Y12.619 E0.27276
G1 X-6.787 Y14.223 E0.35848
G1 X-7.157 Y15.044 E0.40341
G1 X-7.954 Y16.567 E0.48917
G1 X-8.41 Y17.329 E0.53347
G1 X-9.376 Y18.753 E0.61932
G1 X-9.924 Y19.468 E0.66426
G1 X-11.045 Y20.768 E0.7499
G1 X-11.663 Y21.407 E0.79425
G1 X-12.927 Y22.573 E0.88005
G1 X-13.615 Y23.138 E0.92446
G1 X-15.003 Y24.152 E1.01022
G1 X-15.755 Y24.638 E1.05489
G1 X-17.248 Y25.485 E1.14053
G1 X-18.051 Y25.882 E1.18522
G1 X-19.633 Y26.553 E1.27095
G1 X-20.471 Y26.853 E1.31536
G1 X-22.118 Y27.339 E1.40103
G1 X-22.994 Y27.543 E1.4459
G1 X-24.69 Y27.837 E1.53178
G1 X-25.577 Y27.939 E1.57632
G1 X-27.52 Y28.05 E1.67342
G1 X-30.455 Y28.05 E1.81985
G1 X-32.397 Y27.939 E1.91689
G1 X-33.284 Y27.837 E1.96143
G1 X-34.98 Y27.543 E2.04731
G1 X-35.856 Y27.339 E2.09218
G1 X-37.503 Y26.853 E2.17786
G1 X-38.339 Y26.553 E2.22217
G1 X-39.922 Y25.882 E2.30795
G1 X-40.729 Y25.484 E2.35284
G1 X-42.221 Y24.637 E2.43843
G1 X-42.969 Y24.154 E2.48285
G1 X-44.358 Y23.14 E2.56865
G1 X-45.048 Y22.573 E2.61321
G1 X-46.312 Y21.407 E2.699
G1 X-46.932 Y20.765 E2.74353
G1 X-48.052 Y19.465 E2.82914
G1 X-48.596 Y18.756 E2.87372
G1 X-49.563 Y17.332 E2.9596
G1 X-50.023 Y16.563 E3.0043
G1 X-50.819 Y15.04 E3.09004
G1 X-51.186 Y14.227 E3.13454
G1 X-51.803 Y12.623 E3.22028
G1 X-52.075 Y11.772 E3.26485
G1 X-52.504 Y10.11 E3.35049
G1 X-52.679 Y9.227 E3.3954
G1 X-52.823 Y8.18 E3.44812
G1 X-53.331 Y7.544 E3.48873
G1 X-53.756 Y6.879 E3.52811
G1 X-54.112 Y6.174 E3.56751
G1 X-54.395 Y5.437 E3.6069
G1 X-54.602 Y4.675 E3.64629
G1 X-54.73 Y3.895 E3.68573
G1 X-54.78 Y3.016 E3.72965
G1 X-54.781 Y-20.25 E4.8904
G1 X-54.741 Y-21.038 E4.92976
G1 X-54.622 Y-21.819 E4.96917
G1 X-54.424 Y-22.583 E5.00855
G1 X-54.15 Y-23.324 E5.04796
G1 X-53.802 Y-24.033 E5.08737
G1 X-53.385 Y-24.703 E5.12674
G1 X-52.902 Y-25.328 E5.16615
G1 X-52.358 Y-25.901 E5.20557
G1 X-51.759 Y-26.415 E5.24494
G1 X-51.111 Y-26.867 E5.28436
G1 X-50.421 Y-27.251 E5.32376
G1 X-49.695 Y-27.562 E5.36316
G1 X-48.942 Y-27.799 E5.40254
G1 X-48.169 Y-27.959 E5.44193
G1 X-47.286 Y-28.05 E5.48621
G1 X-10.994 Y-28.05 E7.29683
G1 X-10.205 Y-28.01 E7.33624
G1 X-9.425 Y-27.891 E7.37561
G1 X-8.66 Y-27.693 E7.41503
G1 X-7.92 Y-27.419 E7.4544
G1 X-7.211 Y-27.071 E7.4938
G1 X-6.54 Y-26.653 E7.53324
G1 X-5.916 Y-26.17 E7.57261
G1 X-5.343 Y-25.627 E7.612
G1 X-4.828 Y-25.028 E7.65141
G1 X-4.377 Y-24.38 E7.69079
G1 X-3.993 Y-23.689 E7.73023
G1 X-3.681 Y-22.964 E7.76961
G1 X-3.444 Y-22.211 E7.809
G1 X-3.285 Y-21.437 E7.84842
G1 X-3.194 Y-20.555 E7.89265
G1 X-3.193 Y3.015 E9.06857
G1 X-3.233 Y3.803 E9.10793
G1 X-3.352 Y4.584 E9.14734
G1 X-3.55 Y5.348 E9.18672
G1 X-3.824 Y6.089 E9.22613
G1 X-4.172 Y6.798 E9.26554
G1 X-4.589 Y7.468 E9.30491
G1 F1500 E2.80491
G0 F3600 X-6.288 Y11.677
G1 F1500 E9.30491
G1 F1800 X-6.544 Y12.476 E9.34677
G1 X-7.16 Y14.08 E9.43249
G1 X-7.511 Y14.858 E9.47507
G1 X-8.308 Y16.381 E9.56083
G1 X-8.741 Y17.104 E9.60287
G1 X-9.707 Y18.528 E9.68872
G1 X-10.227 Y19.207 E9.73139
G1 X-11.348 Y20.507 E9.81703
G1 X-11.935 Y21.113 E9.85912
G1 X-13.199 Y22.279 E9.94492
G1 X-13.851 Y22.815 E9.98703
G1 X-15.239 Y23.829 E10.07278
G1 X-15.953 Y24.29 E10.11519
G1 X-17.446 Y25.137 E10.20082
G1 X-18.207 Y25.514 E10.24319
G1 X-19.789 Y26.185 E10.32893
G1 X-20.585 Y26.469 E10.37109
G1 X-22.232 Y26.955 E10.45676
G1 X-23.062 Y27.149 E10.49929
G1 X-24.758 Y27.443 E10.58516
G1 X-25.6 Y27.54 E10.62745
G1 X-27.525 Y27.65 E10.72364
G1 X-30.449 Y27.65 E10.86952
G1 X-32.374 Y27.54 E10.96572
G1 X-33.216 Y27.443 E11.008
G1 X-34.912 Y27.149 E11.09388
G1 X-35.742 Y26.955 E11.1364
G1 X-37.389 Y26.469 E11.22208
G1 X-38.183 Y26.185 E11.26415
G1 X-39.766 Y25.514 E11.34992
G1 X-40.531 Y25.136 E11.3925
G1 X-42.023 Y24.289 E11.47809
G1 X-42.733 Y23.831 E11.52024
G1 X-44.122 Y22.817 E11.60604
G1 X-44.776 Y22.279 E11.64829
G1 X-46.04 Y21.113 E11.73408
G1 X-46.629 Y20.504 E11.77635
G1 X-47.749 Y19.204 E11.86196
G1 X-48.265 Y18.531 E11.90427
G1 X-49.232 Y17.107 E11.99015
G1 X-49.668 Y16.378 E12.03252
G1 X-50.464 Y14.855 E12.11826
G1 X-50.813 Y14.084 E12.16048
G1 X-51.43 Y12.48 E12.24622
G1 X-51.688 Y11.672 E12.28854
G1 X-52.117 Y10.01 E12.37417
G1 X-52.283 Y9.172 E12.41679
G1 X-52.445 Y7.995 E12.47607
G1 X-52.553 Y7.884 E12.4838
G1 X-53.028 Y7.279 E12.52217
G1 X-53.438 Y6.629 E12.56051
G1 X-53.778 Y5.939 E12.59889
G1 X-54.045 Y5.217 E12.63729
G1 X-54.235 Y4.472 E12.67565
G1 X-54.347 Y3.711 E12.71403
G1 X-54.38 Y3.016 E12.74874
G1 X-54.381 Y-20.25 E13.90948
G1 X-54.341 Y-21.018 E13.94785
G1 X-54.222 Y-21.778 E13.98623
G1 X-54.024 Y-22.521 E14.02459
G1 X-53.75 Y-23.24 E14.06298
G1 X-53.403 Y-23.926 E14.10133
G1 X-52.987 Y-24.573 E14.13971
G1 X-52.506 Y-25.173 E14.17807
G1 X-51.965 Y-25.72 E14.21646
G1 X-51.37 Y-26.208 E14.25485
G1 X-50.728 Y-26.631 E14.29321
G1 X-50.046 Y-26.986 E14.33157
G1 X-49.33 Y-27.267 E14.36994
G1 X-48.589 Y-27.473 E14.40831
G1 X-47.83 Y-27.601 E14.44671
G1 X-46.981 Y-27.65 E14.48914
G1 X-10.994 Y-27.65 E16.28454
G1 X-10.226 Y-27.61 E16.3229
G1 X-9.466 Y-27.491 E16.36128
G1 X-8.723 Y-27.293 E16.39965
G1 X-8.004 Y-27.019 E16.43803
G1 X-7.318 Y-26.672 E16.47639
G1 X-6.671 Y-26.256 E16.51476
G1 X-6.071 Y-25.775 E16.55313
G1 X-5.524 Y-25.234 E16.59151
G1 X-5.036 Y-24.639 E16.6299
G1 X-4.613 Y-23.997 E16.66826
G1 X-4.258 Y-23.314 E16.70666
G1 X-3.977 Y-22.599 E16.74499
G1 X-3.771 Y-21.857 E16.78341
G1 X-3.643 Y-21.099 E16.82176
G1 X-3.594 Y-20.25 E16.86419
G1 X-3.593 Y3.015 E18.02488
G1 X-3.633 Y3.783 E18.06325
G1 X-3.752 Y4.543 E18.10163
G1 X-3.95 Y5.286 E18.13999
G1 X-4.224 Y6.005 E18.17838
G1 X-4.571 Y6.691 E18.21673
G1 X-4.987 Y7.338 E18.25511
G1 X-5.531 Y8.017 E18.29851
G1 X-5.692 Y9.177 E18.35694
G1 X-5.858 Y10.015 E18.39956
G1 X-6.288 Y11.677 E18.48521
G1 F1500 E11.98521
G0 F3600 X-7.866 Y14.673
G1 F1500 E18.48521
G1 F1800 X-8.663 Y16.196 E18.57097
G1 X-9.072 Y16.88 E18.61073
G1 X-10.038 Y18.304 E18.69658
G1 X-10.53 Y18.945 E18.73689
G1 X-11.651 Y20.245 E18.82253
G1 X-12.206 Y20.819 E18.86236
G1 X-13.47 Y21.985 E18.94816
G1 X-14.087 Y22.492 E18.988
G1 X-15.475 Y23.506 E19.07376
G1 X-16.15 Y23.942 E19.11385
G1 X-17.643 Y24.789 E19.19949
G1 X-18.364 Y25.145 E19.2396
G1 X-19.946 Y25.816 E19.32534
G1 X-20.698 Y26.086 E19.3652
G1 X-22.345 Y26.572 E19.45087
G1 X-23.13 Y26.755 E19.49108
G1 X-24.826 Y27.049 E19.57696
G1 X-25.623 Y27.141 E19.61699
G1 X-27.531 Y27.25 E19.71233
G1 X-30.444 Y27.25 E19.85766
G1 X-32.351 Y27.141 E19.95296
G1 X-33.148 Y27.049 E19.99298
G1 X-34.844 Y26.755 E20.07886
G1 X-35.629 Y26.572 E20.11907
G1 X-37.276 Y26.086 E20.20475
G1 X-38.027 Y25.817 E20.24454
G1 X-39.61 Y25.146 E20.33032
G1 X-40.334 Y24.788 E20.37062
G1 X-41.826 Y23.941 E20.45621
G1 X-42.497 Y23.508 E20.49605
G1 X-43.886 Y22.494 E20.58185
G1 X-44.505 Y21.985 E20.62183
G1 X-45.769 Y20.819 E20.70763
G1 X-46.326 Y20.243 E20.7476
G1 X-47.446 Y18.943 E20.83321
G1 X-47.934 Y18.306 E20.87325
G1 X-48.901 Y16.882 E20.95912
G1 X-49.314 Y16.192 E20.99924
G1 X-50.11 Y14.669 E21.08498
G1 X-50.439 Y13.94 E21.12488
G1 X-51.056 Y12.336 E21.21062
G1 X-51.301 Y11.573 E21.2506
G1 X-51.73 Y9.911 E21.33623
G1 X-51.886 Y9.117 E21.3766
G1 X-52.066 Y7.811 E21.44238
G1 X-52.265 Y7.606 E21.45663
G1 X-52.725 Y7.015 E21.49399
G1 X-53.119 Y6.38 E21.53128
G1 X-53.443 Y5.705 E21.56863
G1 X-53.693 Y5 E21.60595
G1 X-53.866 Y4.273 E21.64323
G1 X-53.961 Y3.53 E21.6806
G1 X-53.98 Y3.016 E21.70626
G1 X-53.981 Y-20.25 E22.86701
G1 X-53.941 Y-20.997 E22.90433
G1 X-53.822 Y-21.735 E22.94163
G1 X-53.624 Y-22.457 E22.97898
G1 X-53.351 Y-23.153 E23.01628
G1 X-53.005 Y-23.816 E23.05359
G1 X-52.59 Y-24.439 E23.09093
G1 X-52.111 Y-25.013 E23.12823
G1 X-51.573 Y-25.533 E23.16556
G1 X-50.983 Y-25.993 E23.20288
G1 X-50.347 Y-26.387 E23.24021
G1 X-49.673 Y-26.712 E23.27754
G1 X-48.968 Y-26.962 E23.31486
G1 X-48.241 Y-27.136 E23.35215
G1 X-47.499 Y-27.231 E23.38948
G1 X-46.981 Y-27.25 E23.41534
G1 X-10.994 Y-27.25 E25.21073
G1 X-10.247 Y-27.21 E25.24806
G1 X-9.509 Y-27.091 E25.28535
G1 X-8.787 Y-26.893 E25.3227
G1 X-8.091 Y-26.62 E25.36
G1 X-7.428 Y-26.273 E25.39733
G1 X-6.805 Y-25.858 E25.43468
G1 X-6.231 Y-25.379 E25.47198
G1 X-5.71 Y-24.842 E25.50931
G1 X-5.251 Y-24.252 E25.5466
G1 X-4.856 Y-23.616 E25.58395
G1 X-4.532 Y-22.942 E25.62126
G1 X-4.282 Y-22.237 E25.65858
G1 X-4.108 Y-21.509 E25.69592
G1 X-4.013 Y-20.767 E25.73324
G1 X-3.994 Y-20.25 E25.75905
G1 X-3.993 Y3.015 E26.91975
G1 X-4.033 Y3.762 E26.95707
G1 X-4.152 Y4.5 E26.99437
G1 X-4.35 Y5.222 E27.03172
G1 X-4.623 Y5.918 E27.06902
G1 X-4.969 Y6.581 E27.10633
G1 X-5.384 Y7.204 E27.14367
G1 X-5.909 Y7.834 E27.18459
G1 X-6.088 Y9.122 E27.24946
G1 X-6.245 Y9.914 E27.28974
G1 X-6.675 Y11.576 E27.37539
G1 X-6.917 Y12.333 E27.41504
G1 X-7.533 Y13.937 E27.50076
G1 X-7.866 Y14.673 E27.54107
G1 F1500 E21.04107
G0 F3600 X-11.136 Y18.423
G1 F1500 E27.54107
G1 F1800 X-12.257 Y19.723 E27.62671
G1 X-12.748 Y20.231 E27.66195
G1 X-14.012 Y21.397 E27.74775
G1 X-14.559 Y21.846 E27.78306
G1 X-15.947 Y22.86 E27.86881
G1 X-16.545 Y23.247 E27.90435
G1 X-18.038 Y24.094 E27.98999
G1 X-18.676 Y24.409 E28.02549
G1 X-20.258 Y25.08 E28.11122
G1 X-20.924 Y25.319 E28.14652
G1 X-22.571 Y25.805 E28.23219
G1 X-23.267 Y25.967 E28.26784
G1 X-24.963 Y26.261 E28.35372
G1 X-25.668 Y26.342 E28.38912
G1 X-27.558 Y26.45 E28.48357
G1 X-30.416 Y26.45 E28.62616
G1 X-32.306 Y26.342 E28.7206
G1 X-33.011 Y26.261 E28.75601
G1 X-34.707 Y25.967 E28.84188
G1 X-35.403 Y25.805 E28.87753
G1 X-37.05 Y25.319 E28.96321
G1 X-37.715 Y25.08 E28.99846
G1 X-39.298 Y24.409 E29.08424
G1 X-39.939 Y24.093 E29.11989
G1 X-41.431 Y23.246 E29.20549
G1 X-42.026 Y22.862 E29.24082
G1 X-43.415 Y21.848 E29.32662
G1 X-43.963 Y21.397 E29.36202
G1 X-45.227 Y20.231 E29.44782
G1 X-45.72 Y19.721 E29.48321
G1 X-46.84 Y18.421 E29.56881
G1 X-47.272 Y17.857 E29.60426
G1 X-48.239 Y16.433 E29.69013
G1 X-48.605 Y15.822 E29.72567
G1 X-49.401 Y14.299 E29.8114
G1 X-49.693 Y13.653 E29.84677
G1 X-50.31 Y12.049 E29.93251
G1 X-50.526 Y11.373 E29.96792
G1 X-50.955 Y9.711 E30.05355
G1 X-51.094 Y9.008 E30.0893
G1 X-51.31 Y7.444 E30.16807
G1 X-51.688 Y7.05 E30.19531
G1 X-52.115 Y6.49 E30.23045
G1 X-52.476 Y5.885 E30.2656
G1 X-52.766 Y5.244 E30.3007
G1 X-52.981 Y4.574 E30.3358
G1 X-53.119 Y3.883 E30.37096
G1 X-53.18 Y3.016 E30.41432
G1 X-53.181 Y-20.25 E31.57506
G1 X-53.141 Y-20.953 E31.61019
G1 X-53.022 Y-21.646 E31.64527
G1 X-52.824 Y-22.322 E31.68042
G1 X-52.552 Y-22.971 E31.71552
G1 X-52.207 Y-23.585 E31.75066
G1 X-51.796 Y-24.156 E31.78576
G1 X-51.322 Y-24.677 E31.8209
G1 X-50.792 Y-25.14 E31.85601
G1 X-50.213 Y-25.541 E31.89115
G1 X-49.592 Y-25.873 E31.92628
G1 X-48.938 Y-26.133 E31.96139
G1 X-48.259 Y-26.317 E31.99649
G1 X-47.563 Y-26.423 E32.03161
G1 X-46.981 Y-26.45 E32.06068
G1 X-10.994 Y-26.45 E33.85608
G1 X-10.291 Y-26.41 E33.89121
G1 X-9.597 Y-26.291 E33.92634
G1 X-8.922 Y-26.093 E33.96143
G1 X-8.273 Y-25.821 E33.99654
G1 X-7.659 Y-25.476 E34.03168
G1 X-7.088 Y-25.065 E34.06678
G1 X-6.567 Y-24.591 E34.10192
G1 X-6.103 Y-24.061 E34.13706
G1 X-5.703 Y-23.482 E34.17217
G1 X-5.371 Y-22.861 E34.2073
G1 X-5.111 Y-22.207 E34.24241
G1 X-4.927 Y-21.527 E34.27756
G1 X-4.821 Y-20.831 E34.31268
G1 X-4.794 Y-20.25 E34.3417
G1 X-4.793 Y3.015 E35.5024
G1 X-4.833 Y3.718 E35.53753
G1 X-4.952 Y4.411 E35.57261
G1 X-5.15 Y5.087 E35.60775
G1 X-5.422 Y5.736 E35.64286
G1 X-5.767 Y6.35 E35.67799
G1 X-6.178 Y6.921 E35.71309
G1 X-6.663 Y7.44 E35.74853
G1 X-6.881 Y9.012 E35.82771
G1 X-7.02 Y9.714 E35.86341
G1 X-7.45 Y11.376 E35.94906
G1 X-7.664 Y12.046 E35.98415
G1 X-8.28 Y13.65 E36.06987
G1 X-8.575 Y14.302 E36.10557
G1 X-9.372 Y15.825 E36.19133
G1 X-9.734 Y16.431 E36.22655
G1 X-10.7 Y17.855 E36.3124
G1 X-11.136 Y18.423 E36.34812
G1 F1500 E29.84812
G0 F3600 X-15.544 Y20.089
G1 F1500 E36.34812
G1 F1800 X-17.32 Y21.387 E36.45787
G1 X-19.24 Y22.476 E36.56799
G1 X-21.255 Y23.331 E36.6772
G1 X-23.369 Y23.954 E36.78715
G1 X-25.544 Y24.331 E36.89728
G1 X-27.62 Y24.45 E37.00102
G1 X-30.355 Y24.45 E37.13747
G1 X-32.43 Y24.331 E37.24116
G1 X-34.605 Y23.954 E37.35129
G1 X-36.715 Y23.332 E37.46104
G1 X-38.736 Y22.475 E37.57056
G1 X-40.654 Y21.386 E37.68059
G1 X-42.433 Y20.087 E37.79049
G1 X-44.046 Y18.6 E37.89994
G1 X-45.484 Y16.931 E38.00985
G1 X-46.718 Y15.113 E38.11947
G1 X-47.741 Y13.155 E38.22969
G1 X-48.53 Y11.104 E38.33932
G1 X-49.08 Y8.975 E38.44903
G1 X-49.39 Y6.726 E38.56229
G1 X-49.571 Y6.341 E38.58352
G1 X-49.839 Y6.092 E38.60177
G1 X-50.235 Y5.67 E38.63064
G1 X-50.57 Y5.197 E38.65956
G1 X-50.835 Y4.682 E38.68845
G1 X-51.028 Y4.136 E38.71734
G1 X-51.144 Y3.568 E38.74627
G1 X-51.18 Y3.016 E38.77386
G1 X-51.181 Y-20.25 E39.93461
G1 X-51.141 Y-20.828 E39.96351
G1 X-51.022 Y-21.395 E39.99242
G1 X-50.826 Y-21.94 E40.02131
G1 X-50.557 Y-22.453 E40.05021
G1 X-50.22 Y-22.924 E40.07911
G1 X-49.821 Y-23.344 E40.10801
G1 X-49.368 Y-23.706 E40.13694
G1 X-48.87 Y-24.001 E40.16581
G1 X-48.336 Y-24.225 E40.19471
G1 X-47.776 Y-24.374 E40.22362
G1 X-46.981 Y-24.45 E40.26346
G1 X-10.994 Y-24.45 E42.05886
G1 X-10.416 Y-24.41 E42.08776
G1 X-9.849 Y-24.291 E42.11667
G1 X-9.304 Y-24.095 E42.14556
G1 X-8.791 Y-23.826 E42.17446
G1 X-8.32 Y-23.489 E42.20336
G1 X-7.9 Y-23.09 E42.23226
G1 X-7.538 Y-22.637 E42.26119
G1 X-7.243 Y-22.139 E42.29006
G1 X-7.018 Y-21.605 E42.31897
G1 X-6.87 Y-21.045 E42.34787
G1 X-6.794 Y-20.25 E42.38772
G1 X-6.793 Y3.015 E43.54841
G1 X-6.833 Y3.593 E43.57732
G1 X-6.952 Y4.16 E43.60622
G1 X-7.148 Y4.705 E43.63512
G1 X-7.417 Y5.218 E43.66401
G1 X-7.754 Y5.689 E43.69291
G1 X-8.134 Y6.091 E43.72051
G1 X-8.402 Y6.34 E43.73876
G1 X-8.583 Y6.719 E43.75971
G1 X-8.895 Y8.978 E43.87348
G1 X-9.447 Y11.109 E43.98331
G1 X-10.232 Y13.154 E44.09259
G1 X-11.258 Y15.115 E44.20301
G1 X-12.491 Y16.933 E44.3126
G1 X-13.926 Y18.597 E44.42222
G1 X-15.544 Y20.089 E44.53203
G1 F1500 E38.03203
G0 F3600 X-19.412 Y22.114
G1 F1500 E44.53203
G1 F1800 X-21.399 Y22.956 E44.63969
G1 X-23.457 Y23.564 E44.74675
G1 X-25.591 Y23.934 E44.85481
G1 X-27.625 Y24.05 E44.95645
G1 X-30.349 Y24.05 E45.09235
G1 X-32.383 Y23.934 E45.19399
G1 X-34.517 Y23.564 E45.30205
G1 X-36.579 Y22.955 E45.40931
G1 X-38.563 Y22.114 E45.51682
G1 X-40.434 Y21.052 E45.62415
G1 X-42.176 Y19.78 E45.73177
G1 X-43.757 Y18.322 E45.83906
G1 X-45.167 Y16.686 E45.94681
G1 X-46.376 Y14.906 E46.05417
G1 X-47.375 Y12.993 E46.16184
G1 X-48.146 Y10.988 E46.26901
G1 X-48.686 Y8.899 E46.37665
G1 X-48.933 Y7.106 E46.46695
G1 X-49.017 Y6.582 E46.49343
G1 X-49.176 Y6.206 E46.51379
G1 X-49.567 Y5.799 E46.54195
G1 X-49.942 Y5.396 E46.56942
G1 X-50.255 Y4.943 E46.59689
G1 X-50.5 Y4.449 E46.6244
G1 X-50.67 Y3.925 E46.65188
G1 X-50.78 Y3.276 E46.68472
G1 X-50.781 Y-20.25 E47.85844
G1 X-50.741 Y-20.799 E47.8859
G1 X-50.622 Y-21.337 E47.91339
G1 X-50.427 Y-21.853 E47.94091
G1 X-50.159 Y-22.334 E47.96838
G1 X-49.824 Y-22.772 E47.99589
G1 X-49.429 Y-23.156 E48.02338
G1 X-48.983 Y-23.48 E48.05088
G1 X-48.495 Y-23.735 E48.07835
G1 X-47.975 Y-23.918 E48.10585
G1 X-47.434 Y-24.023 E48.13334
G1 X-46.981 Y-24.05 E48.15599
G1 X-10.994 Y-24.05 E49.95138
G1 X-10.444 Y-24.01 E49.9789
G1 X-9.906 Y-23.891 E50.00639
G1 X-9.391 Y-23.695 E50.03388
G1 X-8.91 Y-23.427 E50.06135
G1 X-8.472 Y-23.093 E50.08883
G1 X-8.088 Y-22.698 E50.11631
G1 X-7.764 Y-22.252 E50.14381
G1 X-7.509 Y-21.764 E50.17128
G1 X-7.326 Y-21.244 E50.19879
G1 X-7.221 Y-20.703 E50.22628
