;FLAVOR:Marlin
;TIME:8385
;Filament used: 6.60342m
;Layer height: 0.15
;MINX:-40.022
;MINY:-46.625
;MINZ:0.3
;MAXX:39.418
;MAXY:46.625
;MAXZ:40.5
;Generated with Cura_SteamEngine main
M140 S60
M105
M190 S60
M104 S200
M105
M109 S200
M82 ;absolute extrusion mode
G21 ;metric values
G90 ;absolute positioning
M82 ;set extruder to absolute mode
M107 ;start with the fan off
G28 ;Home all axes (max endstops)
G1 Z15.0 F9000 ;move the platform down 15mm
G92 E0 ;zero the extruded length
G1 F200 E3 ;extrude 3mm of feed stock
G92 E0 ;zero the extruded length again
G1 F9000
;Put printing message on LCD screen
M117 Printing...
G92 E0
G92 E0
G1 F1500 E-6.5
;LAYER_COUNT:269
;LAYER:0
M107
G0 F3600 X-4.934 Y37.673 Z0.3
G0 X-5.995 Y42.099
;TYPE:SKIRT
G1 F1500 E0
G1 F1800 X-6.401 Y42.776 E0.03938
G1 X-6.874 Y43.408 E0.07877
G1 X-7.465 Y44.062 E0.12274
G1 X-8.184 Y44.722 E0.17144
G1 X-8.816 Y45.195 E0.21082
G1 X-9.493 Y45.602 E0.25023
G1 X-10.208 Y45.938 E0.28964
G1 X-10.873 Y46.185 E0.32503
G1 X-11.758 Y46.433 E0.37089
G1 X-12.536 Y46.568 E0.41028
G1 X-13.478 Y46.625 E0.45737
G1 X-31.478 Y46.625 E1.35539
G1 X-32.267 Y46.585 E1.3948
G1 X-33.047 Y46.466 E1.43417
G1 X-34.086 Y46.187 E1.48784
G1 X-34.986 Y45.836 E1.53604
G1 X-35.689 Y45.477 E1.57542
G1 X-36.353 Y45.048 E1.61486
G1 X-36.969 Y44.554 E1.65425
G1 X-37.547 Y44.003 E1.69409
G1 X-38.183 Y43.282 E1.74206
G1 X-38.643 Y42.64 E1.78146
G1 X-39.036 Y41.955 E1.82086
G1 X-39.357 Y41.233 E1.86028
G1 X-39.604 Y40.483 E1.89967
G1 X-39.746 Y39.862 E1.93145
G1 X-39.887 Y39.11 E1.96963
G1 X-39.993 Y38.328 E2.009
G1 X-40.021 Y37.673 E2.0417
G1 X-40.022 Y-37.673 E5.80073
G1 X-39.982 Y-38.462 E5.84015
G1 X-39.887 Y-39.118 E5.87322
G1 X-39.745 Y-39.871 E5.91144
G1 X-39.559 Y-40.639 E5.95087
G1 X-39.297 Y-41.384 E5.99027
G1 X-38.961 Y-42.099 E6.02968
G1 X-38.555 Y-42.776 E6.06907
G1 X-38.082 Y-43.408 E6.10845
G1 X-37.491 Y-44.062 E6.15243
G1 X-36.772 Y-44.722 E6.20112
G1 X-36.14 Y-45.195 E6.2405
G1 X-35.463 Y-45.602 E6.27991
G1 X-34.748 Y-45.938 E6.31932
G1 X-34.083 Y-46.185 E6.35472
G1 X-33.198 Y-46.433 E6.40057
G1 X-32.42 Y-46.568 E6.43996
G1 X-31.478 Y-46.625 E6.48705
G1 X-13.478 Y-46.625 E7.38507
G1 X-12.689 Y-46.585 E7.42448
G1 X-11.909 Y-46.466 E7.46385
G1 X-10.87 Y-46.187 E7.51752
G1 X-9.97 Y-45.836 E7.56572
G1 X-9.267 Y-45.477 E7.6051
G1 X-8.603 Y-45.048 E7.64454
G1 X-7.987 Y-44.554 E7.68393
G1 X-7.409 Y-44.003 E7.72377
G1 X-6.773 Y-43.282 E7.77174
G1 X-6.313 Y-42.64 E7.81114
G1 X-5.92 Y-41.955 E7.85054
G1 X-5.599 Y-41.233 E7.88996
G1 X-5.352 Y-40.483 E7.92935
G1 X-5.21 Y-39.862 E7.96114
G1 X-5.069 Y-39.11 E7.99931
G1 X-4.963 Y-38.328 E8.03868
G1 X-4.935 Y-37.673 E8.07139
G1 X-4.934 Y37.673 E11.83041
G1 X-4.974 Y38.462 E11.86983
G1 X-5.069 Y39.118 E11.9029
G1 X-5.211 Y39.871 E11.94113
G1 X-5.397 Y40.639 E11.98055
G1 X-5.659 Y41.384 E12.01995
G1 X-5.995 Y42.099 E12.05936
G1 F1500 E5.55936
G0 F3600 X-9.975 Y44.951
G1 F1500 E12.05936
G1 F1800 X-11.067 Y45.411 E12.11848
G1 X-11.973 Y45.661 E12.16537
G1 X-12.711 Y45.783 E12.20269
G1 X-13.478 Y45.825 E12.24101
G1 X-31.478 Y45.825 E13.13903
G1 X-32.225 Y45.785 E13.17636
G1 X-32.963 Y45.666 E13.21365
G1 X-33.845 Y45.424 E13.25928
G1 X-34.695 Y45.09 E13.30484
G1 X-35.358 Y44.744 E13.34215
G1 X-35.98 Y44.329 E13.37946
G1 X-36.927 Y43.5 E13.44225
G1 X-37.582 Y42.753 E13.49182
G1 X-38.012 Y42.141 E13.52913
G1 X-38.375 Y41.487 E13.56645
G1 X-38.666 Y40.797 E13.60381
G1 X-38.909 Y39.989 E13.6459
G1 X-39.101 Y38.963 E13.69798
G1 X-39.199 Y38.221 E13.73532
G1 X-39.221 Y37.673 E13.76268
G1 X-39.222 Y-37.673 E17.52171
G1 X-39.182 Y-38.42 E17.55903
G1 X-39.101 Y-38.97 E17.58677
G1 X-38.959 Y-39.723 E17.625
G1 X-38.781 Y-40.45 E17.66234
G1 X-38.527 Y-41.153 E17.69963
G1 X-38.199 Y-41.826 E17.73698
G1 X-37.801 Y-42.459 E17.77428
G1 X-37.338 Y-43.047 E17.81162
G1 X-36.783 Y-43.627 E17.85167
G1 X-36.231 Y-44.132 E17.889
G1 X-35.628 Y-44.575 E17.92633
G1 X-34.981 Y-44.951 E17.96366
G1 X-33.889 Y-45.411 E18.02278
G1 X-32.983 Y-45.661 E18.06967
G1 X-32.245 Y-45.783 E18.10699
G1 X-31.478 Y-45.825 E18.14531
G1 X-13.478 Y-45.825 E19.04333
G1 X-12.731 Y-45.785 E19.08065
G1 X-11.993 Y-45.666 E19.11795
G1 X-11.111 Y-45.424 E19.16358
G1 X-10.261 Y-45.09 E19.20914
G1 X-9.598 Y-44.744 E19.24645
G1 X-8.976 Y-44.329 E19.28376
G1 X-8.029 Y-43.5 E19.34655
G1 X-7.374 Y-42.753 E19.39611
G1 X-6.944 Y-42.141 E19.43343
G1 X-6.581 Y-41.487 E19.47075
G1 X-6.29 Y-40.797 E19.50811
G1 X-6.047 Y-39.989 E19.5502
G1 X-5.855 Y-38.963 E19.60228
G1 X-5.757 Y-38.221 E19.63962
G1 X-5.735 Y-37.673 E19.66698
G1 X-5.734 Y37.673 E23.42601
G1 X-5.774 Y38.42 E23.46333
G1 X-5.855 Y38.97 E23.49106
G1 X-5.997 Y39.723 E23.52929
G1 X-6.175 Y40.45 E23.56664
G1 X-6.429 Y41.153 E23.60393
G1 X-6.757 Y41.826 E23.64128
G1 X-7.155 Y42.459 E23.67858
G1 X-7.618 Y43.047 E23.71592
G1 X-8.173 Y43.627 E23.75597
G1 X-8.725 Y44.132 E23.7933
G1 X-9.328 Y44.575 E23.83063
G1 X-9.975 Y44.951 E23.86796
G1 F1500 E17.36796
G0 F3600 X-13.164 Y44.225
G1 F1500 E23.86796
G1 F1800 X-31.478 Y44.225 E24.78165
G1 X-32.134 Y44.185 E24.81444
G1 X-32.78 Y44.066 E24.84721
G1 X-33.494 Y43.846 E24.88448
G1 X-34.103 Y43.601 E24.91723
G1 X-34.679 Y43.284 E24.95003
G1 X-35.212 Y42.899 E24.98284
G1 X-35.815 Y42.346 E25.02366
G1 X-36.373 Y41.7 E25.06624
G1 X-36.739 Y41.155 E25.099
G1 X-37.036 Y40.569 E25.13177
G1 X-37.26 Y39.951 E25.16457
G1 X-37.388 Y39.42 E25.19182
G1 X-37.529 Y38.668 E25.22999
G1 X-37.621 Y37.927 E25.26724
G1 X-37.622 Y-37.673 E29.03894
G1 X-37.577 Y-38.416 E29.07608
G1 X-37.386 Y-39.427 E29.12741
G1 X-37.226 Y-40.064 E29.16018
G1 X-36.989 Y-40.676 E29.19292
G1 X-36.679 Y-41.256 E29.22573
G1 X-36.301 Y-41.793 E29.25849
G1 X-35.784 Y-42.377 E29.2974
G1 X-35.154 Y-42.945 E29.33972
G1 X-34.616 Y-43.322 E29.3725
G1 X-34.036 Y-43.631 E29.40528
G1 X-33.343 Y-43.905 E29.44246
G1 X-32.561 Y-44.115 E29.48286
G1 X-31.792 Y-44.225 E29.52162
G1 X-13.478 Y-44.225 E30.4353
G1 X-12.822 Y-44.185 E30.46809
G1 X-12.176 Y-44.066 E30.50086
G1 X-11.462 Y-43.846 E30.53814
G1 X-10.853 Y-43.601 E30.57089
G1 X-10.277 Y-43.284 E30.60369
G1 X-9.744 Y-42.899 E30.63649
G1 X-9.141 Y-42.346 E30.67731
G1 X-8.583 Y-41.7 E30.7199
G1 X-8.217 Y-41.155 E30.75265
G1 X-7.92 Y-40.569 E30.78543
G1 X-7.696 Y-39.951 E30.81822
G1 X-7.568 Y-39.42 E30.84547
G1 X-7.427 Y-38.668 E30.88365
G1 X-7.335 Y-37.927 E30.9209
G1 X-7.334 Y37.673 E34.6926
G1 X-7.379 Y38.416 E34.72973
G1 X-7.57 Y39.427 E34.78106
G1 X-7.73 Y40.064 E34.81383
G1 X-7.967 Y40.676 E34.84657
G1 X-8.277 Y41.256 E34.87938
G1 X-8.655 Y41.793 E34.91215
G1 X-9.172 Y42.377 E34.95106
G1 X-9.802 Y42.945 E34.99338
G1 X-10.34 Y43.322 E35.02615
G1 X-10.92 Y43.631 E35.05894
G1 X-11.613 Y43.905 E35.09612
G1 X-12.395 Y44.115 E35.13652
G1 X-13.164 Y44.225 E35.17527
G0 F3600 X-13.213 Y43.825
G1 F1800 X-31.478 Y43.825 E36.08652
G1 X-32.109 Y43.785 E36.11806
G1 X-32.73 Y43.666 E36.14961
G1 X-33.368 Y43.466 E36.18296
G1 X-33.954 Y43.229 E36.2145
G1 X-34.505 Y42.92 E36.24602
G1 X-35.013 Y42.544 E36.27755
G1 X-35.658 Y41.918 E36.32239
G1 X-36.07 Y41.439 E36.35391
G1 X-36.418 Y40.911 E36.38546
G1 X-36.697 Y40.344 E36.41699
G1 X-36.94 Y39.637 E36.45428
G1 X-37.135 Y38.594 E36.50722
G1 X-37.221 Y37.673 E36.55337
G1 X-37.222 Y-37.673 E40.3124
G1 X-37.135 Y-38.6 E40.35885
G1 X-36.993 Y-39.353 E40.39708
G1 X-36.837 Y-39.965 E40.42859
G1 X-36.605 Y-40.553 E40.46012
G1 X-36.3 Y-41.107 E40.49168
G1 X-35.928 Y-41.618 E40.52321
G1 X-35.357 Y-42.225 E40.56479
G1 X-34.886 Y-42.647 E40.59634
G1 X-34.366 Y-43.006 E40.62786
G1 X-33.804 Y-43.297 E40.65943
G1 X-33.068 Y-43.565 E40.69851
G1 X-32.457 Y-43.728 E40.73006
G1 X-31.743 Y-43.825 E40.76601
G1 X-13.478 Y-43.825 E41.67726
G1 X-12.847 Y-43.785 E41.7088
G1 X-12.226 Y-43.666 E41.74034
G1 X-11.588 Y-43.466 E41.7737
G1 X-11.002 Y-43.229 E41.80524
G1 X-10.451 Y-42.92 E41.83676
G1 X-9.943 Y-42.544 E41.86829
G1 X-9.298 Y-41.918 E41.91313
G1 X-8.886 Y-41.439 E41.94465
G1 X-8.538 Y-40.911 E41.9762
G1 X-8.259 Y-40.344 E42.00773
G1 X-8.016 Y-39.637 E42.04502
G1 X-7.821 Y-38.594 E42.09796
G1 X-7.735 Y-37.673 E42.14411
G1 X-7.734 Y37.673 E45.90314
G1 X-7.821 Y38.6 E45.94959
G1 X-7.963 Y39.353 E45.98782
G1 X-8.119 Y39.965 E46.01933
G1 X-8.351 Y40.553 E46.05086
G1 X-8.656 Y41.107 E46.08241
G1 X-9.028 Y41.618 E46.11395
G1 X-9.599 Y42.225 E46.15552
G1 X-10.07 Y42.647 E46.18708
G1 X-10.59 Y43.006 E46.2186
G1 X-11.152 Y43.297 E46.25017
G1 X-11.888 Y43.565 E46.28925
G1 X-12.499 Y43.728 E46.3208
G1 X-13.213 Y43.825 E46.35675
G0 F3600 X-13.478 Y43.425
G1 F1800 X-31.478 Y43.425 E47.25477
G1 X-32.083 Y43.385 E47.28502
G1 X-33.059 Y43.16 E47.33499
G1 X-33.803 Y42.858 E47.37505
G1 X-34.33 Y42.557 E47.40533
G1 X-34.812 Y42.19 E47.43556
G1 X-35.371 Y41.639 E47.47471
G1 X-35.765 Y41.178 E47.50497
G1 X-36.095 Y40.669 E47.53523
G1 X-36.356 Y40.122 E47.56547
G1 X-36.601 Y39.273 E47.60956
G1 X-36.742 Y38.521 E47.64773
G1 X-36.821 Y37.673 E47.69022
G1 X-36.822 Y-37.673 E51.44924
G1 X-36.742 Y-38.525 E51.49194
G1 X-36.6 Y-39.278 E51.53017
G1 X-36.449 Y-39.866 E51.56045
G1 X-36.222 Y-40.428 E51.59069
G1 X-35.922 Y-40.955 E51.62095
G1 X-35.255 Y-41.781 E51.67391
G1 X-34.619 Y-42.348 E51.71642
G1 X-34.117 Y-42.689 E51.7467
G1 X-33.575 Y-42.96 E51.77693
G1 X-32.941 Y-43.186 E51.81051
G1 X-32.355 Y-43.341 E51.84075
G1 X-31.478 Y-43.425 E51.88471
G1 X-13.478 Y-43.425 E52.78273
G1 X-12.873 Y-43.385 E52.81298
G1 X-11.897 Y-43.16 E52.86295
G1 X-11.153 Y-42.858 E52.90301
G1 X-10.626 Y-42.557 E52.93329
G1 X-10.144 Y-42.19 E52.96351
G1 X-9.585 Y-41.639 E53.00267
G1 X-9.191 Y-41.178 E53.03293
G1 X-8.861 Y-40.669 E53.06319
G1 X-8.6 Y-40.122 E53.09343
G1 X-8.355 Y-39.273 E53.13751
G1 X-8.214 Y-38.521 E53.17568
G1 X-8.135 Y-37.673 E53.21818
G1 X-8.134 Y37.673 E56.9772
G1 X-8.214 Y38.525 E57.0199
G1 X-8.356 Y39.278 E57.05813
G1 X-8.507 Y39.866 E57.08841
G1 X-8.734 Y40.428 E57.11865
G1 X-9.034 Y40.955 E57.14891
G1 X-9.701 Y41.781 E57.20187
G1 X-10.337 Y42.348 E57.24438
G1 X-10.839 Y42.689 E57.27466
G1 X-11.381 Y42.96 E57.30489
G1 X-12.015 Y43.186 E57.33847
G1 X-12.601 Y43.341 E57.36871
G1 X-13.478 Y43.425 E57.41267
G0 F3600 X-13.478 Y43.025
G1 F1800 X-31.478 Y43.025 E58.31069
G1 X-32.056 Y42.985 E58.33959
G1 X-32.94 Y42.779 E58.38488
G1 X-33.651 Y42.487 E58.42323
G1 X-34.152 Y42.195 E58.45216
G1 X-34.926 Y41.546 E58.50255
G1 X-35.46 Y40.918 E58.54368
G1 X-35.771 Y40.429 E58.57259
G1 X-36.012 Y39.902 E58.6015
G1 X-36.208 Y39.199 E58.63791
G1 X-36.349 Y38.447 E58.67608
G1 X-36.421 Y37.673 E58.71486
G1 X-36.422 Y-37.673 E62.47389
G1 X-36.349 Y-38.451 E62.51288
G1 X-36.207 Y-39.204 E62.5511
G1 X-36.061 Y-39.765 E62.58003
G1 X-35.839 Y-40.3 E62.60892
G1 X-35.545 Y-40.799 E62.63782
G1 X-34.96 Y-41.51 E62.68375
G1 X-34.353 Y-42.048 E62.72422
G1 X-33.87 Y-42.369 E62.75315
G1 X-33.002 Y-42.758 E62.80061
G1 X-32.253 Y-42.953 E62.83922
G1 X-31.478 Y-43.025 E62.87805
G1 X-13.478 Y-43.025 E63.77608
G1 X-12.9 Y-42.985 E63.80498
G1 X-12.016 Y-42.779 E63.85027
G1 X-11.305 Y-42.487 E63.88861
G1 X-10.804 Y-42.195 E63.91754
G1 X-10.03 Y-41.546 E63.96794
G1 X-9.496 Y-40.918 E64.00906
G1 X-9.185 Y-40.429 E64.03798
G1 X-8.944 Y-39.902 E64.06689
G1 X-8.748 Y-39.199 E64.1033
G1 X-8.607 Y-38.447 E64.14147
G1 X-8.535 Y-37.673 E64.18025
G1 X-8.534 Y37.673 E67.93928
G1 X-8.607 Y38.451 E67.97826
G1 X-8.749 Y39.204 E68.01649
G1 X-8.895 Y39.765 E68.04541
G1 X-9.117 Y40.3 E68.07431
G1 X-9.411 Y40.799 E68.10321
G1 X-9.996 Y41.51 E68.14914
G1 X-10.603 Y42.048 E68.18961
G1 X-11.086 Y42.369 E68.21854
G1 X-11.954 Y42.758 E68.266
G1 X-12.703 Y42.953 E68.30461
G1 X-13.478 Y43.025 E68.34344
G0 F3600 X-13.478 Y42.625
G1 F1800 X-31.478 Y42.625 E69.24146
G1 X-32.028 Y42.585 E69.26898
G1 X-32.822 Y42.396 E69.3097
G1 X-33.498 Y42.116 E69.3462
G1 X-33.971 Y41.833 E69.3737
G1 X-34.648 Y41.259 E69.41798
G1 X-35.154 Y40.659 E69.45714
G1 X-35.445 Y40.19 E69.48468
G1 X-35.665 Y39.685 E69.51216
G1 X-35.815 Y39.125 E69.54108
G1 X-35.956 Y38.373 E69.57925
G1 X-36.021 Y37.673 E69.61433
G1 X-36.022 Y-37.673 E73.37335
G1 X-35.956 Y-38.377 E73.40863
G1 X-35.814 Y-39.13 E73.44686
G1 X-35.673 Y-39.663 E73.47436
G1 X-35.456 Y-40.169 E73.50183
G1 X-35.169 Y-40.639 E73.52931
G1 X-34.662 Y-41.243 E73.56865
G1 X-34.087 Y-41.748 E73.60683
G1 X-33.625 Y-42.048 E73.63431
G1 X-32.865 Y-42.382 E73.67573
G1 X-32.153 Y-42.565 E73.7124
G1 X-31.478 Y-42.625 E73.74621
G1 X-13.478 Y-42.625 E74.64424
G1 X-12.928 Y-42.585 E74.67175
G1 X-12.134 Y-42.396 E74.71247
G1 X-11.458 Y-42.116 E74.74897
G1 X-10.985 Y-41.833 E74.77647
G1 X-10.308 Y-41.259 E74.82075
G1 X-9.802 Y-40.659 E74.85991
G1 X-9.511 Y-40.19 E74.88745
G1 X-9.291 Y-39.685 E74.91493
G1 X-9.141 Y-39.125 E74.94385
G1 X-9 Y-38.373 E74.98202
G1 X-8.935 Y-37.673 E75.0171
G1 X-8.934 Y37.673 E78.77613
G1 X-9 Y38.377 E78.8114
G1 X-9.142 Y39.13 E78.84963
G1 X-9.283 Y39.663 E78.87714
G1 X-9.5 Y40.169 E78.90461
G1 X-9.787 Y40.639 E78.93208
G1 X-10.294 Y41.243 E78.97142
G1 X-10.869 Y41.748 E79.0096
G1 X-11.331 Y42.048 E79.03709
G1 X-12.091 Y42.382 E79.0785
G1 X-12.803 Y42.565 E79.11518
G1 X-13.478 Y42.625 E79.14899
G0 F3600 X-13.478 Y42.225
G1 F1800 X-31.478 Y42.225 E80.04701
G1 X-31.998 Y42.185 E80.07303
G1 X-32.703 Y42.015 E80.10921
G1 X-33.344 Y41.746 E80.14389
G1 X-33.788 Y41.473 E80.1699
G1 X-34.373 Y40.967 E80.20848
G1 X-34.847 Y40.401 E80.24532
G1 X-35.117 Y39.954 E80.27137
G1 X-35.367 Y39.345 E80.30421
G1 X-35.563 Y38.3 E80.35726
G1 X-35.621 Y37.673 E80.38867
G1 X-35.622 Y-37.673 E84.1477
G1 X-35.563 Y-38.303 E84.17927
G1 X-35.421 Y-39.056 E84.2175
G1 X-35.286 Y-39.559 E84.24348
G1 X-35.075 Y-40.036 E84.2695
G1 X-34.793 Y-40.475 E84.29553
G1 X-34.216 Y-41.103 E84.33808
G1 X-33.823 Y-41.446 E84.36411
G1 X-33.382 Y-41.725 E84.39014
G1 X-32.724 Y-42.006 E84.42584
G1 X-32.054 Y-42.176 E84.46032
G1 X-31.478 Y-42.225 E84.48916
G1 X-13.478 Y-42.225 E85.38719
G1 X-12.958 Y-42.185 E85.41321
G1 X-12.253 Y-42.015 E85.44939
G1 X-11.612 Y-41.746 E85.48407
G1 X-11.168 Y-41.473 E85.51007
G1 X-10.583 Y-40.967 E85.54866
G1 X-10.109 Y-40.401 E85.58549
G1 X-9.839 Y-39.954 E85.61155
G1 X-9.589 Y-39.345 E85.64439
G1 X-9.393 Y-38.3 E85.69743
G1 X-9.335 Y-37.673 E85.72885
G1 X-9.334 Y37.673 E89.48788
G1 X-9.393 Y38.303 E89.51944
G1 X-9.535 Y39.056 E89.55767
G1 X-9.67 Y39.559 E89.58366
G1 X-9.881 Y40.036 E89.60968
G1 X-10.163 Y40.475 E89.63571
G1 X-10.74 Y41.103 E89.67826
G1 X-11.133 Y41.446 E89.70428
G1 X-11.574 Y41.725 E89.73032
G1 X-12.232 Y42.006 E89.76601
G1 X-12.902 Y42.176 E89.8005
G1 X-13.478 Y42.225 E89.82934
G0 F3600 X-13.478 Y41.825
G1 F1800 X-31.478 Y41.825 E90.72736
G1 X-31.966 Y41.785 E90.75179
G1 X-32.737 Y41.568 E90.79175
G1 X-33.187 Y41.376 E90.81616
G1 X-33.601 Y41.114 E90.8406
G1 X-34.227 Y40.521 E90.88362
G1 X-34.539 Y40.144 E90.90804
G1 X-34.786 Y39.721 E90.93247
G1 X-34.99 Y39.184 E90.96113
G1 X-35.17 Y38.226 E91.00976
G1 X-35.221 Y37.673 E91.03747
G1 X-35.222 Y-37.673 E94.7965
G1 X-35.17 Y-38.229 E94.82436
G1 X-35.028 Y-38.982 E94.86259
G1 X-34.898 Y-39.454 E94.88701
G1 X-34.694 Y-39.899 E94.91143
G1 X-34.419 Y-40.304 E94.93586
G1 X-33.93 Y-40.823 E94.97143
G1 X-33.56 Y-41.143 E94.99584
G1 X-33.142 Y-41.398 E95.02027
G1 X-32.432 Y-41.669 E95.05818
G1 X-31.957 Y-41.787 E95.0826
G1 X-31.478 Y-41.825 E95.10657
G1 X-13.478 Y-41.825 E96.0046
G1 X-12.99 Y-41.785 E96.02902
G1 X-12.219 Y-41.568 E96.06898
G1 X-11.769 Y-41.376 E96.09339
G1 X-11.355 Y-41.114 E96.11784
G1 X-10.729 Y-40.521 E96.16086
G1 X-10.417 Y-40.144 E96.18527
G1 X-10.17 Y-39.721 E96.20971
G1 X-9.966 Y-39.184 E96.23837
G1 X-9.786 Y-38.226 E96.287
G1 X-9.735 Y-37.673 E96.3147
G1 X-9.734 Y37.673 E100.07373
G1 X-9.786 Y38.229 E100.10159
G1 X-9.928 Y38.982 E100.13982
G1 X-10.058 Y39.454 E100.16425
G1 X-10.262 Y39.899 E100.18867
G1 X-10.537 Y40.304 E100.21309
G1 X-11.026 Y40.823 E100.24867
G1 X-11.396 Y41.143 E100.27307
G1 X-11.814 Y41.398 E100.2975
G1 X-12.524 Y41.669 E100.33542
G1 X-12.999 Y41.787 E100.35983
G1 X-13.478 Y41.825 E100.38381
G0 F3600 X-13.478 Y41.425
G1 F1800 X-31.478 Y41.425 E101.28183
G1 X-31.932 Y41.385 E101.30457
G1 X-32.611 Y41.188 E101.33984
G1 X-33.029 Y41.007 E101.36257
G1 X-33.409 Y40.756 E101.38529
G1 X-33.94 Y40.241 E101.42219
G1 X-34.229 Y39.889 E101.44491
