;FLAVOR:Marlin
;TIME:5042
;Filament used: 4.20096m
;Layer height: 0.15
;MINX:-36.86
;MINY:-41.987
;MINZ:0.3
;MAXX:43.465
;MAXY:38.208
;MAXZ:11.85
;Generated with Cura_SteamEngine main
M140 S60
M105
M190 S60
M104 S200
M105
M109 S200
M82 ;absolute extrusion mode
G21 ;metric values
G90 ;absolute positioning
M82 ;set extruder to absolute mode
M107 ;start with the fan off
G28 ;Home all axes (max endstops)
G1 Z15.0 F9000 ;move the platform down 15mm
G92 E0 ;zero the extruded length
G1 F200 E3 ;extrude 3mm of feed stock
G92 E0 ;zero the extruded length again
G1 F9000
;Put printing message on LCD screen
M117 Printing...
G92 E0
G92 E0
G1 F1500 E-6.5
;LAYER_COUNT:78
;LAYER:0
M107
G0 F3600 X3.293 Y32.914 Z0.3
G0 X0.718 Y36.502
;TYPE:SKIRT
G1 F1500 E0
G1 F1800 X0.07 Y36.953 E0.03939
G1 X-.621 Y37.337 E0.07883
G1 X-1.346 Y37.649 E0.11821
G1 X-2.099 Y37.886 E0.15759
G1 X-2.873 Y38.045 E0.19701
G1 X-3.922 Y38.135 E0.24954
G1 X-4.527 Y38.146 E0.27973
G1 X-5.089 Y38.183 E0.30783
G1 X-5.878 Y38.195 E0.34719
G1 X-6.665 Y38.128 E0.3866
G1 X-7.441 Y37.981 E0.426
G1 X-8.039 Y37.804 E0.45712
G1 X-8.921 Y38.035 E0.5026
G1 X-9.702 Y38.157 E0.54204
G1 X-10.512 Y38.199 E0.58251
G1 X-22.605 Y38.2 E1.18583
G1 X-23.394 Y38.16 E1.22524
G1 X-24.175 Y38.041 E1.26466
G1 X-25.05 Y37.814 E1.30975
G1 X-25.919 Y38.042 E1.35458
G1 X-26.699 Y38.165 E1.39397
G1 X-27.488 Y38.208 E1.43339
G1 X-28.162 Y38.181 E1.46705
G1 X-28.705 Y38.136 E1.49423
G1 X-29.06 Y38.136 E1.51194
G1 X-29.849 Y38.096 E1.55135
G1 X-30.629 Y37.977 E1.59072
G1 X-31.394 Y37.779 E1.63014
G1 X-32.134 Y37.505 E1.66951
G1 X-32.843 Y37.157 E1.70891
G1 X-33.514 Y36.739 E1.74836
G1 X-34.138 Y36.256 E1.78772
G1 X-34.711 Y35.713 E1.82711
G1 X-35.226 Y35.114 E1.86652
G1 X-35.677 Y34.466 E1.90591
G1 X-36.061 Y33.775 E1.94535
G1 X-36.373 Y33.05 E1.98472
G1 X-36.61 Y32.297 E2.02411
G1 X-36.769 Y31.523 E2.06353
G1 X-36.86 Y30.641 E2.10777
G1 X-36.86 Y-30.2 E5.14314
G1 X-36.833 Y-30.848 E5.17549
G1 X-36.778 Y-31.508 E5.20853
G1 X-36.655 Y-32.425 E5.25469
G1 X-36.408 Y-33.405 E5.30511
G1 X-36.176 Y-34.16 E5.34452
G1 X-35.989 Y-34.628 E5.36966
G1 X-35.724 Y-35.233 E5.40262
G1 X-35.371 Y-35.94 E5.44204
G1 X-35.107 Y-36.373 E5.46734
G1 X-34.746 Y-36.925 E5.50025
G1 X-34.197 Y-37.678 E5.54674
G1 X-33.508 Y-38.427 E5.59751
G1 X-32.842 Y-39.08 E5.64405
G1 X-32.047 Y-39.7 E5.69434
G1 X-31.4 Y-40.153 E5.73375
G1 X-30.954 Y-40.414 E5.75953
G1 X-30.372 Y-40.728 E5.79252
G1 X-29.537 Y-41.125 E5.83865
G1 X-28.576 Y-41.455 E5.88934
G1 X-27.817 Y-41.673 E5.92874
G1 X-27.326 Y-41.772 E5.95373
G1 X-26.673 Y-41.881 E5.98676
G1 X-25.889 Y-41.971 E6.02613
G1 X-25.389 Y-41.987 E6.05109
G1 X-24.731 Y-41.987 E6.08391
G1 X-23.799 Y-41.94 E6.13047
G1 X-22.794 Y-41.772 E6.18131
G1 X-22.022 Y-41.602 E6.22074
G1 X-21.544 Y-41.455 E6.24569
G1 X-20.918 Y-41.24 E6.27872
G1 X-20.057 Y-40.895 E6.32499
G1 X-19.166 Y-40.414 E6.37551
G1 X-18.491 Y-40.004 E6.41491
G1 X-18.073 Y-39.7 E6.44069
G1 X-17.555 Y-39.296 E6.47347
G1 X-16.958 Y-38.779 E6.51287
G1 X-16.56 Y-38.37 E6.54134
G1 X-15.847 Y-39.076 E6.5914
G1 X-15.047 Y-39.7 E6.64202
G1 X-14.4 Y-40.153 E6.68142
G1 X-13.954 Y-40.414 E6.7072
G1 X-13.372 Y-40.728 E6.7402
G1 X-12.537 Y-41.125 E6.78632
G1 X-11.576 Y-41.455 E6.83702
G1 X-10.817 Y-41.673 E6.87641
G1 X-10.326 Y-41.772 E6.9014
G1 X-9.673 Y-41.881 E6.93443
G1 X-8.889 Y-41.971 E6.9738
G1 X-8.389 Y-41.987 E6.99876
G1 X-7.731 Y-41.987 E7.03159
G1 X-6.799 Y-41.94 E7.07814
G1 X-5.794 Y-41.772 E7.12898
G1 X-5.022 Y-41.602 E7.16842
G1 X-4.544 Y-41.455 E7.19337
G1 X-3.918 Y-41.24 E7.22639
G1 X-3.057 Y-40.895 E7.27267
G1 X-2.166 Y-40.414 E7.32318
G1 X-1.491 Y-40.004 E7.36258
G1 X-1.073 Y-39.7 E7.38837
G1 X-.555 Y-39.296 E7.42114
G1 X0.151 Y-38.685 E7.46772
G1 X0.838 Y-37.938 E7.51836
G1 X1.433 Y-37.221 E7.56484
G1 X1.987 Y-36.373 E7.61538
G1 X2.385 Y-35.691 E7.65477
G1 X2.602 Y-35.237 E7.67988
G1 X2.866 Y-34.635 E7.71267
G1 X3.146 Y-33.896 E7.7521
G1 X3.302 Y-33.346 E7.78062
G1 X3.549 Y-34.16 E7.82306
G1 X3.736 Y-34.628 E7.8482
G1 X4.001 Y-35.233 E7.88115
G1 X4.354 Y-35.94 E7.92058
G1 X4.623 Y-36.381 E7.94635
G1 X4.985 Y-36.933 E7.97928
G1 X5.523 Y-37.67 E8.02481
G1 X6.212 Y-38.42 E8.07562
G1 X6.774 Y-38.974 E8.11499
G1 X7.16 Y-39.296 E8.14007
G1 X7.678 Y-39.7 E8.17284
G1 X8.325 Y-40.153 E8.21224
G1 X8.771 Y-40.414 E8.23802
G1 X9.353 Y-40.728 E8.27102
G1 X10.188 Y-41.125 E8.31714
G1 X11.149 Y-41.455 E8.36784
G1 X11.908 Y-41.673 E8.40723
G1 X12.399 Y-41.772 E8.43222
G1 X13.052 Y-41.881 E8.46525
G1 X13.836 Y-41.971 E8.50462
G1 X14.336 Y-41.987 E8.52958
G1 X14.995 Y-41.987 E8.56246
G1 X15.784 Y-41.947 E8.60187
G1 X16.281 Y-41.88 E8.62689
G1 X16.933 Y-41.771 E8.65987
G1 X17.839 Y-41.572 E8.70615
G1 X18.807 Y-41.24 E8.75721
G1 X19.668 Y-40.895 E8.80348
G1 X20.559 Y-40.414 E8.854
G1 X21.234 Y-40.004 E8.8934
G1 X21.652 Y-39.7 E8.91918
G1 X22.17 Y-39.296 E8.95196
G1 X22.767 Y-38.779 E8.99136
G1 X23.166 Y-38.37 E9.01987
G1 X23.774 Y-38.974 E9.06262
G1 X24.16 Y-39.296 E9.0877
G1 X24.678 Y-39.7 E9.12047
G1 X25.325 Y-40.153 E9.15988
G1 X25.771 Y-40.414 E9.18566
G1 X26.353 Y-40.728 E9.21865
G1 X27.188 Y-41.125 E9.26478
G1 X28.149 Y-41.455 E9.31547
G1 X28.908 Y-41.673 E9.35487
G1 X29.399 Y-41.772 E9.37986
G1 X30.052 Y-41.881 E9.41289
G1 X30.836 Y-41.971 E9.45226
G1 X31.336 Y-41.987 E9.47722
G1 X31.995 Y-41.987 E9.51009
G1 X32.784 Y-41.947 E9.54951
G1 X33.281 Y-41.88 E9.57453
G1 X33.933 Y-41.771 E9.60751
G1 X34.839 Y-41.572 E9.65379
G1 X35.807 Y-41.24 E9.70484
G1 X36.668 Y-40.895 E9.75112
G1 X37.559 Y-40.414 E9.80163
G1 X38.234 Y-40.004 E9.84103
G1 X38.652 Y-39.7 E9.86682
G1 X39.17 Y-39.296 E9.89959
G1 X39.876 Y-38.685 E9.94618
G1 X40.563 Y-37.938 E9.99681
G1 X41.158 Y-37.221 E10.04329
G1 X41.712 Y-36.373 E10.09383
G1 X42.11 Y-35.691 E10.13322
G1 X42.327 Y-35.237 E10.15833
G1 X42.591 Y-34.635 E10.19112
G1 X42.921 Y-33.765 E10.23754
G1 X43.171 Y-32.779 E10.28829
G1 X43.326 Y-32.005 E10.32767
G1 X43.385 Y-31.498 E10.35314
G1 X43.439 Y-30.84 E10.38608
G1 X43.465 Y-30.202 E10.41793
G1 X43.465 Y30.336 E13.43819
G1 X43.425 Y31.125 E13.4776
G1 X43.306 Y31.905 E13.51696
G1 X43.108 Y32.67 E13.55639
G1 X42.834 Y33.41 E13.59576
G1 X42.486 Y34.119 E13.63516
G1 X42.068 Y34.79 E13.6746
G1 X41.585 Y35.414 E13.71397
G1 X41.042 Y35.987 E13.75335
G1 X40.443 Y36.502 E13.79276
G1 X39.795 Y36.953 E13.83215
G1 X39.104 Y37.337 E13.87159
G1 X38.379 Y37.649 E13.91097
G1 X37.626 Y37.886 E13.95035
G1 X36.852 Y38.045 E13.98977
G1 X35.803 Y38.135 E14.0423
G1 X35.198 Y38.146 E14.07249
G1 X34.636 Y38.183 E14.10059
G1 X33.847 Y38.195 E14.13996
G1 X33.06 Y38.128 E14.17936
G1 X32.284 Y37.981 E14.21877
G1 X31.688 Y37.804 E14.24978
G1 X30.791 Y38.038 E14.29603
G1 X30.01 Y38.158 E14.33545
G1 X29.213 Y38.199 E14.37527
G1 X17.12 Y38.2 E14.97859
G1 X16.331 Y38.16 E15.01801
G1 X15.55 Y38.041 E15.05742
G1 X14.675 Y37.814 E15.10252
G1 X13.793 Y38.045 E15.14801
G1 X13.013 Y38.166 E15.18739
G1 X12.224 Y38.208 E15.2268
G1 X11.563 Y38.181 E15.25981
G1 X11.02 Y38.136 E15.28699
G1 X10.665 Y38.136 E15.3047
G1 X9.876 Y38.096 E15.34412
G1 X9.096 Y37.977 E15.38348
G1 X8.331 Y37.779 E15.42291
G1 X7.591 Y37.505 E15.46227
G1 X6.882 Y37.157 E15.50168
G1 X6.211 Y36.739 E15.54112
G1 X5.587 Y36.256 E15.58049
G1 X5.014 Y35.713 E15.61987
G1 X4.499 Y35.114 E15.65928
G1 X4.048 Y34.466 E15.69867
G1 X3.664 Y33.775 E15.73811
G1 X3.293 Y32.914 E15.78488
G1 X3.109 Y33.41 E15.81128
G1 X2.761 Y34.119 E15.85068
G1 X2.343 Y34.79 E15.89012
G1 X1.86 Y35.414 E15.92949
G1 X1.317 Y35.987 E15.96887
G1 X0.718 Y36.502 E16.00828
G1 F1500 E9.50828
G0 F3600 X-3.612 Y36.529
G1 F1500 E16.00828
G1 F1800 X-4.599 Y36.546 E16.05753
G1 X-5.195 Y36.586 E16.08733
G1 X-5.899 Y36.593 E16.12246
G1 X-6.599 Y36.52 E16.15757
G1 X-7.286 Y36.368 E16.19267
G1 X-8.085 Y36.093 E16.23483
G1 X-8.48 Y36.256 E16.25615
G1 X-9.157 Y36.449 E16.29127
G1 X-9.851 Y36.564 E16.32637
G1 X-10.512 Y36.599 E16.35939
G1 X-22.605 Y36.6 E16.96271
G1 X-23.308 Y36.56 E16.99784
G1 X-24.002 Y36.441 E17.03297
G1 X-24.678 Y36.244 E17.0681
G1 X-25.052 Y36.086 E17.08836
G1 X-25.479 Y36.263 E17.11142
G1 X-26.156 Y36.457 E17.14655
G1 X-26.851 Y36.572 E17.1817
G1 X-27.691 Y36.615 E17.22366
G1 X-28.646 Y36.536 E17.27147
G1 X-29.06 Y36.536 E17.29212
G1 X-29.763 Y36.496 E17.32725
G1 X-30.457 Y36.377 E17.36238
G1 X-31.132 Y36.179 E17.39748
G1 X-31.781 Y35.907 E17.43258
G1 X-32.395 Y35.562 E17.46772
G1 X-32.966 Y35.151 E17.50282
G1 X-33.487 Y34.677 E17.53796
G1 X-33.951 Y34.147 E17.5731
G1 X-34.351 Y33.568 E17.60821
G1 X-34.683 Y32.947 E17.64334
G1 X-34.943 Y32.293 E17.67846
G1 X-35.127 Y31.613 E17.7136
G1 X-35.233 Y30.917 E17.74873
G1 X-35.26 Y30.336 E17.77774
G1 X-35.26 Y-30.2 E20.7979
G1 X-35.239 Y-30.715 E20.82361
G1 X-35.184 Y-31.375 E20.85665
G1 X-35.017 Y-32.375 E20.90723
G1 X-34.856 Y-33.014 E20.94011
G1 X-34.523 Y-33.987 E20.99142
G1 X-34.258 Y-34.592 E21.02437
G1 X-33.768 Y-35.497 E21.07571
G1 X-33.407 Y-36.049 E21.10862
G1 X-32.78 Y-36.854 E21.15953
G1 X-32.33 Y-37.343 E21.19268
G1 X-31.581 Y-38.034 E21.24352
G1 X-31.063 Y-38.438 E21.27629
G1 X-30.194 Y-39.006 E21.32809
G1 X-29.612 Y-39.32 E21.36108
G1 X-28.682 Y-39.727 E21.41173
G1 X-28.056 Y-39.942 E21.44475
G1 X-27.063 Y-40.193 E21.49585
G1 X-26.41 Y-40.302 E21.52888
G1 X-25.389 Y-40.387 E21.57999
G1 X-24.731 Y-40.387 E21.61282
G1 X-23.71 Y-40.302 E21.66393
G1 X-23.057 Y-40.193 E21.69696
G1 X-22.064 Y-39.942 E21.74806
G1 X-21.438 Y-39.727 E21.78108
G1 X-20.508 Y-39.32 E21.83173
G1 X-19.926 Y-39.006 E21.86472
G1 X-19.057 Y-38.438 E21.91652
G1 X-18.539 Y-38.034 E21.94929
G1 X-17.79 Y-37.343 E22.00013
G1 X-17.34 Y-36.854 E22.03329
G1 X-16.56 Y-35.852 E22.09664
G1 X-15.78 Y-36.854 E22.15999
G1 X-15.33 Y-37.343 E22.19314
G1 X-14.581 Y-38.034 E22.24398
G1 X-14.063 Y-38.438 E22.27676
G1 X-13.194 Y-39.006 E22.32855
G1 X-12.612 Y-39.32 E22.36154
G1 X-11.682 Y-39.727 E22.41219
G1 X-11.056 Y-39.942 E22.44521
G1 X-10.063 Y-40.193 E22.49631
G1 X-9.41 Y-40.302 E22.52934
G1 X-8.389 Y-40.387 E22.58045
G1 X-7.731 Y-40.387 E22.61328
G1 X-6.71 Y-40.302 E22.6644
G1 X-6.057 Y-40.193 E22.69743
G1 X-5.064 Y-39.942 E22.74852
G1 X-4.438 Y-39.727 E22.78155
G1 X-3.508 Y-39.32 E22.83219
G1 X-2.926 Y-39.006 E22.86519
G1 X-2.057 Y-38.438 E22.91698
G1 X-1.539 Y-38.034 E22.94975
G1 X-.79 Y-37.343 E23.00059
G1 X-.34 Y-36.854 E23.03375
G1 X0.287 Y-36.049 E23.08466
G1 X0.648 Y-35.497 E23.11756
G1 X1.137 Y-34.594 E23.16879
G1 X1.401 Y-33.992 E23.20159
G1 X1.735 Y-33.019 E23.25291
G1 X1.897 Y-32.377 E23.28595
G1 X2.063 Y-31.376 E23.33657
G1 X2.118 Y-30.718 E23.36951
G1 X2.14 Y-30.202 E23.39528
G1 X2.14 Y30.336 E26.41553
G1 X2.1 Y31.039 E26.45066
G1 X1.981 Y31.733 E26.48579
G1 X1.783 Y32.408 E26.52088
G1 X1.511 Y33.057 E26.55599
G1 X1.166 Y33.671 E26.59113
G1 X0.755 Y34.242 E26.62623
G1 X0.281 Y34.763 E26.66137
G1 X-.249 Y35.227 E26.69651
G1 X-.828 Y35.627 E26.73162
G1 X-1.449 Y35.959 E26.76675
G1 X-2.103 Y36.219 E26.80186
G1 X-2.783 Y36.403 E26.83701
G1 X-3.612 Y36.529 E26.87884
G1 F1500 E20.37884
G0 F3600 X-8.068 Y36.952
G1 F1500 E26.87884
G1 F1800 X-8.664 Y37.15 E26.91018
G1 X-9.395 Y37.309 E26.9475
G1 X-10.512 Y37.399 E27.00341
G1 X-22.605 Y37.4 E27.60673
G1 X-23.352 Y37.36 E27.64405
G1 X-24.091 Y37.241 E27.68139
G1 X-24.812 Y37.043 E27.7187
G1 X-25.045 Y36.952 E27.73118
G1 X-25.662 Y37.158 E27.76363
G1 X-26.393 Y37.317 E27.80095
G1 X-27.137 Y37.398 E27.83829
G1 X-28.096 Y37.384 E27.88614
G1 X-28.675 Y37.336 E27.91512
G1 X-29.06 Y37.336 E27.93433
G1 X-29.807 Y37.296 E27.97165
G1 X-30.545 Y37.177 E28.00895
G1 X-31.267 Y36.979 E28.0463
G1 X-31.963 Y36.706 E28.0836
G1 X-32.626 Y36.359 E28.12093
G1 X-33.249 Y35.944 E28.15828
G1 X-33.823 Y35.465 E28.19558
G1 X-34.344 Y34.928 E28.2329
G1 X-34.803 Y34.338 E28.2702
G1 X-35.198 Y33.702 E28.30755
G1 X-35.522 Y33.028 E28.34486
G1 X-35.772 Y32.323 E28.38218
G1 X-35.946 Y31.595 E28.41952
G1 X-36.041 Y30.853 E28.45684
G1 X-36.06 Y30.336 E28.48265
G1 X-36.06 Y-30.2 E31.5028
G1 X-36.036 Y-30.781 E31.53182
G1 X-35.981 Y-31.441 E31.56486
G1 X-35.865 Y-32.285 E31.60736
G1 X-35.632 Y-33.209 E31.6549
G1 X-35.379 Y-34.026 E31.69757
G1 X-34.991 Y-34.913 E31.74587
G1 X-34.61 Y-35.67 E31.78815
G1 X-34.076 Y-36.487 E31.83685
G1 X-33.573 Y-37.174 E31.87933
G1 X-32.919 Y-37.885 E31.92752
G1 X-32.311 Y-38.479 E31.96993
G1 X-31.555 Y-39.069 E32.01777
G1 X-30.846 Y-39.563 E32.06089
G1 X-29.992 Y-40.024 E32.1093
G1 X-29.222 Y-40.387 E32.15177
G1 X-28.316 Y-40.698 E32.19956
G1 X-27.494 Y-40.932 E32.2422
G1 X-26.542 Y-41.091 E32.29036
G1 X-25.692 Y-41.187 E32.33303
G1 X-24.731 Y-41.187 E32.38098
G1 X-23.88 Y-41.141 E32.42349
G1 X-22.925 Y-40.982 E32.4718
G1 X-22.094 Y-40.798 E32.51426
G1 X-21.178 Y-40.483 E32.56258
G1 X-20.385 Y-40.162 E32.60527
G1 X-19.546 Y-39.71 E32.65281
G1 X-18.81 Y-39.26 E32.69585
G1 X-18.047 Y-38.665 E32.74412
G1 X-17.402 Y-38.104 E32.78677
G1 X-16.56 Y-37.189 E32.84881
G1 X-15.919 Y-37.885 E32.89601
G1 X-15.311 Y-38.479 E32.93842
G1 X-14.555 Y-39.069 E32.98626
G1 X-13.846 Y-39.563 E33.02937
G1 X-12.992 Y-40.024 E33.07779
G1 X-12.222 Y-40.387 E33.12026
G1 X-11.316 Y-40.698 E33.16805
G1 X-10.494 Y-40.932 E33.21069
G1 X-9.542 Y-41.091 E33.25884
G1 X-8.692 Y-41.187 E33.30152
G1 X-7.731 Y-41.187 E33.34947
G1 X-6.88 Y-41.141 E33.39198
G1 X-5.925 Y-40.982 E33.44028
G1 X-5.094 Y-40.798 E33.48275
G1 X-4.178 Y-40.483 E33.53107
G1 X-3.385 Y-40.162 E33.57376
G1 X-2.546 Y-39.71 E33.6213
G1 X-1.81 Y-39.26 E33.66434
G1 X-1.047 Y-38.665 E33.71261
G1 X-.402 Y-38.104 E33.75526
G1 X0.249 Y-37.396 E33.80324
G1 X0.792 Y-36.738 E33.84581
G1 X1.317 Y-35.935 E33.89367
G1 X1.748 Y-35.194 E33.93644
G1 X2.134 Y-34.313 E33.98443
G1 X2.435 Y-33.511 E34.02716
G1 X2.672 Y-32.573 E34.07543
G1 X2.837 Y-31.733 E34.11814
G1 X2.916 Y-30.785 E34.1656
G1 X2.94 Y-30.202 E34.19471
G1 X2.94 Y30.336 E37.21496
G1 X2.9 Y31.083 E37.25228
G1 X2.781 Y31.821 E37.28958
G1 X2.583 Y32.543 E37.32693
G1 X2.31 Y33.239 E37.36423
G1 X1.963 Y33.902 E37.40156
G1 X1.548 Y34.525 E37.43891
G1 X1.069 Y35.099 E37.47621
G1 X0.532 Y35.62 E37.51353
G1 X-0.058 Y36.079 E37.55083
G1 X-.694 Y36.474 E37.58818
G1 X-1.368 Y36.798 E37.62549
G1 X-2.073 Y37.048 E37.66281
G1 X-2.801 Y37.222 E37.70015
G1 X-3.643 Y37.33 E37.7425
G1 X-4.553 Y37.346 E37.78791
G1 X-5.142 Y37.385 E37.81736
G1 X-5.89 Y37.394 E37.85468
G1 X-6.635 Y37.324 E37.89201
G1 X-7.368 Y37.174 E37.92934
G1 X-8.068 Y36.952 E37.96598
G0 F3600 X-10.198 Y36.199
G1 F1800 X-22.606 Y36.2 E38.58501
G1 X-23.285 Y36.16 E38.61895
G1 X-23.956 Y36.041 E38.65295
G1 X-24.607 Y35.844 E38.68688
G1 X-25.039 Y35.656 E38.71039
G1 X-25.738 Y35.928 E38.74781
G1 X-26.397 Y36.099 E38.78177
G1 X-27.072 Y36.191 E38.81576
G1 X-27.997 Y36.188 E38.86191
G1 X-28.625 Y36.136 E38.89335
G1 X-29.06 Y36.136 E38.91505
G1 X-29.74 Y36.096 E38.94903
G1 X-30.41 Y35.977 E38.98298
G1 X-31.062 Y35.78 E39.01696
G1 X-31.686 Y35.508 E39.05092
G1 X-32.274 Y35.164 E39.08491
G1 X-32.818 Y34.754 E39.1189
G1 X-33.309 Y34.283 E39.15284
G1 X-33.743 Y33.758 E39.18682
G1 X-34.112 Y33.186 E39.22078
G1 X-34.411 Y32.574 E39.25477
G1 X-34.636 Y31.932 E39.28871
G1 X-34.785 Y31.267 E39.3227
G1 X-34.86 Y30.336 E39.3693
G1 X-34.86 Y-30.442 E42.40153
G1 X-34.785 Y-31.342 E42.44659
G1 X-34.629 Y-32.277 E42.49388
G1 X-34.468 Y-32.916 E42.52675
G1 X-34.157 Y-33.826 E42.57473
G1 X-33.892 Y-34.431 E42.60769
G1 X-33.433 Y-35.279 E42.65579
G1 X-33.072 Y-35.831 E42.6887
G1 X-32.486 Y-36.583 E42.73626
G1 X-32.036 Y-37.072 E42.76942
G1 X-31.335 Y-37.718 E42.81697
G1 X-30.817 Y-38.122 E42.84975
G1 X-30.004 Y-38.653 E42.89819
G1 X-29.422 Y-38.967 E42.93119
G1 X-28.552 Y-39.348 E42.97857
G1 X-27.926 Y-39.563 E43.01159
G1 X-26.997 Y-39.799 E43.05941
G1 X-26.344 Y-39.908 E43.09244
G1 X-25.389 Y-39.987 E43.14025
G1 X-24.731 Y-39.987 E43.17308
G1 X-23.776 Y-39.908 E43.22088
G1 X-23.123 Y-39.799 E43.25391
G1 X-22.194 Y-39.563 E43.30173
G1 X-21.568 Y-39.348 E43.33476
G1 X-20.698 Y-38.967 E43.38214
G1 X-20.116 Y-38.653 E43.41513
G1 X-19.303 Y-38.122 E43.46358
G1 X-18.785 Y-37.718 E43.49635
G1 X-18.084 Y-37.072 E43.54391
G1 X-17.634 Y-36.583 E43.57706
G1 X-17.048 Y-35.831 E43.62463
G1 X-16.56 Y-35.085 E43.6691
G1 X-16.072 Y-35.831 E43.71358
G1 X-15.486 Y-36.583 E43.76114
