;FLAVOR:Marlin
;TIME:2813
;Filament used: 2.33035m
;Layer height: 0.15
;MINX:-29.2
;MINY:-42.95
;MINZ:0.3
;MAXX:29.2
;MAXY:36.372
;MAXZ:9.3
;Generated with Cura_SteamEngine main
M140 S60
M105
M190 S60
M104 S200
M105
M109 S200
M82 ;absolute extrusion mode
G21 ;metric values
G90 ;absolute positioning
M82 ;set extruder to absolute mode
M107 ;start with the fan off
G28 ;Home all axes (max endstops)
G1 Z15.0 F9000 ;move the platform down 15mm
G92 E0 ;zero the extruded length
G1 F200 E3 ;extrude 3mm of feed stock
G92 E0 ;zero the extruded length again
G1 F9000
;Put printing message on LCD screen
M117 Printing...
G92 E0
G92 E0
G1 F1500 E-6.5
;LAYER_COUNT:61
;LAYER:0
M107
G0 F3600 X-21.399 Y-4.85 Z0.3
G0 X-25.853 Y-6.247
;TYPE:SKIRT
G1 F1500 E0
G1 F1800 X-26.477 Y-6.73 E0.03937
G1 X-27.05 Y-7.273 E0.07875
G1 X-27.565 Y-7.872 E0.11816
G1 X-28.016 Y-8.52 E0.15755
G1 X-28.4 Y-9.211 E0.19699
G1 X-28.712 Y-9.936 E0.23637
G1 X-28.949 Y-10.689 E0.27575
G1 X-29.108 Y-11.463 E0.31517
G1 X-29.199 Y-12.345 E0.35941
G1 X-29.2 Y-35.15 E1.49716
G1 X-29.16 Y-35.938 E1.53652
G1 X-29.041 Y-36.719 E1.57593
G1 X-28.843 Y-37.483 E1.61531
G1 X-28.569 Y-38.224 E1.65473
G1 X-28.221 Y-38.933 E1.69413
G1 X-27.804 Y-39.603 E1.7335
G1 X-27.321 Y-40.228 E1.77291
G1 X-26.777 Y-40.801 E1.81233
G1 X-26.178 Y-41.315 E1.8517
G1 X-25.53 Y-41.767 E1.89112
G1 X-24.84 Y-42.151 E1.93052
G1 X-24.114 Y-42.462 E1.96992
G1 X-23.361 Y-42.699 E2.00931
G1 X-22.588 Y-42.859 E2.04869
G1 X-21.705 Y-42.95 E2.09297
G1 X21.399 Y-42.95 E4.24344
G1 X22.188 Y-42.91 E4.28286
G1 X22.968 Y-42.791 E4.32222
G1 X23.733 Y-42.593 E4.36164
G1 X24.473 Y-42.319 E4.40101
G1 X25.182 Y-41.971 E4.44042
G1 X25.853 Y-41.553 E4.47986
G1 X26.477 Y-41.07 E4.51922
G1 X27.05 Y-40.527 E4.55861
G1 X27.565 Y-39.928 E4.59802
G1 X28.016 Y-39.28 E4.63741
G1 X28.4 Y-38.589 E4.67685
G1 X28.712 Y-37.864 E4.71622
G1 X28.949 Y-37.111 E4.75561
G1 X29.108 Y-36.337 E4.79503
G1 X29.199 Y-35.455 E4.83927
G1 X29.2 Y-12.65 E5.97701
G1 X29.16 Y-11.862 E6.01638
G1 X29.041 Y-11.081 E6.05579
G1 X28.843 Y-10.317 E6.09517
G1 X28.569 Y-9.576 E6.13458
G1 X28.221 Y-8.867 E6.17398
G1 X27.804 Y-8.197 E6.21336
G1 X27.321 Y-7.572 E6.25276
G1 X26.777 Y-6.999 E6.29218
G1 X26.178 Y-6.485 E6.33156
G1 X25.53 Y-6.033 E6.37098
G1 X24.84 Y-5.649 E6.41037
G1 X24.114 Y-5.338 E6.44978
G1 X23.361 Y-5.101 E6.48916
G1 X22.588 Y-4.941 E6.52854
G1 X21.705 Y-4.85 E6.57283
G1 X-21.399 Y-4.85 E8.7233
G1 X-22.188 Y-4.89 E8.76271
G1 X-22.968 Y-5.009 E8.80208
G1 X-23.733 Y-5.207 E8.8415
G1 X-24.473 Y-5.481 E8.88087
G1 X-25.182 Y-5.829 E8.92027
G1 X-25.853 Y-6.247 E8.95971
G1 F1500 E2.45971
G0 F3600 X-27.282 Y-10.693
G1 F1500 E8.95971
G1 F1800 X-27.466 Y-11.373 E8.99486
G1 X-27.572 Y-12.069 E9.02998
G1 X-27.599 Y-12.65 E9.059
G1 X-27.6 Y-35.15 E10.18153
G1 X-27.56 Y-35.853 E10.21666
G1 X-27.441 Y-36.546 E10.25174
G1 X-27.243 Y-37.222 E10.28688
G1 X-26.971 Y-37.871 E10.32199
G1 X-26.626 Y-38.485 E10.35712
G1 X-26.215 Y-39.056 E10.39222
G1 X-25.741 Y-39.577 E10.42736
G1 X-25.211 Y-40.04 E10.46247
G1 X-24.632 Y-40.441 E10.49761
G1 X-24.011 Y-40.773 E10.53274
G1 X-23.357 Y-41.033 E10.56786
G1 X-22.678 Y-41.217 E10.60295
G1 X-21.982 Y-41.323 E10.63808
G1 X-21.4 Y-41.35 E10.66714
G1 X21.399 Y-41.35 E12.8024
G1 X22.102 Y-41.31 E12.83753
G1 X22.796 Y-41.191 E12.87265
G1 X23.471 Y-40.993 E12.90775
G1 X24.12 Y-40.721 E12.94286
G1 X24.734 Y-40.376 E12.97799
G1 X25.305 Y-39.965 E13.01309
G1 X25.826 Y-39.491 E13.04823
G1 X26.29 Y-38.961 E13.08338
G1 X26.69 Y-38.382 E13.11849
G1 X27.022 Y-37.761 E13.15362
G1 X27.282 Y-37.107 E13.18873
G1 X27.466 Y-36.427 E13.22388
G1 X27.572 Y-35.731 E13.259
G1 X27.599 Y-35.15 E13.28802
G1 X27.6 Y-12.65 E14.41055
G1 X27.56 Y-11.947 E14.44568
G1 X27.441 Y-11.254 E14.48076
G1 X27.243 Y-10.578 E14.5159
G1 X26.971 Y-9.929 E14.55101
G1 X26.626 Y-9.315 E14.58614
G1 X26.215 Y-8.744 E14.62124
G1 X25.741 Y-8.223 E14.65638
G1 X25.211 Y-7.76 E14.69149
G1 X24.632 Y-7.359 E14.72663
G1 X24.011 Y-7.027 E14.76176
G1 X23.357 Y-6.767 E14.79687
G1 X22.678 Y-6.583 E14.83197
G1 X21.982 Y-6.477 E14.8671
G1 X21.4 Y-6.45 E14.89616
G1 X-21.399 Y-6.45 E17.03141
G1 X-22.102 Y-6.49 E17.06654
G1 X-22.796 Y-6.609 E17.10167
G1 X-23.471 Y-6.807 E17.13677
G1 X-24.12 Y-7.079 E17.17187
G1 X-24.734 Y-7.424 E17.20701
G1 X-25.305 Y-7.835 E17.24211
G1 X-25.826 Y-8.309 E17.27725
G1 X-26.29 Y-8.839 E17.3124
G1 X-26.69 Y-9.418 E17.3475
G1 X-27.022 Y-10.039 E17.38264
G1 X-27.282 Y-10.693 E17.41775
G0 F3600 X-27.199 Y-12.65
G1 F1800 X-27.2 Y-35.15 E18.54028
G1 X-27.16 Y-35.829 E18.57421
G1 X-27.041 Y-36.5 E18.60821
G1 X-26.844 Y-37.152 E18.64219
G1 X-26.572 Y-37.776 E18.67615
G1 X-26.228 Y-38.364 E18.71014
G1 X-25.818 Y-38.907 E18.74408
G1 X-25.348 Y-39.399 E18.77803
G1 X-24.822 Y-39.833 E18.81205
G1 X-24.25 Y-40.201 E18.84598
G1 X-23.638 Y-40.501 E18.87999
G1 X-22.996 Y-40.726 E18.91393
G1 X-22.332 Y-40.875 E18.94788
G1 X-21.4 Y-40.95 E18.99453
G1 X21.399 Y-40.95 E21.12978
G1 X22.079 Y-40.91 E21.16376
G1 X22.749 Y-40.791 E21.19771
G1 X23.401 Y-40.594 E21.23169
G1 X24.025 Y-40.322 E21.26565
G1 X24.613 Y-39.978 E21.29964
G1 X25.157 Y-39.568 E21.33363
G1 X25.648 Y-39.097 E21.36757
G1 X26.082 Y-38.572 E21.40155
G1 X26.451 Y-38 E21.43551
G1 X26.75 Y-37.388 E21.46949
G1 X26.975 Y-36.746 E21.50343
G1 X27.124 Y-36.081 E21.53743
G1 X27.199 Y-35.15 E21.58403
G1 X27.2 Y-12.65 E22.70656
G1 X27.16 Y-11.971 E22.7405
G1 X27.041 Y-11.3 E22.77449
G1 X26.844 Y-10.648 E22.80848
G1 X26.572 Y-10.024 E22.84244
G1 X26.228 Y-9.436 E22.87642
G1 X25.818 Y-8.893 E22.91037
G1 X25.348 Y-8.401 E22.94431
G1 X24.822 Y-7.967 E22.97834
G1 X24.25 Y-7.599 E23.01227
G1 X23.638 Y-7.299 E23.04627
G1 X22.996 Y-7.074 E23.08021
G1 X22.332 Y-6.925 E23.11416
G1 X21.4 Y-6.85 E23.16081
G1 X-21.399 Y-6.85 E25.29606
G1 X-22.079 Y-6.89 E25.33005
G1 X-22.749 Y-7.009 E25.364
G1 X-23.401 Y-7.206 E25.39798
G1 X-24.025 Y-7.478 E25.43194
G1 X-24.613 Y-7.822 E25.46592
G1 X-25.157 Y-8.232 E25.49991
G1 X-25.648 Y-8.703 E25.53385
G1 X-26.082 Y-9.228 E25.56784
G1 X-26.451 Y-9.8 E25.6018
G1 X-26.75 Y-10.412 E25.63578
G1 X-26.975 Y-11.054 E25.66972
G1 X-27.124 Y-11.719 E25.70372
G1 X-27.199 Y-12.65 E25.75032
G0 F3600 X-26.799 Y-12.65
G1 F1800 X-26.8 Y-35.15 E26.87285
G1 X-26.76 Y-35.806 E26.90563
G1 X-26.641 Y-36.452 E26.93841
G1 X-26.444 Y-37.078 E26.97115
G1 X-26.172 Y-37.677 E27.00397
G1 X-25.83 Y-38.237 E27.03671
G1 X-25.423 Y-38.753 E27.06949
G1 X-24.955 Y-39.214 E27.10227
G1 X-24.436 Y-39.616 E27.13502
G1 X-23.871 Y-39.952 E27.16781
G1 X-23.269 Y-40.216 E27.20061
G1 X-22.64 Y-40.406 E27.23339
G1 X-21.993 Y-40.517 E27.26614
G1 X-21.4 Y-40.55 E27.29577
G1 X21.399 Y-40.55 E29.43102
G1 X22.055 Y-40.51 E29.46381
G1 X22.701 Y-40.391 E29.49658
G1 X23.328 Y-40.194 E29.52937
G1 X23.926 Y-39.922 E29.56215
G1 X24.487 Y-39.58 E29.59493
G1 X25.002 Y-39.172 E29.62771
G1 X25.464 Y-38.705 E29.66048
G1 X25.865 Y-38.185 E29.69324
G1 X26.201 Y-37.621 E29.72599
G1 X26.465 Y-37.019 E29.75879
G1 X26.655 Y-36.39 E29.79157
G1 X26.766 Y-35.743 E29.82432
G1 X26.799 Y-35.15 E29.85395
G1 X26.8 Y-12.65 E30.97648
G1 X26.76 Y-11.994 E31.00927
G1 X26.641 Y-11.348 E31.04204
G1 X26.444 Y-10.722 E31.07478
G1 X26.172 Y-10.123 E31.1076
G1 X25.83 Y-9.563 E31.14034
G1 X25.423 Y-9.047 E31.17313
G1 X24.955 Y-8.586 E31.2059
G1 X24.436 Y-8.184 E31.23865
G1 X23.871 Y-7.848 E31.27145
G1 X23.269 Y-7.584 E31.30424
G1 X22.64 Y-7.394 E31.33702
G1 X21.993 Y-7.283 E31.36978
G1 X21.4 Y-7.25 E31.39941
G1 X-21.399 Y-7.25 E33.53466
G1 X-22.055 Y-7.29 E33.56745
G1 X-22.701 Y-7.409 E33.60022
G1 X-23.328 Y-7.606 E33.63301
G1 X-23.926 Y-7.878 E33.66578
G1 X-24.487 Y-8.22 E33.69856
G1 X-25.002 Y-8.628 E33.73134
G1 X-25.464 Y-9.095 E33.76411
G1 X-25.865 Y-9.615 E33.79687
G1 X-26.201 Y-10.179 E33.82963
G1 X-26.465 Y-10.781 E33.86242
G1 X-26.655 Y-11.41 E33.8952
G1 X-26.766 Y-12.057 E33.92795
G1 X-26.799 Y-12.65 E33.95758
G0 F3600 X-26.399 Y-12.65
G1 F1800 X-26.4 Y-35.15 E35.08011
G1 X-26.36 Y-35.781 E35.11166
G1 X-26.241 Y-36.401 E35.14315
G1 X-26.044 Y-37.002 E35.17471
G1 X-25.773 Y-37.573 E35.20624
G1 X-25.433 Y-38.106 E35.23778
G1 X-25.028 Y-38.591 E35.26931
G1 X-24.564 Y-39.021 E35.30087
G1 X-24.051 Y-39.39 E35.33239
G1 X-23.494 Y-39.69 E35.36396
G1 X-22.905 Y-39.918 E35.39547
G1 X-22.291 Y-40.07 E35.42702
G1 X-21.4 Y-40.15 E35.47166
G1 X21.399 Y-40.15 E37.60691
G1 X22.03 Y-40.11 E37.63845
G1 X22.651 Y-39.991 E37.67
G1 X23.251 Y-39.794 E37.7015
G1 X23.823 Y-39.523 E37.73308
G1 X24.355 Y-39.183 E37.76458
G1 X24.84 Y-38.777 E37.79613
G1 X25.27 Y-38.314 E37.82766
G1 X25.639 Y-37.8 E37.85923
G1 X25.939 Y-37.244 E37.89075
G1 X26.167 Y-36.655 E37.92226
G1 X26.319 Y-36.041 E37.95381
G1 X26.399 Y-35.15 E37.99844
G1 X26.4 Y-12.65 E39.12097
G1 X26.36 Y-12.019 E39.15252
G1 X26.241 Y-11.399 E39.18401
G1 X26.044 Y-10.798 E39.21557
G1 X25.773 Y-10.227 E39.2471
G1 X25.433 Y-9.694 E39.27864
G1 X25.028 Y-9.209 E39.31017
G1 X24.564 Y-8.779 E39.34173
G1 X24.051 Y-8.41 E39.37325
G1 X23.494 Y-8.11 E39.40482
G1 X22.905 Y-7.882 E39.43633
G1 X22.291 Y-7.73 E39.46788
G1 X21.4 Y-7.65 E39.51251
G1 X-21.399 Y-7.65 E41.64777
G1 X-22.03 Y-7.69 E41.67931
G1 X-22.651 Y-7.809 E41.71086
G1 X-23.251 Y-8.006 E41.74236
G1 X-23.823 Y-8.277 E41.77394
G1 X-24.355 Y-8.617 E41.80544
G1 X-24.84 Y-9.023 E41.83699
G1 X-25.27 Y-9.486 E41.86852
G1 X-25.639 Y-10 E41.90009
G1 X-25.939 Y-10.556 E41.93161
G1 X-26.167 Y-11.145 E41.96312
G1 X-26.319 Y-11.759 E41.99467
G1 X-26.399 Y-12.65 E42.0393
G0 F3600 X-25.999 Y-12.65
G1 F1800 X-26 Y-35.15 E43.16183
G1 X-25.96 Y-35.755 E43.19208
G1 X-25.841 Y-36.349 E43.22231
G1 X-25.645 Y-36.923 E43.25257
G1 X-25.375 Y-37.466 E43.28282
G1 X-25.035 Y-37.968 E43.31307
G1 X-24.633 Y-38.422 E43.34332
G1 X-24.175 Y-38.819 E43.37356
G1 X-23.668 Y-39.152 E43.40382
G1 X-23.122 Y-39.415 E43.43406
G1 X-22.546 Y-39.605 E43.46432
G1 X-21.95 Y-39.717 E43.49458
G1 X-21.4 Y-39.75 E43.52206
G1 X21.399 Y-39.75 E45.65731
G1 X22.004 Y-39.71 E45.68756
G1 X22.598 Y-39.591 E45.71779
G1 X23.172 Y-39.395 E45.74805
G1 X23.715 Y-39.124 E45.77833
G1 X24.218 Y-38.785 E45.80859
G1 X24.671 Y-38.383 E45.8388
G1 X25.068 Y-37.925 E45.86904
G1 X25.401 Y-37.418 E45.8993
G1 X25.665 Y-36.872 E45.92956
G1 X25.854 Y-36.296 E45.95981
G1 X25.966 Y-35.7 E45.99006
G1 X25.999 Y-35.15 E46.01755
G1 X26 Y-12.65 E47.14008
G1 X25.96 Y-12.045 E47.17033
G1 X25.841 Y-11.451 E47.20055
G1 X25.645 Y-10.877 E47.23081
G1 X25.375 Y-10.334 E47.26107
G1 X25.035 Y-9.832 E47.29132
G1 X24.633 Y-9.378 E47.32157
G1 X24.175 Y-8.981 E47.35181
G1 X23.668 Y-8.648 E47.38207
G1 X23.122 Y-8.385 E47.41231
G1 X22.546 Y-8.195 E47.44257
G1 X21.95 Y-8.083 E47.47282
G1 X21.4 Y-8.05 E47.50031
G1 X-21.399 Y-8.05 E49.63556
G1 X-22.004 Y-8.09 E49.66581
G1 X-22.598 Y-8.209 E49.69603
G1 X-23.172 Y-8.405 E49.72629
G1 X-23.715 Y-8.676 E49.75657
G1 X-24.218 Y-9.015 E49.78683
G1 X-24.671 Y-9.417 E49.81705
G1 X-25.068 Y-9.875 E49.84729
G1 X-25.401 Y-10.382 E49.87755
G1 X-25.665 Y-10.928 E49.90781
G1 X-25.854 Y-11.504 E49.93805
G1 X-25.966 Y-12.1 E49.96831
G1 X-25.999 Y-12.65 E49.9958
G0 F3600 X-25.599 Y-12.65
G1 F1800 X-25.6 Y-35.15 E51.11833
G1 X-25.56 Y-35.728 E51.14723
G1 X-25.441 Y-36.295 E51.17614
G1 X-25.245 Y-36.84 E51.20503
G1 X-24.976 Y-37.353 E51.23393
G1 X-24.639 Y-37.824 E51.26282
G1 X-24.24 Y-38.244 E51.29173
G1 X-23.787 Y-38.606 E51.32066
G1 X-23.289 Y-38.901 E51.34953
G1 X-22.755 Y-39.125 E51.37842
G1 X-22.195 Y-39.274 E51.40733
G1 X-21.4 Y-39.35 E51.44718
G1 X21.399 Y-39.35 E53.58243
G1 X21.977 Y-39.31 E53.61133
G1 X22.544 Y-39.191 E53.64024
G1 X23.089 Y-38.995 E53.66913
G1 X23.602 Y-38.726 E53.69803
G1 X24.073 Y-38.389 E53.72692
G1 X24.493 Y-37.99 E53.75583
G1 X24.855 Y-37.537 E53.78476
G1 X25.15 Y-37.039 E53.81363
G1 X25.375 Y-36.505 E53.84254
G1 X25.523 Y-35.945 E53.87144
G1 X25.599 Y-35.15 E53.91129
G1 X25.6 Y-12.65 E55.03381
G1 X25.56 Y-12.072 E55.06272
G1 X25.441 Y-11.505 E55.09162
G1 X25.245 Y-10.96 E55.12052
G1 X24.976 Y-10.447 E55.14942
G1 X24.639 Y-9.976 E55.17831
G1 X24.24 Y-9.556 E55.20721
G1 X23.787 Y-9.194 E55.23614
G1 X23.289 Y-8.899 E55.26502
G1 X22.755 Y-8.675 E55.29391
G1 X22.195 Y-8.526 E55.32282
G1 X21.4 Y-8.45 E55.36267
G1 X-21.399 Y-8.45 E57.49792
G1 X-21.977 Y-8.49 E57.52682
G1 X-22.544 Y-8.609 E57.55573
G1 X-23.089 Y-8.805 E57.58462
G1 X-23.602 Y-9.074 E57.61352
G1 X-24.073 Y-9.411 E57.64241
G1 X-24.493 Y-9.81 E57.67132
G1 X-24.855 Y-10.263 E57.70025
G1 X-25.15 Y-10.761 E57.72912
G1 X-25.375 Y-11.295 E57.75803
G1 X-25.523 Y-11.855 E57.78693
G1 X-25.599 Y-12.65 E57.82677
G0 F3600 X-25.199 Y-12.65
G1 F1800 X-25.2 Y-35.15 E58.9493
G1 X-25.16 Y-35.699 E58.97677
G1 X-25.041 Y-36.237 E59.00426
G1 X-24.846 Y-36.753 E59.03178
G1 X-24.578 Y-37.234 E59.05925
G1 X-24.243 Y-37.672 E59.08676
G1 X-23.848 Y-38.056 E59.11424
G1 X-23.402 Y-38.38 E59.14174
G1 X-22.914 Y-38.635 E59.16921
G1 X-22.394 Y-38.818 E59.19672
G1 X-21.853 Y-38.923 E59.22421
G1 X-21.4 Y-38.95 E59.24685
G1 X21.399 Y-38.95 E61.3821
G1 X21.949 Y-38.91 E61.40961
G1 X22.487 Y-38.791 E61.4371
G1 X23.002 Y-38.595 E61.46459
G1 X23.483 Y-38.327 E61.49207
G1 X23.921 Y-37.993 E61.51955
G1 X24.305 Y-37.598 E61.54703
G1 X24.629 Y-37.152 E61.57453
G1 X24.884 Y-36.664 E61.602
G1 X25.067 Y-36.144 E61.6295
G1 X25.172 Y-35.603 E61.657
G1 X25.199 Y-35.15 E61.67964
G1 X25.2 Y-12.65 E62.80217
G1 X25.16 Y-12.101 E62.82963
G1 X25.041 Y-11.563 E62.85712
G1 X24.846 Y-11.047 E62.88464
G1 X24.578 Y-10.566 E62.91211
G1 X24.243 Y-10.128 E62.93962
G1 X23.848 Y-9.744 E62.96711
G1 X23.402 Y-9.42 E62.99461
G1 X22.914 Y-9.165 E63.02208
G1 X22.394 Y-8.982 E63.04958
G1 X21.853 Y-8.877 E63.07708
G1 X21.4 Y-8.85 E63.09972
G1 X-21.399 Y-8.85 E65.23497
G1 X-21.949 Y-8.89 E65.26248
G1 X-22.487 Y-9.009 E65.28997
G1 X-23.002 Y-9.205 E65.31746
G1 X-23.483 Y-9.473 E65.34493
G1 X-23.921 Y-9.807 E65.37241
G1 X-24.305 Y-10.202 E65.3999
G1 X-24.629 Y-10.648 E65.4274
G1 X-24.884 Y-11.136 E65.45487
G1 X-25.067 Y-11.656 E65.48237
G1 X-25.172 Y-12.197 E65.50986
G1 X-25.199 Y-12.65 E65.53251
G0 F3600 X-24.799 Y-12.65
G1 F1800 X-24.8 Y-35.15 E66.65503
G1 X-24.76 Y-35.669 E66.681
G1 X-24.641 Y-36.177 E66.70703
G1 X-24.446 Y-36.66 E66.73302
G1 X-24.18 Y-37.108 E66.75902
G1 X-23.848 Y-37.51 E66.78503
G1 X-23.458 Y-37.856 E66.81104
G1 X-23.021 Y-38.139 E66.83701
G1 X-22.545 Y-38.351 E66.86301
G1 X-22.042 Y-38.489 E66.88903
G1 X-21.4 Y-38.55 E66.9212
G1 X21.399 Y-38.55 E69.05645
G1 X21.919 Y-38.51 E69.08247
G1 X22.426 Y-38.391 E69.10846
G1 X22.909 Y-38.196 E69.13444
G1 X23.357 Y-37.93 E69.16044
G1 X23.759 Y-37.598 E69.18645
G1 X24.105 Y-37.208 E69.21246
G1 X24.388 Y-36.77 E69.23848
G1 X24.601 Y-36.295 E69.26445
G1 X24.738 Y-35.792 E69.29046
G1 X24.799 Y-35.15 E69.32263
G1 X24.8 Y-12.65 E70.44516
G1 X24.76 Y-12.131 E70.47113
G1 X24.641 Y-11.623 E70.49716
G1 X24.446 Y-11.14 E70.52315
G1 X24.18 Y-10.692 E70.54914
G1 X23.848 Y-10.29 E70.57515
G1 X23.458 Y-9.944 E70.60116
G1 X23.021 Y-9.661 E70.62714
G1 X22.545 Y-9.449 E70.65313
G1 X22.042 Y-9.311 E70.67915
G1 X21.4 Y-9.25 E70.71133
G1 X-21.399 Y-9.25 E72.84658
G1 X-21.919 Y-9.29 E72.8726
G1 X-22.426 Y-9.409 E72.89858
G1 X-22.909 Y-9.604 E72.92457
G1 X-23.357 Y-9.87 E72.95056
G1 X-23.759 Y-10.202 E72.97657
G1 X-24.105 Y-10.592 E73.00258
G1 X-24.388 Y-11.03 E73.0286
G1 X-24.601 Y-11.505 E73.05457
G1 X-24.738 Y-12.008 E73.08058
G1 X-24.799 Y-12.65 E73.11275
G0 F3600 X-24.399 Y-12.429
G1 F1800 X-24.4 Y-35.15 E74.24631
G1 X-24.36 Y-35.638 E74.27074
G1 X-24.241 Y-36.113 E74.29517
G1 X-24.047 Y-36.562 E74.31957
G1 X-23.782 Y-36.974 E74.34401
G1 X-23.454 Y-37.337 E74.36842
G1 X-23.071 Y-37.642 E74.39284
G1 X-22.644 Y-37.88 E74.41723
G1 X-22.183 Y-38.046 E74.44168
G1 X-21.621 Y-38.15 E74.47019
G1 X21.399 Y-38.15 E76.61647
G1 X21.887 Y-38.11 E76.6409
G1 X22.362 Y-37.991 E76.66533
G1 X22.811 Y-37.797 E76.68973
G1 X23.223 Y-37.532 E76.71417
G1 X23.586 Y-37.204 E76.73858
G1 X23.891 Y-36.821 E76.763
G1 X24.129 Y-36.393 E76.78743
G1 X24.295 Y-35.933 E76.81183
G1 X24.399 Y-35.371 E76.84035
G1 X24.4 Y-12.65 E77.9739
G1 X24.36 Y-12.162 E77.99833
G1 X24.241 Y-11.687 E78.02276
G1 X24.047 Y-11.238 E78.04716
G1 X23.782 Y-10.826 E78.0716
G1 X23.454 Y-10.463 E78.09601
G1 X23.071 Y-10.158 E78.12044
