;FLAVOR:Marlin
;TIME:4265
;Filament used: 3.76634m
;Layer height: 0.15
;MINX:-41.751
;MINY:-48.762
;MINZ:0.3
;MAXX:31.93
;MAXY:48.762
;MAXZ:6.3
;Generated with Cura_SteamEngine main
M140 S60
M105
M190 S60
M104 S200
M105
M109 S200
M82 ;absolute extrusion mode
G21 ;metric values
G90 ;absolute positioning
M82 ;set extruder to absolute mode
M107 ;start with the fan off
G28 ;Home all axes (max endstops)
G1 Z15.0 F9000 ;move the platform down 15mm
G92 E0 ;zero the extruded length
G1 F200 E3 ;extrude 3mm of feed stock
G92 E0 ;zero the extruded length again
G1 F9000
;Put printing message on LCD screen
M117 Printing...
G92 E0
G92 E0
G1 F1500 E-6.5
;LAYER_COUNT:41
;LAYER:0
M107
G0 F3600 X-4.908 Y35.236 Z0.3
G0 X-6.748 Y39.503
;TYPE:SKIRT
G1 F1500 E0
G1 F1800 X-7.742 Y41.023 E0.09061
G1 X-8.287 Y41.771 E0.13678
G1 X-9.76 Y43.373 E0.24536
G1 X-10.323 Y43.927 E0.28476
G1 X-10.713 Y44.25 E0.31003
G1 X-12.145 Y45.364 E0.40054
G1 X-12.91 Y45.9 E0.44714
G1 X-14.824 Y46.935 E0.5557
G1 X-15.663 Y47.335 E0.60207
G1 X-17.718 Y48.04 E0.71046
G1 X-18.608 Y48.296 E0.75666
G1 X-20.758 Y48.655 E0.86541
G1 X-21.543 Y48.746 E0.90484
G1 X-22.044 Y48.762 E0.92985
G1 X-23.859 Y48.762 E1.0204
G1 X-24.648 Y48.722 E1.05981
G1 X-25.145 Y48.655 E1.08483
G1 X-26.94 Y48.355 E1.17563
G1 X-27.845 Y48.157 E1.22184
G1 X-29.899 Y47.452 E1.33019
G1 X-30.766 Y47.104 E1.3768
G1 X-32.68 Y46.069 E1.48535
G1 X-33.355 Y45.658 E1.52478
G1 X-33.76 Y45.363 E1.54978
G1 X-35.191 Y44.249 E1.64025
G1 X-35.789 Y43.733 E1.67966
G1 X-36.14 Y43.376 E1.70464
G1 X-37.373 Y42.036 E1.79548
G1 X-37.968 Y41.319 E1.84197
G1 X-39.155 Y39.503 E1.95021
G1 X-39.553 Y38.821 E1.9896
G1 X-39.771 Y38.366 E2.01477
G1 X-40.5 Y36.703 E2.10536
G1 X-40.83 Y35.832 E2.15183
G1 X-41.363 Y33.725 E2.26026
G1 X-41.544 Y32.813 E2.30665
G1 X-41.724 Y30.645 E2.41518
G1 X-41.751 Y30.001 E2.44734
G1 X-41.751 Y-29.999 E5.44075
G1 X-41.724 Y-30.642 E5.47286
G1 X-41.574 Y-32.455 E5.56362
G1 X-41.452 Y-33.373 E5.60982
G1 X-40.918 Y-35.484 E5.71846
G1 X-40.645 Y-36.372 E5.76481
G1 X-39.771 Y-38.366 E5.87342
G1 X-39.418 Y-39.072 E5.9128
G1 X-39.155 Y-39.503 E5.93799
G1 X-38.161 Y-41.023 E6.0286
G1 X-37.612 Y-41.776 E6.07509
G1 X-36.14 Y-43.376 E6.18356
G1 X-35.576 Y-43.929 E6.22297
G1 X-35.191 Y-44.249 E6.24794
G1 X-33.76 Y-45.363 E6.33842
G1 X-33.114 Y-45.816 E6.37778
G1 X-32.68 Y-46.069 E6.40285
G1 X-31.079 Y-46.935 E6.49366
G1 X-30.24 Y-47.335 E6.54003
G1 X-28.185 Y-48.04 E6.64842
G1 X-27.295 Y-48.296 E6.69462
G1 X-25.145 Y-48.655 E6.80337
G1 X-24.36 Y-48.746 E6.8428
G1 X-23.859 Y-48.762 E6.8678
G1 X-22.044 Y-48.762 E6.95835
G1 X-21.255 Y-48.722 E6.99777
G1 X-20.758 Y-48.655 E7.02279
G1 X-18.963 Y-48.355 E7.11358
G1 X-18.058 Y-48.157 E7.1598
G1 X-16.004 Y-47.452 E7.26814
G1 X-15.137 Y-47.104 E7.31475
G1 X-13.223 Y-46.069 E7.42331
G1 X-12.433 Y-45.588 E7.46945
G1 X-10.713 Y-44.25 E7.57817
G1 X-10.115 Y-43.735 E7.61754
G1 X-9.76 Y-43.373 E7.64284
G1 X-8.528 Y-42.033 E7.73365
G1 X-7.937 Y-41.321 E7.77982
G1 X-6.748 Y-39.503 E7.8882
G1 X-6.35 Y-38.821 E7.92759
G1 X-6.134 Y-38.37 E7.95254
G1 X-5.405 Y-36.71 E8.04299
G1 X-5.125 Y-35.972 E8.08237
G1 X-4.912 Y-35.239 E8.12045
G1 X-4.605 Y-36.239 E8.17264
G1 X-4.417 Y-36.706 E8.19776
G1 X-3.687 Y-38.369 E8.28837
G1 X-3.334 Y-39.075 E8.32775
G1 X-3.073 Y-39.503 E8.35276
G1 X-2.079 Y-41.023 E8.44336
G1 X-1.534 Y-41.771 E8.48954
G1 X-0.061 Y-43.373 E8.59811
G1 X0.502 Y-43.927 E8.63752
G1 X0.892 Y-44.25 E8.66278
G1 X2.324 Y-45.364 E8.7533
G1 X3.089 Y-45.9 E8.7999
G1 X5.003 Y-46.935 E8.90846
G1 X5.842 Y-47.335 E8.95483
G1 X7.897 Y-48.04 E9.06322
G1 X8.787 Y-48.296 E9.10942
G1 X10.937 Y-48.655 E9.21817
G1 X11.722 Y-48.746 E9.25759
G1 X12.223 Y-48.762 E9.2826
G1 X14.038 Y-48.762 E9.37315
G1 X14.827 Y-48.722 E9.41257
G1 X15.324 Y-48.655 E9.43759
G1 X17.119 Y-48.355 E9.52838
G1 X18.024 Y-48.157 E9.5746
G1 X20.078 Y-47.452 E9.68294
G1 X20.945 Y-47.104 E9.72955
G1 X22.859 Y-46.069 E9.83811
G1 X23.534 Y-45.658 E9.87754
G1 X23.939 Y-45.363 E9.90253
G1 X25.37 Y-44.249 E9.99301
G1 X25.968 Y-43.733 E10.03241
G1 X26.319 Y-43.376 E10.05739
G1 X27.552 Y-42.036 E10.14824
G1 X28.147 Y-41.319 E10.19472
G1 X29.334 Y-39.503 E10.30296
G1 X29.732 Y-38.821 E10.34236
G1 X29.949 Y-38.367 E10.36746
G1 X30.677 Y-36.707 E10.45789
G1 X31.01 Y-35.829 E10.50474
G1 X31.542 Y-33.726 E10.61297
G1 X31.723 Y-32.815 E10.6593
G1 X31.903 Y-30.645 E10.76794
G1 X31.93 Y-30.001 E10.8001
G1 X31.93 Y29.999 E13.79351
G1 X31.903 Y30.642 E13.82562
G1 X31.753 Y32.455 E13.91638
G1 X31.631 Y33.373 E13.96258
G1 X31.097 Y35.484 E14.07121
G1 X30.824 Y36.372 E14.11756
G1 X29.95 Y38.366 E14.22618
G1 X29.597 Y39.072 E14.26556
G1 X29.334 Y39.503 E14.29075
G1 X28.34 Y41.023 E14.38136
G1 X27.791 Y41.776 E14.42785
G1 X26.319 Y43.376 E14.53632
G1 X25.755 Y43.929 E14.57572
G1 X25.37 Y44.249 E14.6007
G1 X23.939 Y45.363 E14.69118
G1 X23.293 Y45.816 E14.73054
G1 X22.859 Y46.069 E14.7556
G1 X21.258 Y46.935 E14.84641
G1 X20.419 Y47.335 E14.89278
G1 X18.364 Y48.04 E15.00117
G1 X17.474 Y48.296 E15.04738
G1 X15.324 Y48.655 E15.15613
G1 X14.539 Y48.746 E15.19555
G1 X14.038 Y48.762 E15.22056
G1 X12.223 Y48.762 E15.31111
G1 X11.434 Y48.722 E15.35052
G1 X10.937 Y48.655 E15.37554
G1 X9.142 Y48.355 E15.46634
G1 X8.237 Y48.157 E15.51256
G1 X6.183 Y47.452 E15.6209
G1 X5.316 Y47.104 E15.66751
G1 X3.402 Y46.069 E15.77607
G1 X2.612 Y45.588 E15.82221
G1 X0.892 Y44.25 E15.93093
G1 X0.294 Y43.735 E15.9703
G1 X-0.061 Y43.373 E15.9956
G1 X-1.293 Y42.033 E16.08641
G1 X-1.884 Y41.321 E16.13258
G1 X-3.073 Y39.503 E16.24095
G1 X-3.471 Y38.821 E16.28035
G1 X-3.687 Y38.369 E16.30534
G1 X-4.417 Y36.706 E16.39595
G1 X-4.698 Y35.968 E16.43535
G1 X-4.908 Y35.236 E16.47334
G1 X-5.216 Y36.239 E16.52568
G1 X-5.404 Y36.706 E16.5508
G1 X-6.134 Y38.369 E16.64141
G1 X-6.487 Y39.075 E16.68079
G1 X-6.748 Y39.503 E16.7058
G1 F1500 E10.2058
G0 F3600 X-10.054 Y43.102
G1 F1500 E16.7058
G1 F1800 X-10.696 Y43.731 E16.75064
G1 X-12.39 Y45.049 E16.85772
G1 X-13.123 Y45.56 E16.9023
G1 X-15.014 Y46.583 E17.00956
G1 X-15.824 Y46.968 E17.05431
G1 X-17.848 Y47.662 E17.16106
G1 X-18.706 Y47.907 E17.20557
G1 X-20.824 Y48.261 E17.31271
G1 X-21.711 Y48.362 E17.35724
G1 X-23.859 Y48.362 E17.46441
G1 X-24.753 Y48.315 E17.50907
G1 X-26.874 Y47.961 E17.61635
G1 X-27.744 Y47.769 E17.6608
G1 X-29.769 Y47.074 E17.76761
G1 X-30.595 Y46.742 E17.81203
G1 X-32.49 Y45.717 E17.91951
G1 X-33.255 Y45.249 E17.96425
G1 X-34.946 Y43.933 E18.07116
G1 X-35.62 Y43.349 E18.11565
G1 X-37.078 Y41.765 E18.22306
G1 X-37.647 Y41.078 E18.26756
G1 X-38.82 Y39.284 E18.3745
G1 X-39.27 Y38.511 E18.41912
G1 X-40.133 Y36.542 E18.52638
G1 X-40.449 Y35.704 E18.57106
G1 X-40.975 Y33.627 E18.67795
G1 X-41.149 Y32.753 E18.72241
G1 X-41.326 Y30.612 E18.82959
G1 X-41.351 Y30.001 E18.8601
G1 X-41.351 Y-29.999 E21.85351
G1 X-41.326 Y-30.609 E21.88397
G1 X-41.176 Y-32.422 E21.97473
G1 X-41.057 Y-33.303 E22.01908
G1 X-40.53 Y-35.386 E22.12628
G1 X-40.268 Y-36.233 E22.17051
G1 X-39.404 Y-38.205 E22.27792
G1 X-39.002 Y-39.006 E22.32263
G1 X-37.826 Y-40.804 E22.42982
G1 X-37.299 Y-41.525 E22.47438
G1 X-35.845 Y-43.105 E22.5815
G1 X-35.209 Y-43.728 E22.62592
G1 X-33.515 Y-45.047 E22.73303
G1 X-32.783 Y-45.558 E22.77757
G1 X-30.889 Y-46.583 E22.88501
G1 X-30.079 Y-46.968 E22.92975
G1 X-28.055 Y-47.662 E23.0365
G1 X-27.197 Y-47.907 E23.08102
G1 X-25.079 Y-48.261 E23.18815
G1 X-24.192 Y-48.362 E23.23269
G1 X-22.044 Y-48.362 E23.33985
G1 X-21.15 Y-48.315 E23.38452
G1 X-19.029 Y-47.961 E23.4918
G1 X-18.159 Y-47.769 E23.53625
G1 X-16.134 Y-47.074 E23.64306
G1 X-15.308 Y-46.742 E23.68747
G1 X-13.413 Y-45.717 E23.79496
G1 X-12.646 Y-45.248 E23.83981
G1 X-10.958 Y-43.935 E23.9465
G1 X-10.281 Y-43.349 E23.99117
G1 X-8.822 Y-41.762 E24.09872
G1 X-8.257 Y-41.08 E24.14291
G1 X-7.083 Y-39.284 E24.24996
G1 X-6.635 Y-38.514 E24.2944
G1 X-5.772 Y-36.549 E24.40147
G1 X-5.453 Y-35.709 E24.4463
G1 X-4.911 Y-33.549 E24.55741
G1 X-4.449 Y-35.386 E24.65191
G1 X-4.186 Y-36.237 E24.69635
G1 X-3.321 Y-38.208 E24.80373
G1 X-2.924 Y-38.999 E24.84789
G1 X-1.744 Y-40.804 E24.95547
G1 X-1.217 Y-41.525 E25.00003
G1 X0.233 Y-43.102 E25.10691
G1 X0.875 Y-43.731 E25.15175
G1 X2.569 Y-45.049 E25.25883
G1 X3.302 Y-45.56 E25.30341
G1 X5.193 Y-46.583 E25.41067
G1 X6.003 Y-46.968 E25.45542
G1 X8.027 Y-47.662 E25.56216
G1 X8.885 Y-47.907 E25.60668
G1 X11.003 Y-48.261 E25.71381
G1 X11.89 Y-48.362 E25.75835
G1 X14.038 Y-48.362 E25.86552
G1 X14.932 Y-48.315 E25.91018
G1 X17.053 Y-47.961 E26.01746
G1 X17.923 Y-47.769 E26.06191
G1 X19.948 Y-47.074 E26.16872
G1 X20.774 Y-46.742 E26.21314
G1 X22.669 Y-45.717 E26.32062
G1 X23.434 Y-45.249 E26.36536
G1 X25.125 Y-43.933 E26.47227
G1 X25.799 Y-43.349 E26.51676
G1 X27.257 Y-41.765 E26.62416
G1 X27.826 Y-41.078 E26.66867
G1 X28.999 Y-39.284 E26.77561
G1 X29.45 Y-38.508 E26.82038
G1 X30.311 Y-36.546 E26.92728
G1 X30.626 Y-35.712 E26.97176
G1 X31.154 Y-33.628 E27.07901
G1 X31.328 Y-32.744 E27.12396
G1 X31.505 Y-30.612 E27.23069
G1 X31.53 Y-30.001 E27.2612
G1 X31.53 Y29.999 E30.25461
G1 X31.505 Y30.609 E30.28507
G1 X31.355 Y32.422 E30.37583
G1 X31.236 Y33.303 E30.42019
G1 X30.709 Y35.386 E30.52738
G1 X30.447 Y36.233 E30.57161
G1 X29.583 Y38.205 E30.67903
G1 X29.181 Y39.006 E30.72374
G1 X28.005 Y40.804 E30.83092
G1 X27.478 Y41.525 E30.87548
G1 X26.024 Y43.105 E30.9826
G1 X25.388 Y43.728 E31.02702
G1 X23.694 Y45.047 E31.13413
G1 X22.962 Y45.558 E31.17867
G1 X21.068 Y46.583 E31.28611
G1 X20.258 Y46.968 E31.33086
G1 X18.234 Y47.662 E31.43761
G1 X17.376 Y47.907 E31.48212
G1 X15.258 Y48.261 E31.58926
G1 X14.371 Y48.362 E31.63379
G1 X12.223 Y48.362 E31.74096
G1 X11.329 Y48.315 E31.78562
G1 X9.208 Y47.961 E31.8929
G1 X8.338 Y47.769 E31.93735
G1 X6.313 Y47.074 E32.04416
G1 X5.487 Y46.742 E32.08858
G1 X3.592 Y45.717 E32.19606
G1 X2.825 Y45.248 E32.24092
G1 X1.137 Y43.935 E32.34761
G1 X0.46 Y43.349 E32.39228
G1 X-.999 Y41.762 E32.49983
G1 X-1.564 Y41.08 E32.54401
G1 X-2.738 Y39.284 E32.65106
G1 X-3.188 Y38.51 E32.69573
G1 X-4.051 Y36.545 E32.8028
G1 X-4.369 Y35.703 E32.8477
G1 X-4.91 Y33.548 E32.95855
G1 X-5.372 Y35.386 E33.0531
G1 X-5.635 Y36.237 E33.09754
G1 X-6.5 Y38.208 E33.20493
G1 X-6.897 Y38.999 E33.24908
G1 X-8.077 Y40.804 E33.35667
G1 X-8.604 Y41.525 E33.40123
G1 X-10.054 Y43.102 E33.50811
G1 F1500 E27.00811
G0 F3600 X-13.337 Y45.221
G1 F1500 E33.50811
G1 F1800 X-15.205 Y46.231 E33.61405
G1 X-15.978 Y46.597 E33.65672
G1 X-17.978 Y47.283 E33.76221
G1 X-18.794 Y47.516 E33.80454
G1 X-20.89 Y47.866 E33.91056
G1 X-21.739 Y47.962 E33.95319
G1 X-23.859 Y47.962 E34.05896
G1 X-24.712 Y47.916 E34.10157
G1 X-26.808 Y47.566 E34.20759
G1 X-27.635 Y47.382 E34.24986
G1 X-29.639 Y46.695 E34.35555
G1 X-30.431 Y46.376 E34.39815
G1 X-32.299 Y45.365 E34.50412
G1 X-33.036 Y44.913 E34.54725
G1 X-34.7 Y43.618 E34.65245
G1 X-35.347 Y43.056 E34.6952
G1 X-36.784 Y41.494 E34.80109
G1 X-37.327 Y40.837 E34.84362
G1 X-38.486 Y39.065 E34.94925
G1 X-38.915 Y38.326 E34.99188
G1 X-39.767 Y36.381 E35.09782
G1 X-40.069 Y35.579 E35.14058
G1 X-40.587 Y33.529 E35.24607
G1 X-40.752 Y32.695 E35.28848
G1 X-40.927 Y30.579 E35.39441
G1 X-40.951 Y30.001 E35.42327
G1 X-40.951 Y-29.999 E38.41668
G1 X-40.927 Y-30.576 E38.44549
G1 X-40.777 Y-32.389 E38.53625
G1 X-40.662 Y-33.232 E38.5787
G1 X-40.142 Y-35.288 E38.68451
G1 X-39.888 Y-36.105 E38.72719
G1 X-39.038 Y-38.044 E38.83281
G1 X-38.653 Y-38.81 E38.87559
G1 X-37.492 Y-40.585 E38.9814
G1 X-36.983 Y-41.277 E39.02426
G1 X-35.551 Y-42.834 E39.1298
G1 X-34.935 Y-43.435 E39.17273
G1 X-33.269 Y-44.732 E39.27807
G1 X-32.568 Y-45.219 E39.32065
G1 X-30.698 Y-46.231 E39.42673
G1 X-29.925 Y-46.597 E39.4694
G1 X-27.925 Y-47.283 E39.57489
G1 X-27.109 Y-47.516 E39.61723
G1 X-25.013 Y-47.866 E39.72324
G1 X-24.164 Y-47.962 E39.76587
G1 X-22.044 Y-47.962 E39.87164
G1 X-21.191 Y-47.916 E39.91426
G1 X-19.095 Y-47.566 E40.02027
G1 X-18.268 Y-47.382 E40.06254
G1 X-16.264 Y-46.695 E40.16823
G1 X-15.472 Y-46.376 E40.21083
G1 X-13.604 Y-45.365 E40.3168
G1 X-12.871 Y-44.916 E40.35968
G1 X-11.204 Y-43.619 E40.46506
G1 X-10.555 Y-43.057 E40.50789
G1 X-9.117 Y-41.492 E40.61392
G1 X-8.573 Y-40.832 E40.6566
G1 X-7.417 Y-39.065 E40.76194
G1 X-6.989 Y-38.326 E40.80455
G1 X-6.138 Y-36.389 E40.9101
G1 X-5.836 Y-35.588 E40.95281
G1 X-5.315 Y-33.53 E41.05872
G1 X-5.15 Y-32.697 E41.10109
G1 X-4.975 Y-30.579 E41.20711
G1 X-4.951 Y-30.001 E41.23598
G1 X-4.951 Y29.999 E44.22939
G1 X-4.975 Y30.576 E44.2582
G1 X-5.125 Y32.389 E44.34896
G1 X-5.24 Y33.232 E44.39141
G1 X-5.76 Y35.288 E44.49721
G1 X-6.016 Y36.112 E44.54026
G1 X-6.866 Y38.048 E44.64574
G1 X-7.251 Y38.811 E44.68838
G1 X-8.411 Y40.585 E44.79413
G1 X-8.92 Y41.277 E44.83699
G1 X-10.349 Y42.832 E44.94235
G1 X-10.959 Y43.429 E44.98493
G1 X-12.636 Y44.733 E45.09091
G1 X-13.337 Y45.221 E45.13353
G1 F1500 E38.63353
G0 F3600 X-16.138 Y46.229
G1 F1500 E45.13353
G1 F1800 X-18.107 Y46.905 E45.23739
G1 X-19.161 Y47.172 E45.29164
G1 X-20.956 Y47.472 E45.38243
G1 X-21.768 Y47.562 E45.42319
G1 X-23.859 Y47.562 E45.52751
G1 X-24.679 Y47.517 E45.56848
G1 X-26.742 Y47.172 E45.67283
G1 X-27.796 Y46.905 E45.72708
G1 X-29.51 Y46.317 E45.81748
G1 X-30.263 Y46.012 E45.85801
G1 X-32.109 Y45.013 E45.96273
G1 X-32.805 Y44.586 E46.00347
G1 X-34.454 Y43.302 E46.10774
G1 X-35.072 Y42.764 E46.14862
G1 X-36.49 Y41.223 E46.25309
G1 X-37.157 Y40.366 E46.30727
G1 X-38.151 Y38.846 E46.39788
G1 X-38.564 Y38.13 E46.43912
G1 X-39.401 Y36.221 E46.54311
G1 X-39.687 Y35.456 E46.58386
G1 X-40.199 Y33.431 E46.68807
G1 X-40.378 Y32.357 E46.74239
G1 X-40.528 Y30.546 E46.83305
G1 X-40.551 Y30.001 E46.86026
G1 X-40.551 Y-29.999 E49.85367
G1 X-40.529 Y-30.543 E49.88084
G1 X-40.379 Y-32.356 E49.9716
G1 X-40.267 Y-33.162 E50.01219
G1 X-39.754 Y-35.19 E50.11656
G1 X-39.511 Y-35.971 E50.15736
G1 X-38.672 Y-37.884 E50.26158
G1 X-38.302 Y-38.616 E50.3025
G1 X-37.157 Y-40.366 E50.40684
G1 X-36.49 Y-41.223 E50.46101
G1 X-35.257 Y-42.563 E50.55186
G1 X-34.672 Y-43.132 E50.59258
G1 X-33.023 Y-44.416 E50.69684
G1 X-32.35 Y-44.882 E50.73768
G1 X-30.508 Y-45.879 E50.84218
G1 X-29.765 Y-46.229 E50.88316
G1 X-27.796 Y-46.905 E50.98702
G1 X-26.742 Y-47.172 E51.04126
G1 X-24.947 Y-47.472 E51.13206
G1 X-24.135 Y-47.562 E51.17282
G1 X-22.044 Y-47.562 E51.27714
G1 X-21.224 Y-47.517 E51.31811
G1 X-19.161 Y-47.172 E51.42246
G1 X-18.107 Y-46.905 E51.47671
G1 X-16.393 Y-46.317 E51.56711
G1 X-15.64 Y-46.012 E51.60764
G1 X-13.794 Y-45.013 E51.71236
G1 X-13.098 Y-44.585 E51.75312
G1 X-11.449 Y-43.303 E51.85733
G1 X-10.825 Y-42.758 E51.89866
G1 X-9.411 Y-41.221 E52.00286
G1 X-8.746 Y-40.366 E52.0569
G1 X-7.752 Y-38.846 E52.14751
G1 X-7.341 Y-38.134 E52.18852
G1 X-6.504 Y-36.228 E52.29238
G1 X-6.217 Y-35.463 E52.33314
G1 X-5.703 Y-33.432 E52.43766
G1 X-5.547 Y-32.63 E52.47842
G1 X-5.374 Y-30.546 E52.58275
G1 X-5.351 Y-30.001 E52.60997
G1 X-5.351 Y29.999 E55.60338
G1 X-5.373 Y30.543 E55.63054
G1 X-5.523 Y32.356 E55.7213
G1 X-5.635 Y33.162 E55.7619
G1 X-6.148 Y35.19 E55.86626
G1 X-6.39 Y35.967 E55.90687
G1 X-7.233 Y37.887 E56.01148
G1 X-7.603 Y38.619 E56.0524
G1 X-8.746 Y40.366 E56.15656
G1 X-9.411 Y41.221 E56.2106
G1 X-10.643 Y42.561 E56.30141
G1 X-11.232 Y43.134 E56.34241
G1 X-12.881 Y44.417 E56.44664
G1 X-13.551 Y44.881 E56.4873
G1 X-15.395 Y45.879 E56.59191
G1 X-16.138 Y46.229 E56.63289
G1 F1500 E50.13289
G0 F3600 X-21.022 Y47.077
G1 F1500 E56.63289
G1 F1800 X-22.044 Y47.162 E56.68405
G1 X-23.859 Y47.162 E56.7746
G1 X-24.881 Y47.077 E56.82576
G1 X-26.676 Y46.777 E56.91656
G1 X-27.666 Y46.527 E56.9675
G1 X-29.38 Y45.939 E57.0579
G1 X-30.318 Y45.527 E57.10902
G1 X-31.919 Y44.661 E57.19983
G1 X-32.778 Y44.1 E57.25101
G1 X-34.209 Y42.986 E57.34149
G1 X-34.962 Y42.292 E57.39258
G1 X-36.195 Y40.952 E57.48343
G1 X-36.822 Y40.147 E57.53433
G1 X-37.816 Y38.627 E57.62494
G1 X-38.305 Y37.723 E57.67622
G1 X-39.034 Y36.06 E57.76681
G1 X-39.367 Y35.092 E57.81788
G1 X-39.812 Y33.333 E57.9084
G1 X-39.98 Y32.324 E57.95943
G1 X-40.13 Y30.513 E58.05009
G1 X-40.151 Y30.001 E58.07566
G1 X-40.151 Y-29.999 E61.06907
G1 X-40.13 Y-30.51 E61.09458
G1 X-39.98 Y-32.323 E61.18534
G1 X-39.812 Y-33.333 E61.23643
G1 X-39.367 Y-35.092 E61.32695
G1 X-39.034 Y-36.06 E61.37802
G1 X-38.305 Y-37.723 E61.46861
