;FLAVOR:Marlin
;TIME:3117
;Filament used: 2.56481m
;Layer height: 0.15
;MINX:-28.125
;MINY:-44.081
;MINZ:0.3
;MAXX:28.129
;MAXY:31.147
;MAXZ:9.3
;Generated with Cura_SteamEngine main
M140 S60
M105
M190 S60
M104 S200
M105
M109 S200
M82 ;absolute extrusion mode
G21 ;metric values
G90 ;absolute positioning
M82 ;set extruder to absolute mode
M107 ;start with the fan off
G28 ;Home all axes (max endstops)
G1 Z15.0 F9000 ;move the platform down 15mm
G92 E0 ;zero the extruded length
G1 F200 E3 ;extrude 3mm of feed stock
G92 E0 ;zero the extruded length again
G1 F9000
;Put printing message on LCD screen
M117 Printing...
G92 E0
G92 E0
G1 F1500 E-6.5
;LAYER_COUNT:61
;LAYER:0
M107
G0 F3600 X-26.458 Y-6.456 Z0.3
G0 X-28.125 Y-1.653
;TYPE:SKIRT
G1 F1500 E0
G1 F1800 X-28.085 Y-2.441 E0.03936
G1 X-27.966 Y-3.222 E0.07878
G1 X-27.768 Y-3.986 E0.11815
G1 X-27.494 Y-4.727 E0.15757
G1 X-27.146 Y-5.436 E0.19697
G1 X-26.729 Y-6.106 E0.23634
G1 X-26.458 Y-6.456 E0.25843
G1 X-26.941 Y-7.151 E0.30065
G1 X-27.325 Y-7.842 E0.34009
G1 X-27.637 Y-8.567 E0.37947
G1 X-27.874 Y-9.32 E0.41885
G1 X-28.033 Y-10.094 E0.45828
G1 X-28.124 Y-10.976 E0.50251
G1 X-28.125 Y-36.281 E1.76498
G1 X-28.085 Y-37.069 E1.80435
G1 X-27.966 Y-37.85 E1.84376
G1 X-27.768 Y-38.614 E1.88314
G1 X-27.494 Y-39.355 E1.92255
G1 X-27.146 Y-40.064 E1.96196
G1 X-26.729 Y-40.734 E2.00133
G1 X-26.246 Y-41.359 E2.04073
G1 X-25.702 Y-41.932 E2.08015
G1 X-25.103 Y-42.446 E2.11953
G1 X-24.455 Y-42.898 E2.15895
G1 X-23.765 Y-43.282 E2.19834
G1 X-23.039 Y-43.594 E2.23777
G1 X-22.286 Y-43.83 E2.27714
G1 X-21.513 Y-43.99 E2.31652
G1 X-20.63 Y-44.081 E2.36081
G1 X20.324 Y-44.081 E4.40401
G1 X21.113 Y-44.041 E4.44342
G1 X21.893 Y-43.922 E4.48279
G1 X22.658 Y-43.724 E4.52221
G1 X23.398 Y-43.45 E4.56158
G1 X24.107 Y-43.102 E4.60098
G1 X24.778 Y-42.684 E4.64042
G1 X25.402 Y-42.201 E4.67979
G1 X25.975 Y-41.658 E4.71918
G1 X26.49 Y-41.059 E4.75859
G1 X26.941 Y-40.411 E4.79797
G1 X27.325 Y-39.72 E4.83741
G1 X27.637 Y-38.995 E4.87679
G1 X27.874 Y-38.242 E4.91618
G1 X28.033 Y-37.468 E4.9556
G1 X28.124 Y-36.302 E5.01395
G1 X28.129 Y-34.462 E5.10574
G1 X28.091 Y-33.673 E5.14515
G1 X27.974 Y-32.893 E5.1845
G1 X27.815 Y-32.273 E5.21644
G1 X27.935 Y-31.845 E5.23861
G1 X28.071 Y-31.067 E5.27802
G1 X28.128 Y-30.122 E5.32525
G1 X28.128 Y-17.442 E5.95786
G1 X28.088 Y-16.653 E5.99727
G1 X27.969 Y-15.873 E6.03663
G1 X27.814 Y-15.275 E6.06745
G1 X27.938 Y-14.831 E6.09045
G1 X28.072 Y-14.053 E6.12984
G1 X28.128 Y-13.104 E6.17727
G1 X28.124 Y-11.264 E6.26907
G1 X28.082 Y-10.475 E6.30848
G1 X27.961 Y-9.695 E6.34786
G1 X27.762 Y-8.931 E6.38725
G1 X27.486 Y-8.191 E6.42666
G1 X27.137 Y-7.483 E6.46604
G1 X26.718 Y-6.813 E6.50546
G1 X26.458 Y-6.478 E6.52662
G1 X26.941 Y-5.783 E6.56884
G1 X27.325 Y-5.092 E6.60828
G1 X27.637 Y-4.367 E6.64766
G1 X27.874 Y-3.614 E6.68704
G1 X28.033 Y-2.84 E6.72646
G1 X28.124 Y-1.674 E6.78481
G1 X28.129 Y0.166 E6.87661
G1 X28.091 Y0.955 E6.91602
G1 X27.974 Y1.735 E6.95537
G1 X27.815 Y2.355 E6.9873
G1 X27.935 Y2.783 E7.00948
G1 X28.071 Y3.561 E7.04888
G1 X28.128 Y4.506 E7.09611
G1 X28.128 Y17.186 E7.72872
G1 X28.088 Y17.975 E7.76814
G1 X27.969 Y18.755 E7.8075
G1 X27.814 Y19.353 E7.83832
G1 X27.938 Y19.797 E7.86132
G1 X28.072 Y20.575 E7.90071
G1 X28.128 Y21.524 E7.94813
G1 X28.124 Y23.364 E8.03993
G1 X28.082 Y24.153 E8.07935
G1 X27.961 Y24.933 E8.11873
G1 X27.762 Y25.697 E8.15812
G1 X27.486 Y26.437 E8.19752
G1 X27.137 Y27.145 E8.2369
G1 X26.718 Y27.815 E8.27633
G1 X26.233 Y28.438 E8.31572
G1 X25.688 Y29.01 E8.35513
G1 X25.088 Y29.523 E8.39452
G1 X24.439 Y29.973 E8.43392
G1 X23.748 Y30.355 E8.47331
G1 X23.022 Y30.665 E8.51269
G1 X22.268 Y30.901 E8.55211
G1 X21.495 Y31.059 E8.59147
G1 X20.324 Y31.147 E8.65006
G1 X-20.324 Y31.147 E10.678
G1 X-21.113 Y31.107 E10.71741
G1 X-21.893 Y30.988 E10.75677
G1 X-22.658 Y30.79 E10.7962
G1 X-23.398 Y30.516 E10.83557
G1 X-24.107 Y30.168 E10.87497
G1 X-24.778 Y29.75 E10.91441
G1 X-25.402 Y29.267 E10.95378
G1 X-25.975 Y28.724 E10.99316
G1 X-26.49 Y28.125 E11.03257
G1 X-26.941 Y27.477 E11.07196
G1 X-27.325 Y26.786 E11.1114
G1 X-27.637 Y26.061 E11.15078
G1 X-27.874 Y25.308 E11.19016
G1 X-28.033 Y24.534 E11.22958
G1 X-28.124 Y23.652 E11.27382
G1 X-28.125 Y-1.653 E12.53629
G0 F3600 X-27.725 Y-1.653
G1 F1800 X-27.685 Y-2.421 E12.57466
G1 X-27.566 Y-3.181 E12.61304
G1 X-27.368 Y-3.924 E12.6514
G1 X-27.094 Y-4.643 E12.68979
G1 X-26.747 Y-5.329 E12.72814
G1 X-26.331 Y-5.976 E12.76652
G1 X-25.935 Y-6.469 E12.79807
G1 X-26.282 Y-6.892 E12.82536
G1 X-26.705 Y-7.534 E12.86372
G1 X-27.06 Y-8.217 E12.90212
G1 X-27.341 Y-8.932 E12.94045
G1 X-27.547 Y-9.674 E12.97887
G1 X-27.675 Y-10.432 E13.01722
G1 X-27.724 Y-11.281 E13.05965
G1 X-27.725 Y-36.281 E14.3069
G1 X-27.685 Y-37.049 E14.34527
G1 X-27.566 Y-37.809 E14.38365
G1 X-27.368 Y-38.552 E14.42201
G1 X-27.094 Y-39.271 E14.4604
G1 X-26.747 Y-39.957 E14.49875
G1 X-26.331 Y-40.604 E14.53713
G1 X-25.85 Y-41.204 E14.57549
G1 X-25.309 Y-41.751 E14.61388
G1 X-24.714 Y-42.239 E14.65227
G1 X-24.072 Y-42.662 E14.69062
G1 X-23.39 Y-43.017 E14.72898
G1 X-22.674 Y-43.298 E14.76736
G1 X-21.933 Y-43.504 E14.80573
G1 X-21.174 Y-43.632 E14.84413
G1 X-20.325 Y-43.681 E14.88656
G1 X20.324 Y-43.681 E16.91454
G1 X21.092 Y-43.641 E16.95291
G1 X21.852 Y-43.522 E16.99129
G1 X22.595 Y-43.324 E17.02965
G1 X23.314 Y-43.05 E17.06804
G1 X24 Y-42.703 E17.10639
G1 X24.647 Y-42.287 E17.14477
G1 X25.247 Y-41.806 E17.18313
G1 X25.794 Y-41.265 E17.22152
G1 X26.282 Y-40.67 E17.25991
G1 X26.705 Y-40.028 E17.29826
G1 X27.06 Y-39.345 E17.33667
G1 X27.341 Y-38.63 E17.375
G1 X27.547 Y-37.888 E17.41341
G1 X27.675 Y-37.13 E17.45177
G1 X27.724 Y-36.301 E17.4932
G1 X27.729 Y-34.461 E17.585
G1 X27.691 Y-33.693 E17.62336
G1 X27.574 Y-32.933 E17.66172
G1 X27.401 Y-32.276 E17.69562
G1 X27.449 Y-32.134 E17.70309
G1 X27.62 Y-31.384 E17.74147
G1 X27.728 Y-30.478 E17.78699
G1 X27.728 Y-17.442 E18.43736
G1 X27.688 Y-16.674 E18.47573
G1 X27.569 Y-15.914 E18.51411
G1 X27.399 Y-15.277 E18.547
G1 X27.452 Y-15.121 E18.55522
G1 X27.622 Y-14.371 E18.59359
G1 X27.712 Y-13.607 E18.63197
G1 X27.728 Y-13.105 E18.65702
G1 X27.724 Y-11.265 E18.74882
G1 X27.682 Y-10.497 E18.7872
G1 X27.561 Y-9.737 E18.82559
G1 X27.362 Y-8.994 E18.86396
G1 X27.087 Y-8.276 E18.90232
G1 X26.738 Y-7.591 E18.94068
G1 X26.32 Y-6.945 E18.97907
G1 X25.934 Y-6.466 E19.00976
G1 X26.282 Y-6.042 E19.03712
G1 X26.705 Y-5.4 E19.07548
G1 X27.06 Y-4.717 E19.11388
G1 X27.341 Y-4.002 E19.15221
G1 X27.547 Y-3.26 E19.19063
G1 X27.675 Y-2.502 E19.22898
G1 X27.724 Y-1.673 E19.27041
G1 X27.729 Y0.167 E19.36221
G1 X27.691 Y0.935 E19.40057
G1 X27.574 Y1.695 E19.43894
G1 X27.401 Y2.352 E19.47283
G1 X27.449 Y2.494 E19.48031
G1 X27.62 Y3.244 E19.51869
G1 X27.728 Y4.15 E19.56421
G1 X27.728 Y17.186 E20.21458
G1 X27.688 Y17.954 E20.25294
G1 X27.569 Y18.714 E20.29132
G1 X27.399 Y19.351 E20.32421
G1 X27.452 Y19.507 E20.33243
G1 X27.622 Y20.257 E20.3708
G1 X27.712 Y21.021 E20.40918
G1 X27.728 Y21.523 E20.43424
G1 X27.724 Y23.363 E20.52604
G1 X27.682 Y24.131 E20.56441
G1 X27.561 Y24.891 E20.6028
G1 X27.362 Y25.634 E20.64118
G1 X27.087 Y26.352 E20.67954
G1 X26.738 Y27.037 E20.71789
G1 X26.32 Y27.683 E20.75628
G1 X25.838 Y28.282 E20.79464
G1 X25.296 Y28.828 E20.83302
G1 X24.7 Y29.314 E20.87139
G1 X24.057 Y29.736 E20.90976
G1 X23.374 Y30.089 E20.94812
G1 X22.657 Y30.37 E20.98654
G1 X21.916 Y30.574 E21.02488
G1 X21.157 Y30.7 E21.06326
G1 X20.324 Y30.747 E21.10489
G1 X-20.324 Y30.747 E23.13283
G1 X-21.092 Y30.707 E23.17119
G1 X-21.852 Y30.588 E23.20957
G1 X-22.595 Y30.39 E23.24793
G1 X-23.314 Y30.116 E23.28632
G1 X-24 Y29.769 E23.32468
G1 X-24.647 Y29.353 E23.36305
G1 X-25.247 Y28.872 E23.40142
G1 X-25.794 Y28.331 E23.4398
G1 X-26.282 Y27.736 E23.47819
G1 X-26.705 Y27.094 E23.51655
G1 X-27.06 Y26.411 E23.55495
G1 X-27.341 Y25.696 E23.59328
G1 X-27.547 Y24.954 E23.6317
G1 X-27.675 Y24.196 E23.67005
G1 X-27.724 Y23.347 E23.71248
G1 X-27.725 Y-1.653 E24.95973
G0 F3600 X-27.325 Y-1.653
G1 F1800 X-27.285 Y-2.4 E24.99705
G1 X-27.166 Y-3.138 E25.03435
G1 X-26.968 Y-3.86 E25.0717
G1 X-26.695 Y-4.556 E25.109
G1 X-26.348 Y-5.219 E25.14633
G1 X-25.934 Y-5.842 E25.18365
G1 X-25.403 Y-6.478 E25.22499
G1 X-25.608 Y-6.689 E25.23966
G1 X-26.067 Y-7.279 E25.27696
G1 X-26.462 Y-7.915 E25.31431
G1 X-26.786 Y-8.589 E25.35162
G1 X-27.036 Y-9.294 E25.38894
G1 X-27.21 Y-10.022 E25.42628
G1 X-27.305 Y-10.764 E25.4636
G1 X-27.324 Y-11.281 E25.48941
G1 X-27.325 Y-36.281 E26.73667
G1 X-27.285 Y-37.028 E26.77399
G1 X-27.166 Y-37.766 E26.81128
G1 X-26.968 Y-38.488 E26.84863
G1 X-26.695 Y-39.184 E26.88593
G1 X-26.348 Y-39.847 E26.92326
G1 X-25.934 Y-40.47 E26.96058
G1 X-25.455 Y-41.044 E26.99788
G1 X-24.917 Y-41.564 E27.03521
G1 X-24.327 Y-42.024 E27.07254
G1 X-23.691 Y-42.418 E27.10986
G1 X-23.017 Y-42.743 E27.14719
G1 X-22.312 Y-42.993 E27.18451
G1 X-21.584 Y-43.167 E27.22185
G1 X-20.842 Y-43.262 E27.25917
G1 X-20.325 Y-43.281 E27.28498
G1 X20.324 Y-43.281 E29.31297
G1 X21.071 Y-43.241 E29.35029
G1 X21.809 Y-43.122 E29.38759
G1 X22.531 Y-42.924 E29.42494
G1 X23.227 Y-42.651 E29.46224
G1 X23.89 Y-42.304 E29.49957
G1 X24.513 Y-41.889 E29.53692
G1 X25.087 Y-41.41 E29.57422
G1 X25.608 Y-40.873 E29.61154
G1 X26.067 Y-40.283 E29.64884
G1 X26.462 Y-39.647 E29.68619
G1 X26.786 Y-38.973 E29.7235
G1 X27.036 Y-38.268 E29.76082
G1 X27.21 Y-37.54 E29.79816
G1 X27.323 Y-36.657 E29.84257
G1 X27.329 Y-34.46 E29.95218
G1 X27.291 Y-33.713 E29.9895
G1 X27.174 Y-32.974 E30.02683
G1 X26.984 Y-32.273 E30.06306
G1 X27.155 Y-31.668 E30.09443
G1 X27.281 Y-30.93 E30.13178
G1 X27.328 Y-30.122 E30.17216
G1 X27.328 Y-17.442 E30.80477
G1 X27.288 Y-16.695 E30.84209
G1 X27.169 Y-15.957 E30.87938
G1 X26.983 Y-15.277 E30.91455
G1 X27.158 Y-14.655 E30.94679
G1 X27.283 Y-13.918 E30.98408
G1 X27.328 Y-13.106 E31.02466
G1 X27.324 Y-11.266 E31.11646
G1 X27.282 Y-10.519 E31.15378
G1 X27.161 Y-9.781 E31.19109
G1 X26.962 Y-9.06 E31.22841
G1 X26.687 Y-8.364 E31.26574
G1 X26.34 Y-7.702 E31.30303
G1 X25.923 Y-7.08 E31.34039
G1 X25.402 Y-6.457 E31.38091
G1 X25.608 Y-6.245 E31.39566
G1 X26.067 Y-5.655 E31.43295
G1 X26.462 Y-5.019 E31.47031
G1 X26.786 Y-4.345 E31.50761
G1 X27.036 Y-3.64 E31.54493
G1 X27.21 Y-2.912 E31.58228
G1 X27.323 Y-2.029 E31.62669
G1 X27.329 Y0.168 E31.7363
G1 X27.291 Y0.915 E31.77361
G1 X27.174 Y1.654 E31.81094
G1 X26.984 Y2.355 E31.84718
G1 X27.155 Y2.96 E31.87854
G1 X27.281 Y3.698 E31.91589
G1 X27.328 Y4.506 E31.95627
G1 X27.328 Y17.186 E32.58888
G1 X27.288 Y17.933 E32.6262
G1 X27.169 Y18.671 E32.6635
G1 X26.983 Y19.351 E32.69867
G1 X27.158 Y19.973 E32.73091
G1 X27.283 Y20.71 E32.7682
G1 X27.328 Y21.522 E32.80877
G1 X27.324 Y23.362 E32.90057
G1 X27.282 Y24.109 E32.9379
G1 X27.161 Y24.847 E32.97521
G1 X26.962 Y25.568 E33.01252
G1 X26.687 Y26.264 E33.04986
G1 X26.34 Y26.926 E33.08715
G1 X25.923 Y27.548 E33.12451
G1 X25.443 Y28.122 E33.16184
G1 X24.904 Y28.641 E33.19917
G1 X24.313 Y29.099 E33.23647
G1 X23.677 Y29.492 E33.27377
G1 X23.002 Y29.815 E33.31111
G1 X22.296 Y30.063 E33.34844
G1 X21.568 Y30.236 E33.38577
G1 X20.826 Y30.329 E33.42308
G1 X20.324 Y30.347 E33.44814
G1 X-20.324 Y30.347 E35.47608
G1 X-21.071 Y30.307 E35.5134
G1 X-21.809 Y30.188 E35.55069
G1 X-22.531 Y29.99 E35.58804
G1 X-23.227 Y29.717 E35.62534
G1 X-23.89 Y29.37 E35.66267
G1 X-24.513 Y28.955 E35.70002
G1 X-25.087 Y28.476 E35.73732
G1 X-25.608 Y27.939 E35.77465
G1 X-26.067 Y27.349 E35.81194
G1 X-26.462 Y26.713 E35.84929
G1 X-26.786 Y26.039 E35.8866
G1 X-27.036 Y25.334 E35.92392
G1 X-27.21 Y24.606 E35.96126
G1 X-27.305 Y23.864 E35.99858
G1 X-27.324 Y23.347 E36.0244
G1 X-27.325 Y-1.653 E37.27165
G0 F3600 X-26.925 Y-1.653
G1 F1800 X-26.885 Y-2.378 E37.30788
G1 X-26.766 Y-3.094 E37.34409
G1 X-26.568 Y-3.793 E37.38033
G1 X-26.295 Y-4.467 E37.41661
G1 X-25.95 Y-5.106 E37.45284
G1 X-25.536 Y-5.703 E37.48909
G1 X-25.06 Y-6.251 E37.5253
G1 X-24.838 Y-6.455 E37.54034
G1 X-25.415 Y-7.08 E37.58278
G1 X-25.845 Y-7.665 E37.619
G1 X-26.209 Y-8.294 E37.65526
G1 X-26.502 Y-8.959 E37.69151
G1 X-26.72 Y-9.652 E37.72776
G1 X-26.86 Y-10.364 E37.76396
G1 X-26.924 Y-11.281 E37.80982
G1 X-26.925 Y-36.281 E39.05708
G1 X-26.885 Y-37.006 E39.0933
G1 X-26.766 Y-37.722 E39.12951
G1 X-26.568 Y-38.421 E39.16576
G1 X-26.295 Y-39.095 E39.20204
G1 X-25.95 Y-39.734 E39.23827
G1 X-25.536 Y-40.331 E39.27451
G1 X-25.06 Y-40.879 E39.31073
G1 X-24.526 Y-41.371 E39.34695
G1 X-23.941 Y-41.802 E39.3832
G1 X-23.312 Y-42.166 E39.41946
G1 X-22.648 Y-42.459 E39.45567
G1 X-21.955 Y-42.677 E39.49191
G1 X-21.242 Y-42.817 E39.52816
G1 X-20.325 Y-42.881 E39.57402
G1 X20.324 Y-42.881 E41.60201
G1 X21.049 Y-42.841 E41.63824
G1 X21.766 Y-42.722 E41.6745
G1 X22.465 Y-42.524 E41.71074
G1 X23.138 Y-42.251 E41.74698
G1 X23.777 Y-41.906 E41.7832
G1 X24.374 Y-41.492 E41.81945
G1 X24.922 Y-41.016 E41.85566
G1 X25.415 Y-40.482 E41.89192
G1 X25.845 Y-39.897 E41.92814
G1 X26.209 Y-39.268 E41.9644
G1 X26.502 Y-38.603 E42.00066
G1 X26.72 Y-37.91 E42.0369
G1 X26.86 Y-37.198 E42.0731
G1 X26.924 Y-36.299 E42.11807
G1 X26.929 Y-34.459 E42.20987
G1 X26.891 Y-33.734 E42.24609
G1 X26.773 Y-33.017 E42.28234
G1 X26.562 Y-32.258 E42.32164
G1 X26.679 Y-31.916 E42.33967
G1 X26.838 Y-31.207 E42.37592
G1 X26.928 Y-30.395 E42.41668
G1 X26.928 Y-17.442 E43.06291
G1 X26.888 Y-16.717 E43.09914
G1 X26.769 Y-16 E43.1354
G1 X26.558 Y-15.269 E43.17336
G1 X26.682 Y-14.904 E43.19259
G1 X26.84 Y-14.195 E43.22883
G1 X26.929 Y-13.385 E43.26948
G1 X26.924 Y-11.267 E43.37515
G1 X26.882 Y-10.541 E43.41143
G1 X26.761 Y-9.825 E43.44766
G1 X26.563 Y-9.127 E43.48386
G1 X26.288 Y-8.454 E43.52013
G1 X25.941 Y-7.816 E43.55636
G1 X25.526 Y-7.22 E43.59259
G1 X25.049 Y-6.673 E43.6288
G1 X24.838 Y-6.479 E43.6431
G1 X25.415 Y-5.854 E43.68554
G1 X25.845 Y-5.269 E43.72176
G1 X26.209 Y-4.64 E43.75802
G1 X26.502 Y-3.975 E43.79427
G1 X26.72 Y-3.282 E43.83052
G1 X26.86 Y-2.57 E43.86672
G1 X26.924 Y-1.671 E43.91168
G1 X26.929 Y0.169 E44.00348
G1 X26.891 Y0.894 E44.0397
G1 X26.773 Y1.611 E44.07595
G1 X26.562 Y2.37 E44.11526
G1 X26.679 Y2.712 E44.13329
G1 X26.838 Y3.421 E44.16954
G1 X26.928 Y4.233 E44.2103
G1 X26.928 Y17.186 E44.85653
G1 X26.888 Y17.911 E44.89275
G1 X26.769 Y18.628 E44.92901
G1 X26.558 Y19.359 E44.96697
G1 X26.682 Y19.724 E44.9862
G1 X26.84 Y20.433 E45.02244
G1 X26.929 Y21.243 E45.0631
G1 X26.924 Y23.361 E45.16877
G1 X26.882 Y24.087 E45.20505
G1 X26.761 Y24.803 E45.24127
G1 X26.563 Y25.501 E45.27747
G1 X26.288 Y26.174 E45.31374
G1 X25.941 Y26.812 E45.34998
G1 X25.526 Y27.408 E45.38621
G1 X25.049 Y27.955 E45.42242
G1 X24.514 Y28.447 E45.45868
G1 X23.928 Y28.876 E45.49491
G1 X23.298 Y29.239 E45.53119
G1 X22.633 Y29.53 E45.5674
G1 X21.94 Y29.746 E45.60362
G1 X21.227 Y29.885 E45.63986
G1 X20.324 Y29.947 E45.68501
G1 X-20.324 Y29.947 E47.71295
G1 X-21.049 Y29.907 E47.74918
G1 X-21.766 Y29.788 E47.78544
G1 X-22.465 Y29.59 E47.82168
G1 X-23.138 Y29.317 E47.85792
G1 X-23.777 Y28.972 E47.89415
G1 X-24.374 Y28.558 E47.93039
G1 X-24.922 Y28.082 E47.9666
G1 X-25.415 Y27.548 E48.00286
G1 X-25.845 Y26.963 E48.03909
G1 X-26.209 Y26.334 E48.07534
G1 X-26.502 Y25.669 E48.1116
G1 X-26.72 Y24.976 E48.14784
G1 X-26.86 Y24.264 E48.18404
G1 X-26.924 Y23.347 E48.2299
G1 X-26.925 Y-1.653 E49.47716
G0 F3600 X-26.525 Y-1.653
G1 F1800 X-26.485 Y-2.356 E49.51229
G1 X-26.366 Y-3.049 E49.54737
G1 X-26.168 Y-3.725 E49.58251
G1 X-25.896 Y-4.374 E49.61762
G1 X-25.551 Y-4.988 E49.65276
G1 X-25.14 Y-5.559 E49.68786
G1 X-24.666 Y-6.08 E49.723
G1 X-24.227 Y-6.464 E49.75209
G1 X-24.751 Y-6.94 E49.78741
G1 X-25.215 Y-7.47 E49.82256
G1 X-25.615 Y-8.049 E49.85766
G1 X-25.947 Y-8.67 E49.8928
G1 X-26.207 Y-9.324 E49.92791
G1 X-26.391 Y-10.004 E49.96305
G1 X-26.497 Y-10.7 E49.99818
G1 X-26.524 Y-11.281 E50.0272
G1 X-26.525 Y-36.281 E51.27445
G1 X-26.485 Y-36.984 E51.30958
G1 X-26.366 Y-37.677 E51.34466
G1 X-26.168 Y-38.353 E51.3798
G1 X-25.896 Y-39.002 E51.41491
G1 X-25.551 Y-39.616 E51.45005
G1 X-25.14 Y-40.187 E51.48515
G1 X-24.666 Y-40.708 E51.52029
G1 X-24.136 Y-41.171 E51.5554
G1 X-23.557 Y-41.572 E51.59054
G1 X-22.936 Y-41.904 E51.62567
G1 X-22.282 Y-42.164 E51.66078
G1 X-21.603 Y-42.348 E51.69588
G1 X-20.907 Y-42.454 E51.731
