;FLAVOR:Marlin
;TIME:8601
;Filament used: 5.37073m
;Layer height: 0.15
;MINX:37.2
;MINY:74.575
;MINZ:0.3
;MAXX:182.8
;MAXY:145.425
;MAXZ:2.55
;Generated with Cura_SteamEngine main
M140 S60
M105
M190 S60
M104 S200
M105
M109 S200
M82 ;absolute extrusion mode
G28 ;Home
G1 Z15.0 F2000 ;Move the platform
G92 E0
G92 E0
G1 F1500 E-6.5
;LAYER_COUNT:16
;LAYER:0
M107
M204 S1000
G0 F7500 X41.561 Y75.374 Z0.3
G0 X37.2 Y82.375
;TYPE:SKIRT
G1 F1500 E0
G1 X37.24 Y81.586 E0.03941
G1 X37.359 Y80.806 E0.07878
G1 X37.557 Y80.041 E0.1182
G1 X37.831 Y79.301 E0.15757
G1 X38.179 Y78.592 E0.19697
G1 X38.597 Y77.921 E0.23641
G1 X39.08 Y77.297 E0.27578
G1 X39.623 Y76.724 E0.31517
G1 X40.222 Y76.209 E0.35458
G1 X40.87 Y75.758 E0.39397
G1 X41.561 Y75.374 E0.43341
G1 X42.286 Y75.062 E0.47278
G1 X43.039 Y74.825 E0.51217
G1 X43.813 Y74.666 E0.55159
G1 X44.598 Y74.585 E0.59096
G1 X45 Y74.575 E0.61102
G1 X175 Y74.575 E7.09675
G1 X175.789 Y74.615 E7.13616
G1 X176.569 Y74.734 E7.17553
G1 X177.334 Y74.932 E7.21495
G1 X178.074 Y75.206 E7.25432
G1 X178.783 Y75.554 E7.29372
G1 X179.454 Y75.972 E7.33316
G1 X180.078 Y76.455 E7.37253
G1 X180.651 Y76.998 E7.41191
G1 X181.166 Y77.597 E7.45133
G1 X181.617 Y78.245 E7.49071
G1 X182.001 Y78.936 E7.53015
G1 X182.313 Y79.661 E7.56953
G1 X182.55 Y80.414 E7.60892
G1 X182.709 Y81.188 E7.64834
G1 X182.79 Y81.973 E7.68771
G1 X182.8 Y82.375 E7.70777
G1 X182.8 Y137.625 E10.4642
G1 X182.76 Y138.414 E10.50362
G1 X182.641 Y139.194 E10.54298
G1 X182.443 Y139.959 E10.58241
G1 X182.169 Y140.699 E10.62177
G1 X181.821 Y141.408 E10.66118
G1 X181.403 Y142.079 E10.70062
G1 X180.92 Y142.703 E10.73999
G1 X180.377 Y143.276 E10.77937
G1 X179.778 Y143.791 E10.81878
G1 X179.13 Y144.242 E10.85817
G1 X178.439 Y144.626 E10.89761
G1 X177.714 Y144.938 E10.93699
G1 X176.961 Y145.175 E10.97637
G1 X176.187 Y145.334 E11.01579
G1 X175.402 Y145.415 E11.05516
G1 X175 Y145.425 E11.07523
G1 X45 Y145.425 E17.56095
G1 X44.211 Y145.385 E17.60037
G1 X43.431 Y145.266 E17.63973
G1 X42.666 Y145.068 E17.67915
G1 X41.926 Y144.794 E17.71852
G1 X41.217 Y144.446 E17.75793
G1 X40.546 Y144.028 E17.79737
G1 X39.922 Y143.545 E17.83673
G1 X39.349 Y143.002 E17.87612
G1 X38.834 Y142.403 E17.91553
G1 X38.383 Y141.755 E17.95492
G1 X37.999 Y141.064 E17.99436
G1 X37.687 Y140.339 E18.03374
G1 X37.45 Y139.586 E18.07312
G1 X37.291 Y138.812 E18.11254
G1 X37.21 Y138.027 E18.15191
G1 X37.2 Y137.625 E18.17197
G1 X37.2 Y82.375 E20.92841
G0 F7500 X37.6 Y82.375
G1 F1500 X37.64 Y81.607 E20.96678
G1 X37.759 Y80.847 E21.00515
G1 X37.957 Y80.104 E21.04352
G1 X38.231 Y79.385 E21.0819
G1 X38.578 Y78.699 E21.12026
G1 X38.994 Y78.052 E21.15863
G1 X39.475 Y77.452 E21.197
G1 X40.016 Y76.905 E21.23538
G1 X40.611 Y76.417 E21.27377
G1 X41.253 Y75.994 E21.31213
G1 X41.936 Y75.639 E21.35053
G1 X42.651 Y75.358 E21.38886
G1 X43.393 Y75.152 E21.42728
G1 X44.151 Y75.024 E21.46563
G1 X45 Y74.975 E21.50806
G1 X175 Y74.975 E27.99379
G1 X175.768 Y75.015 E28.03215
G1 X176.528 Y75.134 E28.07053
G1 X177.271 Y75.332 E28.10889
G1 X177.99 Y75.606 E28.14728
G1 X178.676 Y75.953 E28.18563
G1 X179.323 Y76.369 E28.22401
G1 X179.923 Y76.85 E28.26238
G1 X180.47 Y77.391 E28.30076
G1 X180.958 Y77.986 E28.33915
G1 X181.381 Y78.628 E28.37751
G1 X181.736 Y79.311 E28.41591
G1 X182.017 Y80.026 E28.45424
G1 X182.223 Y80.768 E28.49266
G1 X182.351 Y81.526 E28.53101
G1 X182.4 Y82.375 E28.57344
G1 X182.4 Y137.625 E31.32987
G1 X182.36 Y138.393 E31.36824
G1 X182.241 Y139.153 E31.40662
G1 X182.043 Y139.896 E31.44498
G1 X181.769 Y140.615 E31.48336
G1 X181.422 Y141.301 E31.52172
G1 X181.006 Y141.948 E31.56009
G1 X180.525 Y142.548 E31.59846
G1 X179.984 Y143.095 E31.63684
G1 X179.389 Y143.583 E31.67523
G1 X178.747 Y144.006 E31.71359
G1 X178.064 Y144.361 E31.75199
G1 X177.349 Y144.642 E31.79032
G1 X176.607 Y144.848 E31.82874
G1 X175.849 Y144.976 E31.86709
G1 X175 Y145.025 E31.90952
G1 X45 Y145.025 E38.39525
G1 X44.232 Y144.985 E38.43361
G1 X43.472 Y144.866 E38.47199
G1 X42.729 Y144.668 E38.51035
G1 X42.01 Y144.394 E38.54874
G1 X41.324 Y144.047 E38.5871
G1 X40.677 Y143.631 E38.62547
G1 X40.077 Y143.15 E38.66384
G1 X39.53 Y142.609 E38.70222
G1 X39.042 Y142.014 E38.74061
G1 X38.619 Y141.372 E38.77897
G1 X38.264 Y140.689 E38.81737
G1 X37.983 Y139.974 E38.8557
G1 X37.777 Y139.232 E38.89412
G1 X37.649 Y138.474 E38.93247
G1 X37.6 Y137.625 E38.9749
G1 X37.6 Y82.375 E41.73133
G0 F7500 X38 Y82.375
G1 F1500 X38.04 Y81.628 E41.76865
G1 X38.159 Y80.89 E41.80595
G1 X38.357 Y80.168 E41.8433
G1 X38.63 Y79.472 E41.8806
G1 X38.977 Y78.809 E41.91793
G1 X39.392 Y78.186 E41.95528
G1 X39.871 Y77.612 E41.99257
G1 X40.408 Y77.091 E42.0299
G1 X40.998 Y76.632 E42.0672
G1 X41.634 Y76.237 E42.10455
G1 X42.308 Y75.913 E42.14186
G1 X43.013 Y75.663 E42.17918
G1 X43.741 Y75.489 E42.21652
G1 X44.483 Y75.394 E42.25384
G1 X45 Y75.375 E42.27965
G1 X175 Y75.375 E48.76538
G1 X175.747 Y75.415 E48.8027
G1 X176.485 Y75.534 E48.83999
G1 X177.207 Y75.732 E48.87734
G1 X177.903 Y76.005 E48.91464
G1 X178.566 Y76.352 E48.95198
G1 X179.189 Y76.767 E48.98932
G1 X179.763 Y77.246 E49.02662
G1 X180.284 Y77.783 E49.06395
G1 X180.743 Y78.373 E49.10124
G1 X181.138 Y79.009 E49.13859
G1 X181.462 Y79.683 E49.1759
G1 X181.712 Y80.388 E49.21322
G1 X181.886 Y81.116 E49.25057
G1 X181.981 Y81.858 E49.28789
G1 X182 Y82.375 E49.3137
G1 X182 Y137.625 E52.07013
G1 X181.96 Y138.372 E52.10745
G1 X181.841 Y139.11 E52.14475
G1 X181.643 Y139.832 E52.1821
G1 X181.37 Y140.528 E52.2194
G1 X181.023 Y141.191 E52.25673
G1 X180.608 Y141.814 E52.29408
G1 X180.129 Y142.388 E52.33137
G1 X179.592 Y142.909 E52.3687
G1 X179.002 Y143.368 E52.406
G1 X178.366 Y143.763 E52.44335
G1 X177.692 Y144.087 E52.48066
G1 X176.987 Y144.337 E52.51798
G1 X176.259 Y144.511 E52.55532
G1 X175.517 Y144.606 E52.59264
G1 X175 Y144.625 E52.61845
G1 X45 Y144.625 E59.10418
G1 X44.253 Y144.585 E59.1415
G1 X43.515 Y144.466 E59.17879
G1 X42.793 Y144.268 E59.21614
G1 X42.097 Y143.995 E59.25344
G1 X41.434 Y143.648 E59.29078
G1 X40.811 Y143.233 E59.32812
G1 X40.237 Y142.754 E59.36542
G1 X39.716 Y142.217 E59.40275
G1 X39.257 Y141.627 E59.44004
G1 X38.862 Y140.991 E59.47739
G1 X38.538 Y140.317 E59.5147
G1 X38.288 Y139.612 E59.55202
G1 X38.114 Y138.884 E59.58937
G1 X38.019 Y138.142 E59.62669
G1 X38 Y137.625 E59.6525
G1 X38 Y82.375 E62.40893
G0 F7500 X38.4 Y82.375
G1 F1500 X38.44 Y81.65 E62.44516
G1 X38.559 Y80.933 E62.48142
G1 X38.757 Y80.234 E62.51766
G1 X39.03 Y79.561 E62.5539
G1 X39.375 Y78.922 E62.59013
G1 X39.789 Y78.325 E62.62637
G1 X40.265 Y77.777 E62.66258
G1 X40.799 Y77.284 E62.69884
G1 X41.384 Y76.854 E62.73507
G1 X42.013 Y76.49 E62.77132
G1 X42.678 Y76.197 E62.80758
G1 X43.371 Y75.979 E62.84382
G1 X44.083 Y75.839 E62.88002
G1 X45 Y75.775 E62.92588
G1 X175 Y75.775 E69.41161
G1 X175.725 Y75.815 E69.44783
G1 X176.442 Y75.934 E69.4841
G1 X177.141 Y76.132 E69.52034
G1 X177.814 Y76.405 E69.55657
G1 X178.453 Y76.75 E69.5928
G1 X179.05 Y77.164 E69.62905
G1 X179.598 Y77.64 E69.66526
G1 X180.091 Y78.174 E69.70152
G1 X180.521 Y78.759 E69.73774
G1 X180.885 Y79.388 E69.774
G1 X181.178 Y80.053 E69.81025
G1 X181.396 Y80.746 E69.8465
G1 X181.536 Y81.458 E69.8827
G1 X181.6 Y82.375 E69.92856
G1 X181.6 Y137.625 E72.685
G1 X181.56 Y138.35 E72.72122
G1 X181.441 Y139.067 E72.75748
G1 X181.243 Y139.766 E72.79373
G1 X180.97 Y140.439 E72.82996
G1 X180.625 Y141.078 E72.86619
G1 X180.211 Y141.675 E72.90244
G1 X179.735 Y142.223 E72.93865
G1 X179.201 Y142.716 E72.97491
G1 X178.616 Y143.146 E73.01113
G1 X177.987 Y143.51 E73.04739
G1 X177.322 Y143.803 E73.08364
G1 X176.629 Y144.021 E73.11989
G1 X175.917 Y144.161 E73.15609
G1 X175 Y144.225 E73.20195
G1 X45 Y144.225 E79.68767
G1 X44.275 Y144.185 E79.7239
G1 X43.558 Y144.066 E79.76016
G1 X42.859 Y143.868 E79.79641
G1 X42.186 Y143.595 E79.83264
G1 X41.547 Y143.25 E79.86887
G1 X40.95 Y142.836 E79.90511
G1 X40.402 Y142.36 E79.94133
G1 X39.909 Y141.826 E79.97759
G1 X39.479 Y141.241 E80.01381
G1 X39.115 Y140.612 E80.05007
G1 X38.822 Y139.947 E80.08632
G1 X38.604 Y139.254 E80.12256
G1 X38.464 Y138.542 E80.15877
G1 X38.4 Y137.625 E80.20463
G1 X38.4 Y82.375 E82.96106
G0 F7500 X38.8 Y82.375
G1 F1500 X38.84 Y81.672 E82.99619
G1 X38.959 Y80.978 E83.03132
G1 X39.157 Y80.303 E83.06641
G1 X39.429 Y79.654 E83.10152
G1 X39.774 Y79.04 E83.13666
G1 X40.185 Y78.469 E83.17176
G1 X40.659 Y77.948 E83.2069
G1 X41.189 Y77.484 E83.24204
G1 X41.768 Y77.084 E83.27715
G1 X42.389 Y76.752 E83.31228
G1 X43.043 Y76.492 E83.34739
G1 X43.723 Y76.308 E83.38254
G1 X44.419 Y76.202 E83.41766
G1 X45 Y76.175 E83.44668
G1 X175 Y76.175 E89.93241
G1 X175.703 Y76.215 E89.96754
G1 X176.397 Y76.334 E90.00267
G1 X177.072 Y76.532 E90.03776
G1 X177.721 Y76.804 E90.07287
G1 X178.335 Y77.149 E90.10801
G1 X178.906 Y77.56 E90.1431
G1 X179.427 Y78.034 E90.17825
G1 X179.891 Y78.564 E90.21339
G1 X180.291 Y79.143 E90.2485
G1 X180.623 Y79.764 E90.28363
G1 X180.883 Y80.418 E90.31874
G1 X181.067 Y81.098 E90.35389
G1 X181.173 Y81.794 E90.38901
G1 X181.2 Y82.375 E90.41803
G1 X181.2 Y137.625 E93.17446
G1 X181.16 Y138.328 E93.20959
G1 X181.041 Y139.022 E93.24472
G1 X180.843 Y139.697 E93.27982
G1 X180.571 Y140.346 E93.31492
G1 X180.226 Y140.96 E93.35006
G1 X179.815 Y141.531 E93.38516
G1 X179.341 Y142.052 E93.4203
G1 X178.811 Y142.516 E93.45544
G1 X178.232 Y142.916 E93.49055
G1 X177.611 Y143.248 E93.52568
G1 X176.957 Y143.508 E93.5608
G1 X176.277 Y143.692 E93.59594
G1 X175.581 Y143.798 E93.63107
G1 X175 Y143.825 E93.66008
G1 X45 Y143.825 E100.14581
G1 X44.297 Y143.785 E100.18094
G1 X43.603 Y143.666 E100.21607
G1 X42.928 Y143.468 E100.25116
G1 X42.279 Y143.196 E100.28627
G1 X41.665 Y142.851 E100.32141
G1 X41.094 Y142.44 E100.35651
G1 X40.573 Y141.966 E100.39165
G1 X40.109 Y141.436 E100.42679
G1 X39.709 Y140.857 E100.4619
G1 X39.377 Y140.236 E100.49703
G1 X39.117 Y139.582 E100.53214
G1 X38.933 Y138.902 E100.56729
G1 X38.827 Y138.206 E100.60241
G1 X38.8 Y137.625 E100.63143
G1 X38.8 Y82.375 E103.38786
G0 F7500 X39.2 Y82.375
G1 F1500 X39.24 Y81.695 E103.42185
G1 X39.359 Y81.025 E103.4558
G1 X39.556 Y80.373 E103.48978
G1 X39.828 Y79.749 E103.52374
G1 X40.172 Y79.161 E103.55773
G1 X40.582 Y78.617 E103.59171
G1 X41.053 Y78.126 E103.62566
G1 X41.578 Y77.692 E103.65964
G1 X42.15 Y77.323 E103.6936
G1 X42.762 Y77.024 E103.72758
G1 X43.404 Y76.799 E103.76152
G1 X44.069 Y76.65 E103.79552
G1 X45 Y76.575 E103.84212
G1 X175 Y76.575 E110.32784
G1 X175.68 Y76.615 E110.36183
G1 X176.35 Y76.734 E110.39578
G1 X177.002 Y76.931 E110.42976
G1 X177.626 Y77.203 E110.46372
G1 X178.214 Y77.547 E110.49771
G1 X178.758 Y77.957 E110.53169
G1 X179.249 Y78.428 E110.56564
G1 X179.683 Y78.953 E110.59962
G1 X180.052 Y79.525 E110.63358
G1 X180.351 Y80.137 E110.66756
G1 X180.576 Y80.779 E110.7015
G1 X180.725 Y81.444 E110.7355
G1 X180.8 Y82.375 E110.7821
G1 X180.8 Y137.625 E113.53853
G1 X180.76 Y138.305 E113.57252
G1 X180.641 Y138.975 E113.60647
G1 X180.444 Y139.627 E113.64045
G1 X180.172 Y140.251 E113.67441
G1 X179.828 Y140.839 E113.70839
G1 X179.418 Y141.383 E113.74238
G1 X178.947 Y141.874 E113.77632
G1 X178.422 Y142.308 E113.81031
G1 X177.85 Y142.677 E113.84427
G1 X177.238 Y142.976 E113.87825
G1 X176.596 Y143.201 E113.91219
G1 X175.931 Y143.35 E113.94619
G1 X175 Y143.425 E113.99279
G1 X45 Y143.425 E120.47851
G1 X44.32 Y143.385 E120.5125
G1 X43.65 Y143.266 E120.54645
G1 X42.998 Y143.069 E120.58043
G1 X42.374 Y142.797 E120.61439
G1 X41.786 Y142.453 E120.64838
G1 X41.242 Y142.043 E120.68236
G1 X40.751 Y141.572 E120.7163
G1 X40.317 Y141.047 E120.75029
G1 X39.948 Y140.475 E120.78425
G1 X39.649 Y139.863 E120.81823
G1 X39.424 Y139.221 E120.85217
G1 X39.275 Y138.556 E120.88617
G1 X39.2 Y137.625 E120.93277
G1 X39.2 Y82.375 E123.6892
G0 F7500 X39.6 Y82.375
G1 F1500 X39.64 Y81.719 E123.72199
G1 X39.759 Y81.073 E123.75476
G1 X39.956 Y80.446 E123.78755
G1 X40.228 Y79.848 E123.82033
G1 X40.57 Y79.287 E123.85311
G1 X40.978 Y78.772 E123.88588
G1 X41.445 Y78.31 E123.91866
G1 X41.965 Y77.909 E123.95142
G1 X42.529 Y77.573 E123.98417
G1 X43.131 Y77.309 E124.01697
G1 X43.76 Y77.119 E124.04975
G1 X44.407 Y77.008 E124.0825
G1 X45 Y76.975 E124.11213
G1 X175 Y76.975 E130.59786
G1 X175.656 Y77.015 E130.63064
G1 X176.302 Y77.134 E130.66342
G1 X176.929 Y77.331 E130.6962
G1 X177.527 Y77.603 E130.72898
G1 X178.088 Y77.945 E130.76176
G1 X178.603 Y78.353 E130.79454
G1 X179.065 Y78.82 E130.82731
G1 X179.466 Y79.34 E130.86007
G1 X179.802 Y79.904 E130.89283
G1 X180.066 Y80.506 E130.92562
G1 X180.256 Y81.135 E130.9584
G1 X180.367 Y81.782 E130.99115
G1 X180.4 Y82.375 E131.02078
G1 X180.4 Y137.625 E133.77722
G1 X180.36 Y138.281 E133.81001
G1 X180.241 Y138.927 E133.84278
G1 X180.044 Y139.554 E133.87557
G1 X179.772 Y140.152 E133.90834
G1 X179.43 Y140.713 E133.94112
G1 X179.022 Y141.228 E133.9739
G1 X178.555 Y141.69 E134.00667
G1 X178.035 Y142.091 E134.03943
G1 X177.471 Y142.427 E134.07219
G1 X176.869 Y142.691 E134.10498
G1 X176.24 Y142.881 E134.13776
G1 X175.593 Y142.992 E134.17051
G1 X175 Y143.025 E134.20014
G1 X45 Y143.025 E140.68587
G1 X44.344 Y142.985 E140.71866
G1 X43.698 Y142.866 E140.75143
G1 X43.071 Y142.669 E140.78422
G1 X42.473 Y142.397 E140.817
G1 X41.912 Y142.055 E140.84977
G1 X41.397 Y141.647 E140.88255
G1 X40.935 Y141.18 E140.91533
G1 X40.534 Y140.66 E140.94809
G1 X40.198 Y140.096 E140.98084
G1 X39.934 Y139.494 E141.01364
G1 X39.744 Y138.865 E141.04642
G1 X39.633 Y138.218 E141.07917
G1 X39.6 Y137.625 E141.1088
G1 X39.6 Y82.375 E143.86523
G0 F7500 X40 Y82.375
G1 F1500 X40.04 Y81.744 E143.89678
G1 X40.159 Y81.123 E143.92832
G1 X40.356 Y80.523 E143.95983
G1 X40.627 Y79.951 E143.99141
G1 X40.967 Y79.419 E144.02291
G1 X41.373 Y78.934 E144.05446
G1 X41.836 Y78.504 E144.08599
G1 X42.35 Y78.135 E144.11755
G1 X42.906 Y77.835 E144.14907
G1 X43.495 Y77.607 E144.18058
G1 X44.109 Y77.455 E144.21214
G1 X45 Y77.375 E144.25677
G1 X175 Y77.375 E150.7425
G1 X175.631 Y77.415 E150.77404
G1 X176.252 Y77.534 E150.80559
G1 X176.852 Y77.731 E150.83709
G1 X177.424 Y78.002 E150.86867
G1 X177.956 Y78.342 E150.90017
G1 X178.441 Y78.748 E150.93173
G1 X178.871 Y79.211 E150.96325
G1 X179.24 Y79.725 E150.99482
G1 X179.54 Y80.281 E151.02634
G1 X179.768 Y80.87 E151.05785
G1 X179.92 Y81.484 E151.0894
G1 X180 Y82.375 E151.13404
G1 X180 Y137.625 E153.89047
G1 X179.96 Y138.256 E153.92201
G1 X179.841 Y138.877 E153.95356
G1 X179.644 Y139.477 E153.98506
G1 X179.373 Y140.049 E154.01664
G1 X179.033 Y140.581 E154.04814
G1 X178.627 Y141.066 E154.0797
G1 X178.164 Y141.496 E154.11122
G1 X177.65 Y141.865 E154.14279
G1 X177.094 Y142.165 E154.17431
G1 X176.505 Y142.393 E154.20582
G1 X175.891 Y142.545 E154.23738
G1 X175 Y142.625 E154.28201
G1 X45 Y142.625 E160.76773
G1 X44.369 Y142.585 E160.79928
G1 X43.748 Y142.466 E160.83082
G1 X43.148 Y142.269 E160.86233
G1 X42.576 Y141.998 E160.89391
G1 X42.044 Y141.658 E160.92541
G1 X41.559 Y141.252 E160.95696
G1 X41.129 Y140.789 E160.98849
G1 X40.76 Y140.275 E161.02005
G1 X40.46 Y139.719 E161.05157
G1 X40.232 Y139.13 E161.08308
G1 X40.08 Y138.516 E161.11464
G1 X40 Y137.625 E161.15927
G1 X40 Y82.375 E163.9157
G0 F7500 X40.4 Y82.375
G1 F1500 X40.44 Y81.77 E163.94595
G1 X40.559 Y81.176 E163.97618
G1 X40.755 Y80.602 E164.00644
G1 X41.026 Y80.059 E164.03672
G1 X41.365 Y79.556 E164.06698
G1 X41.767 Y79.103 E164.09719
G1 X42.225 Y78.706 E164.12743
G1 X42.732 Y78.373 E164.15769
G1 X43.278 Y78.109 E164.18795
G1 X43.854 Y77.92 E164.2182
G1 X44.45 Y77.808 E164.24845
G1 X45 Y77.775 E164.27594
G1 X175 Y77.775 E170.76167
G1 X175.605 Y77.815 E170.79192
G1 X176.199 Y77.934 E170.82214
G1 X176.773 Y78.13 E170.8524
G1 X177.316 Y78.401 E170.88268
G1 X177.819 Y78.74 E170.91294
G1 X178.272 Y79.142 E170.94315
G1 X178.669 Y79.6 E170.97339
G1 X179.002 Y80.107 E171.00366
G1 X179.266 Y80.653 E171.03391
G1 X179.455 Y81.229 E171.06416
G1 X179.567 Y81.825 E171.09441
G1 X179.6 Y82.375 E171.1219
G1 X179.6 Y137.625 E173.87834
G1 X179.56 Y138.23 E173.90858
G1 X179.441 Y138.824 E173.93881
G1 X179.245 Y139.398 E173.96907
G1 X178.974 Y139.941 E173.99935
G1 X178.635 Y140.444 E174.02961
G1 X178.233 Y140.897 E174.05982
G1 X177.775 Y141.294 E174.09006
G1 X177.268 Y141.627 E174.12033
G1 X176.722 Y141.891 E174.15058
G1 X176.146 Y142.08 E174.18083
G1 X175.55 Y142.192 E174.21108
