;FLAVOR:Marlin
;TIME:11740
;Filament used: 7.69693m
;Layer height: 0.15
;MINX:37.2
;MINY:32.175
;MINZ:0.3
;MAXX:182.8
;MAXY:187.825
;MAXZ:4.8
;Generated with Cura_SteamEngine main
M140 S60
M105
M190 S60
M104 S200
M105
M109 S200
M82 ;absolute extrusion mode
G28 ;Home
G1 Z15.0 F2000 ;Move the platform
G92 E0
G92 E0
G1 F1500 E-6.5
;LAYER_COUNT:31
;LAYER:0
M107
M204 S1000
G0 F7500 X39.08 Y34.897 Z0.3
G0 X37.2 Y39.975
;TYPE:SKIRT
G1 F1500 E0
G1 X37.24 Y39.186 E0.03941
G1 X37.359 Y38.406 E0.07878
G1 X37.557 Y37.641 E0.1182
G1 X37.831 Y36.901 E0.15757
G1 X38.179 Y36.192 E0.19697
G1 X38.597 Y35.521 E0.23641
G1 X39.08 Y34.897 E0.27578
G1 X39.623 Y34.324 E0.31517
G1 X40.222 Y33.809 E0.35458
G1 X40.87 Y33.358 E0.39397
G1 X41.561 Y32.974 E0.43341
G1 X42.286 Y32.662 E0.47278
G1 X43.039 Y32.425 E0.51217
G1 X43.813 Y32.266 E0.55159
G1 X44.598 Y32.185 E0.59096
G1 X45 Y32.175 E0.61102
G1 X175 Y32.175 E7.09675
G1 X175.789 Y32.215 E7.13616
G1 X176.569 Y32.334 E7.17553
G1 X177.334 Y32.532 E7.21495
G1 X178.074 Y32.806 E7.25432
G1 X178.783 Y33.154 E7.29372
G1 X179.454 Y33.572 E7.33316
G1 X180.078 Y34.055 E7.37253
G1 X180.651 Y34.598 E7.41191
G1 X181.166 Y35.197 E7.45133
G1 X181.617 Y35.845 E7.49071
G1 X182.001 Y36.536 E7.53015
G1 X182.313 Y37.261 E7.56953
G1 X182.55 Y38.014 E7.60892
G1 X182.709 Y38.788 E7.64834
G1 X182.79 Y39.573 E7.68771
G1 X182.8 Y39.975 E7.70777
G1 X182.8 Y180.025 E14.69489
G1 X182.76 Y180.814 E14.73431
G1 X182.641 Y181.594 E14.77367
G1 X182.443 Y182.359 E14.8131
G1 X182.169 Y183.099 E14.85246
G1 X181.821 Y183.808 E14.89187
G1 X181.403 Y184.479 E14.93131
G1 X180.92 Y185.103 E14.97068
G1 X180.377 Y185.676 E15.01006
G1 X179.778 Y186.191 E15.04947
G1 X179.13 Y186.642 E15.08886
G1 X178.439 Y187.026 E15.1283
G1 X177.714 Y187.338 E15.16768
G1 X176.961 Y187.575 E15.20706
G1 X176.187 Y187.734 E15.24648
G1 X175.402 Y187.815 E15.28585
G1 X175 Y187.825 E15.30592
G1 X45 Y187.825 E21.79164
G1 X44.211 Y187.785 E21.83106
G1 X43.431 Y187.666 E21.87042
G1 X42.666 Y187.468 E21.90984
G1 X41.926 Y187.194 E21.94921
G1 X41.217 Y186.846 E21.98862
G1 X40.546 Y186.428 E22.02806
G1 X39.922 Y185.945 E22.06742
G1 X39.349 Y185.402 E22.10681
G1 X38.834 Y184.803 E22.14622
G1 X38.383 Y184.155 E22.18561
G1 X37.999 Y183.464 E22.22505
G1 X37.687 Y182.739 E22.26442
G1 X37.45 Y181.986 E22.30381
G1 X37.291 Y181.212 E22.34323
G1 X37.21 Y180.427 E22.3826
G1 X37.2 Y180.025 E22.40266
G1 X37.2 Y39.975 E29.38979
G0 F7500 X37.6 Y39.975
G1 F1500 X37.64 Y39.207 E29.42815
G1 X37.759 Y38.447 E29.46653
G1 X37.957 Y37.704 E29.50489
G1 X38.231 Y36.985 E29.54328
G1 X38.578 Y36.299 E29.58164
G1 X38.994 Y35.652 E29.62001
G1 X39.475 Y35.052 E29.65838
G1 X40.016 Y34.505 E29.69676
G1 X40.611 Y34.017 E29.73515
G1 X41.253 Y33.594 E29.77351
G1 X41.936 Y33.239 E29.81191
G1 X42.651 Y32.958 E29.85024
G1 X43.393 Y32.752 E29.88866
G1 X44.151 Y32.624 E29.92701
G1 X45 Y32.575 E29.96944
G1 X175 Y32.575 E36.45516
G1 X175.768 Y32.615 E36.49353
G1 X176.528 Y32.734 E36.53191
G1 X177.271 Y32.932 E36.57027
G1 X177.99 Y33.206 E36.60866
G1 X178.676 Y33.553 E36.64701
G1 X179.323 Y33.969 E36.68539
G1 X179.923 Y34.45 E36.72375
G1 X180.47 Y34.991 E36.76214
G1 X180.958 Y35.586 E36.80053
G1 X181.381 Y36.228 E36.83889
G1 X181.736 Y36.911 E36.87729
G1 X182.017 Y37.626 E36.91562
G1 X182.223 Y38.368 E36.95403
G1 X182.351 Y39.126 E36.99239
G1 X182.4 Y39.975 E37.03481
G1 X182.4 Y180.025 E44.02194
G1 X182.36 Y180.793 E44.0603
G1 X182.241 Y181.553 E44.09868
G1 X182.043 Y182.296 E44.13705
G1 X181.769 Y183.015 E44.17543
G1 X181.422 Y183.701 E44.21379
G1 X181.006 Y184.348 E44.25216
G1 X180.525 Y184.948 E44.29053
G1 X179.984 Y185.495 E44.32891
G1 X179.389 Y185.983 E44.3673
G1 X178.747 Y186.406 E44.40566
G1 X178.064 Y186.761 E44.44406
G1 X177.349 Y187.042 E44.48239
G1 X176.607 Y187.248 E44.52081
G1 X175.849 Y187.376 E44.55916
G1 X175 Y187.425 E44.60159
G1 X45 Y187.425 E51.08731
G1 X44.232 Y187.385 E51.12568
G1 X43.472 Y187.266 E51.16406
G1 X42.729 Y187.068 E51.20242
G1 X42.01 Y186.794 E51.24081
G1 X41.324 Y186.447 E51.27916
G1 X40.677 Y186.031 E51.31754
G1 X40.077 Y185.55 E51.3559
G1 X39.53 Y185.009 E51.39429
G1 X39.042 Y184.414 E51.43268
G1 X38.619 Y183.772 E51.47104
G1 X38.264 Y183.089 E51.50944
G1 X37.983 Y182.374 E51.54777
G1 X37.777 Y181.632 E51.58618
G1 X37.649 Y180.874 E51.62454
G1 X37.6 Y180.025 E51.66696
G1 X37.6 Y39.975 E58.65409
G0 F7500 X38 Y39.975
G1 F1500 X38.04 Y39.228 E58.69141
G1 X38.159 Y38.49 E58.7287
G1 X38.357 Y37.768 E58.76605
G1 X38.63 Y37.072 E58.80335
G1 X38.977 Y36.409 E58.84069
G1 X39.392 Y35.786 E58.87803
G1 X39.871 Y35.212 E58.91533
G1 X40.408 Y34.691 E58.95266
G1 X40.998 Y34.232 E58.98995
G1 X41.634 Y33.837 E59.0273
G1 X42.308 Y33.513 E59.06461
G1 X43.013 Y33.263 E59.10193
G1 X43.741 Y33.089 E59.13928
G1 X44.483 Y32.994 E59.1766
G1 X45 Y32.975 E59.20241
G1 X175 Y32.975 E65.68813
G1 X175.747 Y33.015 E65.72545
G1 X176.485 Y33.134 E65.76275
G1 X177.207 Y33.332 E65.8001
G1 X177.903 Y33.605 E65.8374
G1 X178.566 Y33.952 E65.87473
G1 X179.189 Y34.367 E65.91208
G1 X179.763 Y34.846 E65.94938
G1 X180.284 Y35.383 E65.98671
G1 X180.743 Y35.973 E66.024
G1 X181.138 Y36.609 E66.06135
G1 X181.462 Y37.283 E66.09866
G1 X181.712 Y37.988 E66.13598
G1 X181.886 Y38.716 E66.17332
G1 X181.981 Y39.458 E66.21064
G1 X182 Y39.975 E66.23645
G1 X182 Y180.025 E73.22358
G1 X181.96 Y180.772 E73.2609
G1 X181.841 Y181.51 E73.29819
G1 X181.643 Y182.232 E73.33554
G1 X181.37 Y182.928 E73.37284
G1 X181.023 Y183.591 E73.41018
G1 X180.608 Y184.214 E73.44752
G1 X180.129 Y184.788 E73.48482
G1 X179.592 Y185.309 E73.52215
G1 X179.002 Y185.768 E73.55944
G1 X178.366 Y186.163 E73.59679
G1 X177.692 Y186.487 E73.6341
G1 X176.987 Y186.737 E73.67142
G1 X176.259 Y186.911 E73.70877
G1 X175.517 Y187.006 E73.74609
G1 X175 Y187.025 E73.7719
G1 X45 Y187.025 E80.25762
G1 X44.253 Y186.985 E80.29494
G1 X43.515 Y186.866 E80.33224
G1 X42.793 Y186.668 E80.36959
G1 X42.097 Y186.395 E80.40689
G1 X41.434 Y186.048 E80.44422
G1 X40.811 Y185.633 E80.48157
G1 X40.237 Y185.154 E80.51887
G1 X39.716 Y184.617 E80.55619
G1 X39.257 Y184.027 E80.59349
G1 X38.862 Y183.391 E80.63084
G1 X38.538 Y182.717 E80.66815
G1 X38.288 Y182.012 E80.70547
G1 X38.114 Y181.284 E80.74281
G1 X38.019 Y180.542 E80.78013
G1 X38 Y180.025 E80.80594
G1 X38 Y39.975 E87.79307
G0 F7500 X38.4 Y39.975
G1 F1500 X38.44 Y39.25 E87.82929
G1 X38.559 Y38.533 E87.86555
G1 X38.757 Y37.834 E87.9018
G1 X39.03 Y37.161 E87.93803
G1 X39.375 Y36.522 E87.97426
G1 X39.789 Y35.925 E88.01051
G1 X40.265 Y35.377 E88.04672
G1 X40.799 Y34.884 E88.08298
G1 X41.384 Y34.454 E88.1192
G1 X42.013 Y34.09 E88.15546
G1 X42.678 Y33.797 E88.19171
G1 X43.371 Y33.579 E88.22796
G1 X44.083 Y33.439 E88.26416
G1 X45 Y33.375 E88.31002
G1 X175 Y33.375 E94.79574
G1 X175.725 Y33.415 E94.83197
G1 X176.442 Y33.534 E94.86823
G1 X177.141 Y33.732 E94.90448
G1 X177.814 Y34.005 E94.94071
G1 X178.453 Y34.35 E94.97694
G1 X179.05 Y34.764 E95.01318
G1 X179.598 Y35.24 E95.0494
G1 X180.091 Y35.774 E95.08566
G1 X180.521 Y36.359 E95.12188
G1 X180.885 Y36.988 E95.15814
G1 X181.178 Y37.653 E95.19439
G1 X181.396 Y38.346 E95.23063
G1 X181.536 Y39.058 E95.26684
G1 X181.6 Y39.975 E95.3127
G1 X181.6 Y180.025 E102.29982
G1 X181.56 Y180.75 E102.33605
G1 X181.441 Y181.467 E102.37231
G1 X181.243 Y182.166 E102.40855
G1 X180.97 Y182.839 E102.44478
G1 X180.625 Y183.478 E102.48101
G1 X180.211 Y184.075 E102.51726
G1 X179.735 Y184.623 E102.55347
G1 X179.201 Y185.116 E102.58973
G1 X178.616 Y185.546 E102.62595
G1 X177.987 Y185.91 E102.66221
G1 X177.322 Y186.203 E102.69847
G1 X176.629 Y186.421 E102.73471
G1 X175.917 Y186.561 E102.77091
G1 X175 Y186.625 E102.81677
G1 X45 Y186.625 E109.3025
G1 X44.275 Y186.585 E109.33872
G1 X43.558 Y186.466 E109.37498
G1 X42.859 Y186.268 E109.41123
G1 X42.186 Y185.995 E109.44746
G1 X41.547 Y185.65 E109.48369
G1 X40.95 Y185.236 E109.51994
G1 X40.402 Y184.76 E109.55615
G1 X39.909 Y184.226 E109.59241
G1 X39.479 Y183.641 E109.62863
G1 X39.115 Y183.012 E109.66489
G1 X38.822 Y182.347 E109.70114
G1 X38.604 Y181.654 E109.73739
G1 X38.464 Y180.942 E109.77359
G1 X38.4 Y180.025 E109.81945
G1 X38.4 Y39.975 E116.80657
G0 F7500 X38.8 Y39.975
G1 F1500 X38.84 Y39.272 E116.8417
G1 X38.959 Y38.578 E116.87683
G1 X39.157 Y37.903 E116.91193
G1 X39.429 Y37.254 E116.94703
G1 X39.774 Y36.64 E116.98217
G1 X40.185 Y36.069 E117.01727
G1 X40.659 Y35.548 E117.05241
G1 X41.189 Y35.084 E117.08755
G1 X41.768 Y34.684 E117.12266
G1 X42.389 Y34.352 E117.1578
G1 X43.043 Y34.092 E117.19291
G1 X43.723 Y33.908 E117.22805
G1 X44.419 Y33.802 E117.26318
G1 X45 Y33.775 E117.29219
G1 X175 Y33.775 E123.77792
G1 X175.703 Y33.815 E123.81305
G1 X176.397 Y33.934 E123.84818
G1 X177.072 Y34.132 E123.88327
G1 X177.721 Y34.404 E123.91838
G1 X178.335 Y34.749 E123.95352
G1 X178.906 Y35.16 E123.98862
G1 X179.427 Y35.634 E124.02376
G1 X179.891 Y36.164 E124.0589
G1 X180.291 Y36.743 E124.09401
G1 X180.623 Y37.364 E124.12914
G1 X180.883 Y38.018 E124.16426
G1 X181.067 Y38.698 E124.1994
G1 X181.173 Y39.394 E124.23452
G1 X181.2 Y39.975 E124.26354
G1 X181.2 Y180.025 E131.25066
G1 X181.16 Y180.728 E131.28579
G1 X181.041 Y181.422 E131.32092
G1 X180.843 Y182.097 E131.35602
G1 X180.571 Y182.746 E131.39113
G1 X180.226 Y183.36 E131.42626
G1 X179.815 Y183.931 E131.46136
G1 X179.341 Y184.452 E131.4965
G1 X178.811 Y184.916 E131.53165
G1 X178.232 Y185.316 E131.56676
G1 X177.611 Y185.648 E131.60189
G1 X176.957 Y185.908 E131.637
G1 X176.277 Y186.092 E131.67214
G1 X175.581 Y186.198 E131.70727
G1 X175 Y186.225 E131.73629
G1 X45 Y186.225 E138.22201
G1 X44.297 Y186.185 E138.25714
G1 X43.603 Y186.066 E138.29227
G1 X42.928 Y185.868 E138.32737
G1 X42.279 Y185.596 E138.36247
G1 X41.665 Y185.251 E138.39761
G1 X41.094 Y184.84 E138.43271
G1 X40.573 Y184.366 E138.46785
G1 X40.109 Y183.836 E138.50299
G1 X39.709 Y183.257 E138.5381
G1 X39.377 Y182.636 E138.57323
G1 X39.117 Y181.982 E138.60835
G1 X38.933 Y181.302 E138.64349
G1 X38.827 Y180.606 E138.67862
G1 X38.8 Y180.025 E138.70763
G1 X38.8 Y39.975 E145.69476
G0 F7500 X39.2 Y39.975
G1 F1500 X39.24 Y39.295 E145.72874
G1 X39.359 Y38.625 E145.76269
G1 X39.556 Y37.973 E145.79667
G1 X39.828 Y37.349 E145.83063
G1 X40.172 Y36.761 E145.86462
G1 X40.582 Y36.217 E145.8986
G1 X41.053 Y35.726 E145.93255
G1 X41.578 Y35.292 E145.96653
G1 X42.15 Y34.923 E146.00049
G1 X42.762 Y34.624 E146.03447
G1 X43.404 Y34.399 E146.06841
G1 X44.069 Y34.25 E146.10241
G1 X45 Y34.175 E146.14901
G1 X175 Y34.175 E152.63474
G1 X175.68 Y34.215 E152.66872
G1 X176.35 Y34.334 E152.70267
G1 X177.002 Y34.531 E152.73665
G1 X177.626 Y34.803 E152.77061
G1 X178.214 Y35.147 E152.8046
G1 X178.758 Y35.557 E152.83858
G1 X179.249 Y36.028 E152.87253
G1 X179.683 Y36.553 E152.90651
G1 X180.052 Y37.125 E152.94047
G1 X180.351 Y37.737 E152.97445
G1 X180.576 Y38.379 E153.00839
G1 X180.725 Y39.044 E153.04239
G1 X180.8 Y39.975 E153.08899
G1 X180.8 Y180.025 E160.07611
G1 X180.76 Y180.705 E160.1101
G1 X180.641 Y181.375 E160.14405
G1 X180.444 Y182.027 E160.17803
G1 X180.172 Y182.651 E160.21199
G1 X179.828 Y183.239 E160.24598
G1 X179.418 Y183.783 E160.27996
G1 X178.947 Y184.274 E160.31391
G1 X178.422 Y184.708 E160.34789
G1 X177.85 Y185.077 E160.38185
G1 X177.238 Y185.376 E160.41583
G1 X176.596 Y185.601 E160.44977
G1 X175.931 Y185.75 E160.48377
G1 X175 Y185.825 E160.53037
G1 X45 Y185.825 E167.01609
G1 X44.32 Y185.785 E167.05008
G1 X43.65 Y185.666 E167.08403
G1 X42.998 Y185.469 E167.11801
G1 X42.374 Y185.197 E167.15197
G1 X41.786 Y184.853 E167.18596
G1 X41.242 Y184.443 E167.21994
G1 X40.751 Y183.972 E167.25389
G1 X40.317 Y183.447 E167.28787
G1 X39.948 Y182.875 E167.32183
G1 X39.649 Y182.263 E167.35581
G1 X39.424 Y181.621 E167.38975
G1 X39.275 Y180.956 E167.42375
G1 X39.2 Y180.025 E167.47035
G1 X39.2 Y39.975 E174.45747
G0 F7500 X39.6 Y39.975
G1 F1500 X39.64 Y39.319 E174.49026
G1 X39.759 Y38.673 E174.52303
G1 X39.956 Y38.046 E174.55582
G1 X40.228 Y37.448 E174.5886
G1 X40.57 Y36.887 E174.62138
G1 X40.978 Y36.372 E174.65415
G1 X41.445 Y35.91 E174.68693
G1 X41.965 Y35.509 E174.71969
G1 X42.529 Y35.173 E174.75244
G1 X43.131 Y34.909 E174.78524
G1 X43.76 Y34.719 E174.81802
G1 X44.407 Y34.608 E174.85077
G1 X45 Y34.575 E174.8804
G1 X175 Y34.575 E181.36613
G1 X175.656 Y34.615 E181.39891
G1 X176.302 Y34.734 E181.43169
G1 X176.929 Y34.931 E181.46447
G1 X177.527 Y35.203 E181.49725
G1 X178.088 Y35.545 E181.53003
G1 X178.603 Y35.953 E181.56281
G1 X179.065 Y36.42 E181.59558
G1 X179.466 Y36.94 E181.62834
G1 X179.802 Y37.504 E181.6611
G1 X180.066 Y38.106 E181.69389
G1 X180.256 Y38.735 E181.72667
G1 X180.367 Y39.382 E181.75942
G1 X180.4 Y39.975 E181.78905
G1 X180.4 Y180.025 E188.77618
G1 X180.36 Y180.681 E188.80897
G1 X180.241 Y181.327 E188.84174
G1 X180.044 Y181.954 E188.87453
G1 X179.772 Y182.552 E188.9073
G1 X179.43 Y183.113 E188.94008
G1 X179.022 Y183.628 E188.97286
G1 X178.555 Y184.09 E189.00563
G1 X178.035 Y184.491 E189.03839
G1 X177.471 Y184.827 E189.07115
G1 X176.869 Y185.091 E189.10394
G1 X176.24 Y185.281 E189.13672
G1 X175.593 Y185.392 E189.16947
G1 X175 Y185.425 E189.1991
G1 X45 Y185.425 E195.68483
G1 X44.344 Y185.385 E195.71762
G1 X43.698 Y185.266 E195.75039
G1 X43.071 Y185.069 E195.78318
G1 X42.473 Y184.797 E195.81596
G1 X41.912 Y184.455 E195.84873
G1 X41.397 Y184.047 E195.88151
G1 X40.935 Y183.58 E195.91429
G1 X40.534 Y183.06 E195.94705
G1 X40.198 Y182.496 E195.9798
G1 X39.934 Y181.894 E196.0126
G1 X39.744 Y181.265 E196.04538
G1 X39.633 Y180.618 E196.07813
G1 X39.6 Y180.025 E196.10776
G1 X39.6 Y39.975 E203.09488
G0 F7500 X40 Y39.975
G1 F1500 X40.04 Y39.344 E203.12643
G1 X40.159 Y38.723 E203.15797
G1 X40.356 Y38.123 E203.18948
G1 X40.627 Y37.551 E203.22106
G1 X40.967 Y37.019 E203.25255
G1 X41.373 Y36.534 E203.28411
G1 X41.836 Y36.104 E203.31563
G1 X42.35 Y35.735 E203.3472
G1 X42.906 Y35.435 E203.37872
G1 X43.495 Y35.207 E203.41023
G1 X44.109 Y35.055 E203.44179
G1 X45 Y34.975 E203.48642
G1 X175 Y34.975 E209.97215
G1 X175.631 Y35.015 E210.00369
G1 X176.252 Y35.134 E210.03524
G1 X176.852 Y35.331 E210.06674
G1 X177.424 Y35.602 E210.09832
G1 X177.956 Y35.942 E210.12982
G1 X178.441 Y36.348 E210.16137
G1 X178.871 Y36.811 E210.1929
G1 X179.24 Y37.325 E210.22447
G1 X179.54 Y37.881 E210.25599
G1 X179.768 Y38.47 E210.2875
G1 X179.92 Y39.084 E210.31905
G1 X180 Y39.975 E210.36368
G1 X180 Y180.025 E217.35081
G1 X179.96 Y180.656 E217.38235
G1 X179.841 Y181.277 E217.4139
G1 X179.644 Y181.877 E217.4454
G1 X179.373 Y182.449 E217.47698
G1 X179.033 Y182.981 E217.50848
G1 X178.627 Y183.466 E217.54004
G1 X178.164 Y183.896 E217.57156
G1 X177.65 Y184.265 E217.60313
G1 X177.094 Y184.565 E217.63465
G1 X176.505 Y184.793 E217.66616
G1 X175.891 Y184.945 E217.69771
G1 X175 Y185.025 E217.74234
G1 X45 Y185.025 E224.22807
G1 X44.369 Y184.985 E224.25961
G1 X43.748 Y184.866 E224.29116
G1 X43.148 Y184.669 E224.32267
G1 X42.576 Y184.398 E224.35424
G1 X42.044 Y184.058 E224.38574
G1 X41.559 Y183.652 E224.4173
G1 X41.129 Y183.189 E224.44882
G1 X40.76 Y182.675 E224.48039
G1 X40.46 Y182.119 E224.51191
G1 X40.232 Y181.53 E224.54342
G1 X40.08 Y180.916 E224.57498
G1 X40 Y180.025 E224.61961
G1 X40 Y39.975 E231.60673
G0 F7500 X40.4 Y39.975
G1 F1500 X40.44 Y39.37 E231.63698
G1 X40.559 Y38.776 E231.6672
G1 X40.755 Y38.202 E231.69747
G1 X41.026 Y37.659 E231.72774
G1 X41.365 Y37.156 E231.758
G1 X41.767 Y36.703 E231.78822
G1 X42.225 Y36.306 E231.81846
G1 X42.732 Y35.973 E231.84872
G1 X43.278 Y35.709 E231.87898
G1 X43.854 Y35.52 E231.90922
G1 X44.45 Y35.408 E231.93948
G1 X45 Y35.375 E231.96697
G1 X175 Y35.375 E238.45269
G1 X175.605 Y35.415 E238.48294
G1 X176.199 Y35.534 E238.51317
G1 X176.773 Y35.73 E238.54343
G1 X177.316 Y36.001 E238.5737
G1 X177.819 Y36.34 E238.60397
G1 X178.272 Y36.742 E238.63418
G1 X178.669 Y37.2 E238.66442
G1 X179.002 Y37.707 E238.69468
G1 X179.266 Y38.253 E238.72494
G1 X179.455 Y38.829 E238.75518
G1 X179.567 Y39.425 E238.78544
G1 X179.6 Y39.975 E238.81293
G1 X179.6 Y180.025 E245.80005
G1 X179.56 Y180.63 E245.8303
G1 X179.441 Y181.224 E245.86052
G1 X179.245 Y181.798 E245.89078
G1 X178.974 Y182.341 E245.92106
G1 X178.635 Y182.844 E245.95132
G1 X178.233 Y183.297 E245.98154
G1 X177.775 Y183.694 E246.01178
G1 X177.268 Y184.027 E246.04204
