;FLAVOR:Marlin
;TIME:16885
;Filament used: 11.8891m
;Layer height: 0.2
;MINX:47.2
;MINY:32.2
;MINZ:0.3
;MAXX:172.8
;MAXY:187.8
;MAXZ:14.1
;Generated with Cura_SteamEngine 4.12.1
M140 S60
M105
M190 S60
M104 S200
M105
M109 S200
M82 ;absolute extrusion mode
G28 ;Home
G1 Z15.0 F2000 ;Move the platform
G92 E0
G92 E0
G1 F1500 E-6.5
;LAYER_COUNT:70
;LAYER:0
M107
M204 S1000
G0 F6750 X48.597 Y36.888 Z0.3
;TYPE:SKIRT
G1 F1500 E0
G1 F1350 X49.08 Y36.264 E0.03937
G1 X49.485 Y35.827 E0.06909
G1 X49.602 Y35.71 E0.07735
G1 X50.188 Y35.18 E0.11677
G1 X50.824 Y34.713 E0.15613
G1 X51.504 Y34.312 E0.19552
G1 X52.222 Y33.982 E0.23494
G1 X52.969 Y33.727 E0.27432
G1 X53.738 Y33.548 E0.31371
G1 X54.522 Y33.448 E0.35314
G1 X55.117 Y33.425 E0.38285
G1 X106.931 Y33.425 E2.96786
G1 X107.504 Y33.087 E3.00105
G1 X108.222 Y32.757 E3.04047
G1 X108.969 Y32.502 E3.07985
G1 X109.738 Y32.323 E3.11925
G1 X110.522 Y32.223 E3.15868
G1 X111.117 Y32.2 E3.18838
G1 X164.883 Y32.2 E5.87078
G1 X165.672 Y32.24 E5.91019
G1 X166.452 Y32.359 E5.94956
G1 X167.217 Y32.557 E5.98898
G1 X167.957 Y32.831 E6.02835
G1 X168.666 Y33.179 E6.06775
G1 X169.337 Y33.597 E6.10719
G1 X169.961 Y34.08 E6.14656
G1 X170.398 Y34.485 E6.17629
G1 X170.515 Y34.602 E6.18454
G1 X171.045 Y35.188 E6.22396
G1 X171.512 Y35.824 E6.26333
G1 X171.913 Y36.504 E6.30271
G1 X172.243 Y37.222 E6.34214
G1 X172.498 Y37.969 E6.38151
G1 X172.677 Y38.738 E6.42091
G1 X172.777 Y39.522 E6.46034
G1 X172.8 Y40.117 E6.49004
G1 X172.8 Y179.883 E13.463
G1 X172.76 Y180.672 E13.50241
G1 X172.641 Y181.452 E13.54178
G1 X172.443 Y182.217 E13.5812
G1 X172.169 Y182.957 E13.62057
G1 X171.821 Y183.666 E13.65997
G1 X171.403 Y184.337 E13.69941
G1 X170.92 Y184.961 E13.73878
G1 X170.515 Y185.398 E13.76851
G1 X170.398 Y185.515 E13.77676
G1 X169.812 Y186.045 E13.81618
G1 X169.176 Y186.512 E13.85554
G1 X168.496 Y186.913 E13.89493
G1 X167.778 Y187.243 E13.93435
G1 X167.031 Y187.498 E13.97373
G1 X166.262 Y187.677 E14.01312
G1 X165.478 Y187.777 E14.05255
G1 X164.883 Y187.8 E14.08226
G1 X111.117 Y187.8 E16.76466
G1 X110.328 Y187.76 E16.80407
G1 X109.548 Y187.641 E16.84344
G1 X108.783 Y187.443 E16.88286
G1 X108.043 Y187.169 E16.92223
G1 X107.334 Y186.821 E16.96163
G1 X106.939 Y186.575 E16.98485
G1 X55.117 Y186.575 E19.57026
G1 X54.328 Y186.535 E19.60967
G1 X53.548 Y186.416 E19.64904
G1 X52.783 Y186.218 E19.68846
G1 X52.043 Y185.944 E19.72783
G1 X51.334 Y185.596 E19.76723
G1 X50.663 Y185.178 E19.80667
G1 X50.039 Y184.695 E19.84604
G1 X49.602 Y184.29 E19.87577
G1 X49.485 Y184.173 E19.88402
G1 X48.955 Y183.587 E19.92344
G1 X48.488 Y182.951 E19.96281
G1 X48.087 Y182.271 E20.00219
G1 X47.757 Y181.553 E20.04161
G1 X47.502 Y180.806 E20.08099
G1 X47.323 Y180.037 E20.12038
G1 X47.223 Y179.253 E20.15982
G1 X47.2 Y178.658 E20.18952
G1 X47.2 Y41.342 E27.04025
G1 X47.24 Y40.553 E27.07966
G1 X47.359 Y39.773 E27.11902
G1 X47.557 Y39.008 E27.15845
G1 X47.831 Y38.268 E27.19782
G1 X48.179 Y37.559 E27.23722
G1 X48.597 Y36.888 E27.27666
G0 F6750 X48.994 Y37.019
G1 F1350 X49.475 Y36.419 E27.31503
G1 X49.767 Y36.109 E27.33627
G1 X49.884 Y35.992 E27.34453
G1 X50.456 Y35.478 E27.38289
G1 X51.078 Y35.025 E27.42128
G1 X51.743 Y34.639 E27.45964
G1 X52.445 Y34.324 E27.49803
G1 X53.176 Y34.084 E27.53642
G1 X53.927 Y33.921 E27.57476
G1 X54.692 Y33.837 E27.61315
G1 X55.117 Y33.825 E27.63436
G1 X107.044 Y33.825 E30.22501
G1 X107.078 Y33.8 E30.22712
G1 X107.743 Y33.414 E30.26548
G1 X108.445 Y33.099 E30.30387
G1 X109.176 Y32.859 E30.34225
G1 X109.927 Y32.696 E30.38059
G1 X110.692 Y32.612 E30.41899
G1 X111.117 Y32.6 E30.4402
G1 X164.883 Y32.6 E33.12259
G1 X165.651 Y32.64 E33.16096
G1 X166.411 Y32.759 E33.19934
G1 X167.154 Y32.957 E33.2377
G1 X167.873 Y33.231 E33.27609
G1 X168.559 Y33.578 E33.31444
G1 X169.206 Y33.994 E33.35282
G1 X169.806 Y34.475 E33.39118
G1 X170.116 Y34.767 E33.41243
G1 X170.233 Y34.884 E33.42069
G1 X170.747 Y35.456 E33.45905
G1 X171.2 Y36.078 E33.49744
G1 X171.586 Y36.743 E33.5358
G1 X171.901 Y37.445 E33.57419
G1 X172.141 Y38.176 E33.61257
G1 X172.304 Y38.927 E33.65091
G1 X172.388 Y39.692 E33.68931
G1 X172.4 Y40.117 E33.71052
G1 X172.4 Y179.883 E40.68348
G1 X172.36 Y180.651 E40.72184
G1 X172.241 Y181.411 E40.76022
G1 X172.043 Y182.154 E40.79858
G1 X171.769 Y182.873 E40.83697
G1 X171.422 Y183.559 E40.87533
G1 X171.006 Y184.206 E40.9137
G1 X170.525 Y184.806 E40.95207
G1 X170.233 Y185.116 E40.97331
G1 X170.116 Y185.233 E40.98157
G1 X169.544 Y185.747 E41.01993
G1 X168.922 Y186.2 E41.05832
G1 X168.257 Y186.586 E41.09668
G1 X167.555 Y186.901 E41.13507
G1 X166.824 Y187.141 E41.17346
G1 X166.073 Y187.304 E41.2118
G1 X165.308 Y187.388 E41.25019
G1 X164.883 Y187.4 E41.2714
G1 X111.117 Y187.4 E43.9538
G1 X110.349 Y187.36 E43.99217
G1 X109.589 Y187.241 E44.03055
G1 X108.846 Y187.043 E44.06891
G1 X108.127 Y186.769 E44.1073
G1 X107.441 Y186.422 E44.14565
G1 X107.057 Y186.175 E44.16843
G1 X55.117 Y186.175 E46.75973
G1 X54.349 Y186.135 E46.79809
G1 X53.589 Y186.016 E46.83647
G1 X52.846 Y185.818 E46.87483
G1 X52.127 Y185.544 E46.91322
G1 X51.441 Y185.197 E46.95158
G1 X50.794 Y184.781 E46.98995
G1 X50.194 Y184.3 E47.02832
G1 X49.884 Y184.008 E47.04956
G1 X49.767 Y183.891 E47.05782
G1 X49.253 Y183.319 E47.09619
G1 X48.8 Y182.697 E47.13457
G1 X48.414 Y182.032 E47.17294
G1 X48.099 Y181.33 E47.21132
G1 X47.859 Y180.599 E47.24971
G1 X47.696 Y179.848 E47.28805
G1 X47.612 Y179.083 E47.32644
G1 X47.6 Y178.658 E47.34765
G1 X47.6 Y41.342 E54.19838
G1 X47.64 Y40.574 E54.23675
G1 X47.759 Y39.814 E54.27512
G1 X47.957 Y39.071 E54.31349
G1 X48.231 Y38.352 E54.35187
G1 X48.578 Y37.666 E54.39023
G1 X48.994 Y37.019 E54.4286
G0 F6750 X49.392 Y37.153
G1 F1350 X50.05 Y36.392 E54.47879
G1 X50.167 Y36.275 E54.48705
G1 X50.724 Y35.775 E54.52439
G1 X51.33 Y35.338 E54.56167
G1 X51.98 Y34.967 E54.59901
G1 X52.666 Y34.668 E54.63634
G1 X53.38 Y34.444 E54.67367
G1 X54.113 Y34.297 E54.71097
G1 X55.117 Y34.225 E54.76119
G1 X107.175 Y34.225 E57.35837
G1 X107.33 Y34.113 E57.36791
G1 X107.98 Y33.742 E57.40525
G1 X108.666 Y33.443 E57.44259
G1 X109.38 Y33.219 E57.47992
G1 X110.113 Y33.072 E57.51722
G1 X111.117 Y33 E57.56744
G1 X164.883 Y33 E60.24983
G1 X165.63 Y33.04 E60.28715
G1 X166.368 Y33.159 E60.32445
G1 X167.09 Y33.357 E60.3618
G1 X167.786 Y33.63 E60.3991
G1 X168.449 Y33.977 E60.43643
G1 X169.072 Y34.392 E60.47378
G1 X169.833 Y35.05 E60.52397
G1 X169.95 Y35.167 E60.53222
G1 X170.45 Y35.724 E60.56957
G1 X170.887 Y36.33 E60.60684
G1 X171.258 Y36.98 E60.64418
G1 X171.557 Y37.666 E60.68152
G1 X171.781 Y38.38 E60.71885
G1 X171.928 Y39.113 E60.75615
G1 X172 Y40.117 E60.80636
G1 X172 Y179.883 E67.77932
G1 X171.96 Y180.63 E67.81664
G1 X171.841 Y181.368 E67.85393
G1 X171.643 Y182.09 E67.89129
G1 X171.37 Y182.786 E67.92858
G1 X171.023 Y183.449 E67.96592
G1 X170.608 Y184.072 E68.00326
G1 X169.95 Y184.833 E68.05346
G1 X169.833 Y184.95 E68.06171
G1 X169.276 Y185.45 E68.09905
G1 X168.67 Y185.887 E68.13633
G1 X168.02 Y186.258 E68.17367
G1 X167.334 Y186.557 E68.211
G1 X166.62 Y186.781 E68.24833
G1 X165.887 Y186.928 E68.28563
G1 X164.883 Y187 E68.33585
G1 X111.117 Y187 E71.01825
G1 X110.37 Y186.96 E71.05557
G1 X109.632 Y186.841 E71.09286
G1 X108.91 Y186.643 E71.13021
G1 X108.214 Y186.37 E71.16751
G1 X107.551 Y186.023 E71.20485
G1 X107.179 Y185.775 E71.22715
G1 X55.117 Y185.775 E73.82454
G1 X54.37 Y185.735 E73.86186
G1 X53.632 Y185.616 E73.89915
G1 X52.91 Y185.418 E73.9365
G1 X52.214 Y185.145 E73.9738
G1 X51.551 Y184.798 E74.01114
G1 X50.928 Y184.383 E74.04848
G1 X50.167 Y183.725 E74.09867
G1 X50.05 Y183.608 E74.10693
G1 X49.55 Y183.051 E74.14427
G1 X49.113 Y182.445 E74.18154
G1 X48.742 Y181.795 E74.21888
G1 X48.443 Y181.109 E74.25622
G1 X48.219 Y180.395 E74.29355
G1 X48.072 Y179.662 E74.33085
G1 X48 Y178.658 E74.38107
G1 X48 Y41.342 E81.23179
G1 X48.04 Y40.595 E81.26911
G1 X48.159 Y39.857 E81.30641
G1 X48.357 Y39.135 E81.34376
G1 X48.63 Y38.439 E81.38106
G1 X48.977 Y37.776 E81.41839
G1 X49.392 Y37.153 E81.45574
G0 F6750 X49.789 Y37.292
G1 F1350 X50.333 Y36.675 E81.49677
G1 X50.45 Y36.558 E81.50503
G1 X50.991 Y36.074 E81.54124
G1 X51.582 Y35.651 E81.5775
G1 X52.216 Y35.297 E81.61373
G1 X52.885 Y35.014 E81.64997
G1 X53.581 Y34.806 E81.68621
G1 X54.296 Y34.676 E81.72247
G1 X55.117 Y34.625 E81.76351
G1 X107.304 Y34.625 E84.36713
G1 X107.582 Y34.426 E84.38418
G1 X108.216 Y34.072 E84.42041
G1 X108.885 Y33.789 E84.45665
G1 X109.581 Y33.581 E84.49289
G1 X110.296 Y33.451 E84.52915
G1 X111.117 Y33.4 E84.57019
G1 X164.883 Y33.4 E87.25258
G1 X165.608 Y33.44 E87.28881
G1 X166.325 Y33.559 E87.32507
G1 X167.024 Y33.757 E87.36132
G1 X167.697 Y34.03 E87.39755
G1 X168.336 Y34.375 E87.43378
G1 X168.933 Y34.789 E87.47002
G1 X169.55 Y35.333 E87.51106
G1 X169.667 Y35.45 E87.51932
G1 X170.151 Y35.991 E87.55553
G1 X170.574 Y36.582 E87.59179
G1 X170.928 Y37.216 E87.62802
G1 X171.211 Y37.885 E87.66426
G1 X171.419 Y38.581 E87.7005
G1 X171.549 Y39.296 E87.73676
G1 X171.6 Y40.117 E87.77779
G1 X171.6 Y179.883 E94.75075
G1 X171.56 Y180.608 E94.78697
G1 X171.441 Y181.325 E94.82323
G1 X171.243 Y182.024 E94.85948
G1 X170.97 Y182.697 E94.89571
G1 X170.625 Y183.336 E94.93194
G1 X170.211 Y183.933 E94.96819
G1 X169.667 Y184.55 E95.00923
G1 X169.55 Y184.667 E95.01748
G1 X169.009 Y185.151 E95.0537
G1 X168.418 Y185.574 E95.08996
G1 X167.784 Y185.928 E95.12618
G1 X167.115 Y186.211 E95.16242
G1 X166.419 Y186.419 E95.19866
G1 X165.704 Y186.549 E95.23492
G1 X164.883 Y186.6 E95.27596
G1 X111.117 Y186.6 E97.95836
G1 X110.392 Y186.56 E97.99458
G1 X109.675 Y186.441 E98.03084
G1 X108.976 Y186.243 E98.06709
G1 X108.303 Y185.97 E98.10332
G1 X107.664 Y185.625 E98.13955
G1 X107.303 Y185.375 E98.16146
G1 X55.117 Y185.375 E100.76503
G1 X54.392 Y185.335 E100.80125
G1 X53.675 Y185.216 E100.83751
G1 X52.976 Y185.018 E100.87376
G1 X52.303 Y184.745 E100.90999
G1 X51.664 Y184.4 E100.94622
G1 X51.067 Y183.986 E100.98247
G1 X50.45 Y183.442 E101.02351
G1 X50.333 Y183.325 E101.03176
G1 X49.849 Y182.784 E101.06798
G1 X49.426 Y182.193 E101.10424
G1 X49.072 Y181.559 E101.14046
G1 X48.789 Y180.89 E101.1767
G1 X48.581 Y180.194 E101.21294
G1 X48.451 Y179.479 E101.2492
G1 X48.4 Y178.658 E101.29024
G1 X48.4 Y41.342 E108.14096
G1 X48.44 Y40.617 E108.17719
G1 X48.559 Y39.9 E108.21345
G1 X48.757 Y39.201 E108.24969
G1 X49.03 Y38.528 E108.28593
G1 X49.375 Y37.889 E108.32216
G1 X49.789 Y37.292 E108.3584
G0 F6750 X49.774 Y38.007
G1 F1350 X50.185 Y37.436 E108.3935
G1 X50.616 Y36.958 E108.42561
G1 X50.733 Y36.841 E108.43387
G1 X51.258 Y36.372 E108.46899
G1 X51.833 Y35.966 E108.50411
G1 X52.451 Y35.628 E108.53925
G1 X53.102 Y35.361 E108.57435
G1 X53.78 Y35.171 E108.60948
G1 X54.475 Y35.058 E108.64461
G1 X55.117 Y35.025 E108.67668
G1 X107.431 Y35.025 E111.28664
G1 X107.833 Y34.741 E111.31119
G1 X108.451 Y34.403 E111.34634
G1 X109.102 Y34.136 E111.38144
G1 X109.78 Y33.946 E111.41657
G1 X110.475 Y33.833 E111.4517
G1 X111.117 Y33.8 E111.48377
G1 X164.883 Y33.8 E114.16617
G1 X165.586 Y33.84 E114.20129
G1 X166.28 Y33.959 E114.23642
G1 X166.955 Y34.157 E114.27152
G1 X167.604 Y34.429 E114.30663
G1 X168.218 Y34.774 E114.34176
G1 X168.789 Y35.185 E114.37686
G1 X169.267 Y35.616 E114.40897
G1 X169.384 Y35.733 E114.41723
G1 X169.853 Y36.258 E114.45235
G1 X170.259 Y36.833 E114.48747
G1 X170.597 Y37.451 E114.52261
G1 X170.864 Y38.102 E114.55771
G1 X171.054 Y38.78 E114.59284
G1 X171.167 Y39.475 E114.62797
G1 X171.2 Y40.117 E114.66004
G1 X171.2 Y179.883 E121.633
G1 X171.16 Y180.586 E121.66813
G1 X171.041 Y181.28 E121.70326
G1 X170.843 Y181.955 E121.73835
G1 X170.571 Y182.604 E121.77346
G1 X170.226 Y183.218 E121.80859
G1 X169.815 Y183.789 E121.84369
G1 X169.384 Y184.267 E121.8758
G1 X169.267 Y184.384 E121.88406
G1 X168.742 Y184.853 E121.91918
G1 X168.167 Y185.259 E121.9543
G1 X167.549 Y185.597 E121.98944
G1 X166.898 Y185.864 E122.02454
G1 X166.22 Y186.054 E122.05967
G1 X165.525 Y186.167 E122.0948
G1 X164.883 Y186.2 E122.12687
G1 X111.117 Y186.2 E124.80927
G1 X110.414 Y186.16 E124.8444
G1 X109.72 Y186.041 E124.87953
G1 X109.045 Y185.843 E124.91462
G1 X108.396 Y185.571 E124.94973
G1 X107.782 Y185.226 E124.98487
G1 X107.433 Y184.975 E125.00632
G1 X55.117 Y184.975 E127.61637
G1 X54.414 Y184.935 E127.6515
G1 X53.72 Y184.816 E127.68663
G1 X53.045 Y184.618 E127.72172
G1 X52.396 Y184.346 E127.75683
G1 X51.782 Y184.001 E127.79197
G1 X51.211 Y183.59 E127.82707
G1 X50.733 Y183.159 E127.85918
G1 X50.616 Y183.042 E127.86743
G1 X50.147 Y182.517 E127.90256
G1 X49.741 Y181.942 E127.93767
G1 X49.403 Y181.324 E127.97282
G1 X49.136 Y180.673 E128.00792
G1 X48.946 Y179.995 E128.04305
G1 X48.833 Y179.3 E128.07818
G1 X48.8 Y178.658 E128.11025
G1 X48.8 Y41.342 E134.96097
G1 X48.84 Y40.639 E134.9961
G1 X48.959 Y39.945 E135.03123
G1 X49.157 Y39.27 E135.06633
G1 X49.429 Y38.621 E135.10143
G1 X49.774 Y38.007 E135.13657
G0 F6750 X50.172 Y38.128
G1 F1350 X50.582 Y37.584 E135.17056
G1 X50.899 Y37.241 E135.19386
G1 X51.016 Y37.124 E135.20211
G1 X51.525 Y36.671 E135.23611
G1 X52.083 Y36.282 E135.27004
G1 X52.683 Y35.96 E135.30401
G1 X53.317 Y35.711 E135.338
G1 X53.976 Y35.538 E135.37199
G1 X54.65 Y35.444 E135.40594
G1 X55.117 Y35.425 E135.42926
G1 X107.555 Y35.425 E138.0454
G1 X108.083 Y35.057 E138.07751
G1 X108.683 Y34.735 E138.11148
G1 X109.317 Y34.486 E138.14546
G1 X109.976 Y34.313 E138.17946
G1 X110.65 Y34.219 E138.21341
G1 X111.117 Y34.2 E138.23672
G1 X164.883 Y34.2 E140.91912
G1 X165.563 Y34.24 E140.95311
G1 X166.233 Y34.359 E140.98706
G1 X166.885 Y34.556 E141.02104
G1 X167.509 Y34.828 E141.055
G1 X168.097 Y35.172 E141.08898
G1 X168.641 Y35.582 E141.12297
G1 X168.984 Y35.899 E141.14627
G1 X169.101 Y36.016 E141.15453
G1 X169.554 Y36.525 E141.18852
G1 X169.943 Y37.083 E141.22246
G1 X170.265 Y37.683 E141.25643
G1 X170.514 Y38.317 E141.29041
G1 X170.687 Y38.976 E141.3244
G1 X170.781 Y39.65 E141.35835
G1 X170.8 Y40.117 E141.38167
G1 X170.8 Y179.883 E148.35463
G1 X170.76 Y180.563 E148.38861
G1 X170.641 Y181.233 E148.42256
G1 X170.444 Y181.885 E148.45654
G1 X170.172 Y182.509 E148.4905
G1 X169.828 Y183.097 E148.52449
G1 X169.418 Y183.641 E148.55847
G1 X169.101 Y183.984 E148.58177
G1 X168.984 Y184.101 E148.59003
G1 X168.475 Y184.554 E148.62402
G1 X167.917 Y184.943 E148.65796
G1 X167.317 Y185.265 E148.69193
G1 X166.683 Y185.514 E148.72591
G1 X166.024 Y185.687 E148.75991
G1 X165.35 Y185.781 E148.79386
G1 X164.883 Y185.8 E148.81718
G1 X111.117 Y185.8 E151.49957
G1 X110.437 Y185.76 E151.53356
G1 X109.767 Y185.641 E151.56751
G1 X109.115 Y185.444 E151.60149
G1 X108.491 Y185.172 E151.63545
G1 X107.903 Y184.828 E151.66943
G1 X107.567 Y184.575 E151.69042
G1 X55.117 Y184.575 E154.30716
G1 X54.437 Y184.535 E154.34114
G1 X53.767 Y184.416 E154.37509
G1 X53.115 Y184.219 E154.40907
G1 X52.491 Y183.947 E154.44303
G1 X51.903 Y183.603 E154.47702
G1 X51.359 Y183.193 E154.51101
G1 X51.016 Y182.876 E154.53431
G1 X50.899 Y182.759 E154.54256
G1 X50.446 Y182.25 E154.57656
G1 X50.057 Y181.692 E154.61049
G1 X49.735 Y181.092 E154.64446
G1 X49.486 Y180.458 E154.67845
G1 X49.313 Y179.799 E154.71244
G1 X49.219 Y179.125 E154.74639
G1 X49.2 Y178.658 E154.76971
G1 X49.2 Y41.342 E161.62043
G1 X49.24 Y40.662 E161.65442
G1 X49.359 Y39.992 E161.68836
G1 X49.556 Y39.34 E161.72235
G1 X49.828 Y38.716 E161.75631
G1 X50.172 Y38.128 E161.79029
G0 F6750 X50.57 Y38.254
G1 F1350 X51.182 Y37.524 E161.83782
G1 X51.299 Y37.407 E161.84607
G1 X51.791 Y36.971 E161.87887
G1 X52.332 Y36.599 E161.91163
G1 X52.914 Y36.295 E161.94438
G1 X53.529 Y36.064 E161.97716
G1 X54.168 Y35.909 E162.00996
G1 X55.117 Y35.825 E162.0575
G1 X107.702 Y35.825 E164.68097
G1 X107.791 Y35.746 E164.68691
G1 X108.332 Y35.374 E164.71966
G1 X108.914 Y35.07 E164.75242
G1 X109.529 Y34.839 E164.7852
G1 X110.168 Y34.684 E164.818
G1 X111.117 Y34.6 E164.86553
G1 X164.883 Y34.6 E167.54793
G1 X165.539 Y34.64 E167.58072
G1 X166.185 Y34.759 E167.61349
G1 X166.812 Y34.956 E167.64628
G1 X167.41 Y35.228 E167.67906
G1 X167.971 Y35.57 E167.71183
G1 X168.701 Y36.182 E167.75936
G1 X168.818 Y36.299 E167.76761
G1 X169.254 Y36.791 E167.80041
G1 X169.626 Y37.332 E167.83317
G1 X169.93 Y37.914 E167.86593
G1 X170.161 Y38.529 E167.8987
G1 X170.316 Y39.168 E167.93151
G1 X170.4 Y40.117 E167.97904
G1 X170.4 Y179.883 E174.95199
