;FLAVOR:Marlin
;TIME:5924
;Filament used: 3.49192m
;Layer height: 0.15
;MINX:39.7
;MINY:77.2
;MINZ:0.3
;MAXX:180.3
;MAXY:142.8
;MAXZ:2.55
;Generated with Cura_SteamEngine main
M140 S60
M105
M190 S60
M104 S200
M105
M109 S200
M82 ;absolute extrusion mode
G28 ;Home
G1 Z15.0 F2000 ;Move the platform
G92 E0
G92 E0
G1 F1500 E-6.5
;LAYER_COUNT:16
;LAYER:0
M107
M204 S1000
G0 F7500 X44.516 Y78.567 Z0.3
G0 X39.7 Y87.001
;TYPE:SKIRT
G1 F1500 E0
G1 X39.724 Y86.384 E0.03081
G1 X39.749 Y86.069 E0.04657
G1 X39.852 Y85.286 E0.08597
G1 X40.01 Y84.575 E0.12231
G1 X40.231 Y83.817 E0.1617
G1 X40.506 Y83.119 E0.19913
G1 X40.844 Y82.406 E0.23849
G1 X41.064 Y82.022 E0.26057
G1 X41.228 Y81.754 E0.27625
G1 X41.674 Y81.102 E0.31566
G1 X41.959 Y80.749 E0.33829
G1 X42.163 Y80.511 E0.35393
G1 X42.706 Y79.938 E0.39332
G1 X43.245 Y79.462 E0.42919
G1 X43.869 Y78.979 E0.46856
G1 X44.25 Y78.73 E0.49127
G1 X44.516 Y78.567 E0.50683
G1 X45.209 Y78.189 E0.54622
G1 X45.617 Y78.007 E0.5685
G1 X45.908 Y77.887 E0.58421
G1 X46.653 Y77.623 E0.62364
G1 X47.365 Y77.441 E0.6603
G1 X48.141 Y77.295 E0.6997
G1 X48.569 Y77.249 E0.72117
G1 X48.884 Y77.224 E0.73694
G1 X49.501 Y77.2 E0.76775
G1 X170.499 Y77.2 E6.80436
G1 X171.116 Y77.224 E6.83517
G1 X171.431 Y77.249 E6.85093
G1 X172.214 Y77.352 E6.89033
G1 X172.939 Y77.514 E6.92739
G1 X173.697 Y77.737 E6.96681
G1 X174.377 Y78.005 E7.00328
G1 X175.091 Y78.342 E7.04267
G1 X175.478 Y78.564 E7.06493
G1 X175.746 Y78.728 E7.0806
G1 X176.398 Y79.174 E7.12001
G1 X176.751 Y79.459 E7.14265
G1 X176.989 Y79.663 E7.15829
G1 X177.562 Y80.206 E7.19767
G1 X178.038 Y80.745 E7.23355
G1 X178.521 Y81.369 E7.27291
G1 X178.77 Y81.75 E7.29562
G1 X178.933 Y82.016 E7.31119
G1 X179.311 Y82.709 E7.35057
G1 X179.609 Y83.399 E7.38807
G1 X179.874 Y84.143 E7.42747
G1 X179.988 Y84.565 E7.44928
G1 X180.061 Y84.87 E7.46492
G1 X180.205 Y85.647 E7.50435
G1 X180.275 Y86.378 E7.54098
G1 X180.3 Y86.999 E7.57199
G1 X180.3 Y132.999 E9.86694
G1 X180.276 Y133.616 E9.89775
G1 X180.251 Y133.931 E9.91351
G1 X180.148 Y134.714 E9.95291
G1 X179.99 Y135.425 E9.98925
G1 X179.769 Y136.183 E10.02864
G1 X179.494 Y136.881 E10.06607
G1 X179.156 Y137.594 E10.10543
G1 X178.936 Y137.978 E10.12751
G1 X178.772 Y138.246 E10.14319
G1 X178.326 Y138.898 E10.1826
G1 X178.041 Y139.251 E10.20523
G1 X177.837 Y139.489 E10.22087
G1 X177.294 Y140.062 E10.26026
G1 X176.754 Y140.538 E10.29617
G1 X176.13 Y141.022 E10.33557
G1 X175.491 Y141.428 E10.37334
G1 X174.798 Y141.807 E10.41275
G1 X174.383 Y141.993 E10.43544
G1 X174.092 Y142.113 E10.45114
G1 X173.347 Y142.377 E10.49057
G1 X172.635 Y142.559 E10.52724
G1 X171.859 Y142.705 E10.56663
G1 X171.431 Y142.751 E10.58811
G1 X171.116 Y142.776 E10.60387
G1 X170.499 Y142.8 E10.63468
G1 X49.501 Y142.8 E16.67129
G1 X48.884 Y142.776 E16.7021
G1 X48.569 Y142.751 E16.71786
G1 X47.786 Y142.648 E16.75726
G1 X47.061 Y142.486 E16.79432
G1 X46.303 Y142.263 E16.83374
G1 X45.908 Y142.113 E16.85482
G1 X45.617 Y141.993 E16.87053
G1 X44.904 Y141.655 E16.90989
G1 X44.509 Y141.428 E16.93262
G1 X44.242 Y141.264 E16.94826
G1 X43.59 Y140.818 E16.98767
G1 X43.007 Y140.333 E17.0255
G1 X42.434 Y139.79 E17.06489
G1 X41.959 Y139.251 E17.10073
G1 X41.476 Y138.626 E17.14014
G1 X41.228 Y138.246 E17.16277
G1 X41.064 Y137.978 E17.17845
G1 X40.686 Y137.285 E17.21783
G1 X40.506 Y136.881 E17.2399
G1 X40.386 Y136.59 E17.2556
G1 X40.122 Y135.845 E17.29504
G1 X39.938 Y135.123 E17.33221
G1 X39.794 Y134.346 E17.37163
G1 X39.725 Y133.622 E17.40792
G1 X39.7 Y133.001 E17.43892
G1 X39.7 Y87.001 E19.73387
G0 F7500 X40.1 Y87.001
G1 F1500 X40.123 Y86.416 E19.76308
G1 X40.148 Y86.101 E19.77885
G1 X40.327 Y84.97 E19.83597
G1 X40.399 Y84.668 E19.85146
G1 X40.616 Y83.93 E19.88984
G1 X40.876 Y83.272 E19.92514
G1 X41.206 Y82.577 E19.96352
G1 X41.405 Y82.23 E19.98348
G1 X41.569 Y81.962 E19.99915
G1 X42.004 Y81.328 E20.03751
G1 X42.467 Y80.771 E20.07365
G1 X43.265 Y79.972 E20.12999
G1 X43.505 Y79.766 E20.14577
G1 X44.114 Y79.296 E20.18415
G1 X44.725 Y78.908 E20.22026
G1 X45.4 Y78.541 E20.25859
G1 X46.061 Y78.257 E20.29448
G1 X47.154 Y77.903 E20.3518
G1 X47.458 Y77.83 E20.3674
G1 X48.214 Y77.689 E20.40576
G1 X48.916 Y77.623 E20.44094
G1 X49.501 Y77.6 E20.47015
G1 X170.499 Y77.6 E26.50676
G1 X171.084 Y77.623 E26.53597
G1 X171.399 Y77.648 E26.55174
G1 X172.162 Y77.749 E26.59014
G1 X172.846 Y77.903 E26.62512
G1 X173.936 Y78.255 E26.68226
G1 X174.225 Y78.374 E26.69785
G1 X174.92 Y78.704 E26.73624
G1 X175.538 Y79.069 E26.77205
G1 X176.172 Y79.504 E26.81041
G1 X176.729 Y79.967 E26.84654
G1 X177.528 Y80.765 E26.90288
G1 X177.734 Y81.005 E26.91866
G1 X178.204 Y81.614 E26.95704
G1 X178.592 Y82.225 E26.99315
G1 X178.959 Y82.9 E27.03148
G1 X179.24 Y83.552 E27.0669
G1 X179.496 Y84.277 E27.10526
G1 X179.672 Y84.964 E27.14064
G1 X179.852 Y86.097 E27.19788
G1 X179.877 Y86.41 E27.21354
G1 X179.9 Y86.999 E27.24295
G1 X179.9 Y132.999 E29.5379
G1 X179.877 Y133.584 E29.56711
G1 X179.852 Y133.899 E29.58287
G1 X179.673 Y135.03 E29.64
G1 X179.601 Y135.332 E29.65549
G1 X179.384 Y136.07 E29.69387
G1 X179.124 Y136.728 E29.72916
G1 X178.794 Y137.423 E29.76755
G1 X178.595 Y137.77 E29.7875
G1 X178.431 Y138.038 E29.80318
G1 X177.996 Y138.672 E29.84154
G1 X177.533 Y139.229 E29.87767
G1 X176.733 Y140.03 E29.93415
G1 X176.494 Y140.235 E29.94986
G1 X175.885 Y140.705 E29.98824
G1 X175.282 Y141.088 E30.02388
G1 X174.607 Y141.455 E30.06221
G1 X174.23 Y141.623 E30.08281
G1 X173.939 Y141.743 E30.09851
G1 X172.846 Y142.097 E30.15583
G1 X172.542 Y142.17 E30.17143
G1 X171.786 Y142.311 E30.20979
G1 X171.084 Y142.377 E30.24497
G1 X170.499 Y142.4 E30.27418
G1 X49.501 Y142.4 E36.31079
G1 X48.916 Y142.377 E36.34
G1 X48.601 Y142.352 E36.35577
G1 X47.838 Y142.251 E36.39416
G1 X47.154 Y142.097 E36.42914
G1 X46.061 Y141.743 E36.48646
G1 X45.77 Y141.623 E36.50217
G1 X45.075 Y141.293 E36.54055
G1 X44.718 Y141.088 E36.56109
G1 X44.451 Y140.924 E36.57672
G1 X43.817 Y140.487 E36.61514
G1 X43.267 Y140.03 E36.65081
G1 X42.467 Y139.229 E36.70729
G1 X42.263 Y138.991 E36.72293
G1 X41.793 Y138.382 E36.76131
G1 X41.405 Y137.77 E36.79746
G1 X41.038 Y137.093 E36.83588
G1 X40.756 Y136.437 E36.87151
G1 X40.5 Y135.712 E36.90987
G1 X40.327 Y135.03 E36.94497
G1 X40.148 Y133.903 E37.0019
G1 X40.123 Y133.59 E37.01756
G1 X40.1 Y133.001 E37.04697
G1 X40.1 Y87.001 E39.34192
G0 F7500 X40.5 Y87.001
G1 F1500 X40.522 Y86.447 E39.36958
G1 X40.547 Y86.132 E39.38535
G1 X40.716 Y85.063 E39.43934
G1 X40.788 Y84.761 E39.45483
G1 X41.126 Y83.715 E39.50967
G1 X41.246 Y83.424 E39.52538
G1 X41.746 Y82.439 E39.58049
G1 X41.91 Y82.171 E39.59616
G1 X42.566 Y81.269 E39.65181
G1 X42.77 Y81.031 E39.66745
G1 X43.526 Y80.275 E39.72079
G1 X43.766 Y80.069 E39.73657
G1 X44.668 Y79.412 E39.79224
G1 X44.934 Y79.249 E39.8078
G1 X45.922 Y78.747 E39.86309
G1 X46.213 Y78.627 E39.8788
G1 X47.248 Y78.291 E39.93308
G1 X47.552 Y78.218 E39.94868
G1 X48.632 Y78.047 E40.00324
G1 X48.947 Y78.022 E40.019
G1 X49.501 Y78 E40.04666
G1 X170.499 Y78 E46.08328
G1 X171.053 Y78.022 E46.11094
G1 X171.368 Y78.047 E46.1267
G1 X172.448 Y78.218 E46.18125
G1 X172.752 Y78.291 E46.19685
G1 X173.783 Y78.625 E46.25092
G1 X174.072 Y78.744 E46.26651
G1 X175.061 Y79.246 E46.32185
G1 X175.329 Y79.41 E46.33752
G1 X176.231 Y80.066 E46.39317
G1 X176.469 Y80.27 E46.4088
G1 X177.225 Y81.026 E46.46214
G1 X177.431 Y81.266 E46.47792
G1 X178.088 Y82.168 E46.5336
G1 X178.251 Y82.434 E46.54916
G1 X178.75 Y83.415 E46.60407
G1 X178.87 Y83.705 E46.61973
G1 X179.21 Y84.752 E46.67465
G1 X179.283 Y85.057 E46.6903
G1 X179.453 Y86.129 E46.74445
G1 X179.478 Y86.442 E46.76011
G1 X179.5 Y86.999 E46.78792
G1 X179.5 Y132.999 E49.08287
G1 X179.478 Y133.553 E49.11053
G1 X179.453 Y133.868 E49.1263
G1 X179.284 Y134.937 E49.18029
G1 X179.212 Y135.239 E49.19578
G1 X178.874 Y136.285 E49.25062
G1 X178.754 Y136.576 E49.26633
G1 X178.254 Y137.561 E49.32144
G1 X178.09 Y137.829 E49.33711
G1 X177.434 Y138.731 E49.39276
G1 X177.23 Y138.969 E49.4084
G1 X176.472 Y139.726 E49.46184
G1 X176.233 Y139.931 E49.47755
G1 X175.34 Y140.583 E49.53271
G1 X175.073 Y140.747 E49.54835
G1 X174.078 Y141.253 E49.60404
G1 X173.787 Y141.373 E49.61974
G1 X172.752 Y141.709 E49.67403
G1 X172.448 Y141.782 E49.68963
G1 X171.368 Y141.953 E49.74418
G1 X171.053 Y141.978 E49.75995
G1 X170.499 Y142 E49.78761
G1 X49.501 Y142 E55.82422
G1 X48.947 Y141.978 E55.85188
G1 X48.632 Y141.953 E55.86765
G1 X47.552 Y141.782 E55.9222
G1 X47.248 Y141.709 E55.9378
G1 X46.213 Y141.373 E55.99209
G1 X45.922 Y141.253 E56.00779
G1 X44.927 Y140.747 E56.06348
G1 X44.66 Y140.583 E56.07912
G1 X43.767 Y139.931 E56.13428
G1 X43.528 Y139.726 E56.14999
G1 X42.77 Y138.969 E56.20343
G1 X42.566 Y138.731 E56.21907
G1 X41.91 Y137.829 E56.27472
G1 X41.746 Y137.561 E56.29039
G1 X41.246 Y136.576 E56.3455
G1 X41.126 Y136.285 E56.36121
G1 X40.788 Y135.239 E56.41605
G1 X40.716 Y134.937 E56.43154
G1 X40.547 Y133.871 E56.48538
G1 X40.522 Y133.558 E56.50105
G1 X40.5 Y133.001 E56.52886
G1 X40.5 Y87.001 E58.82381
G0 F7500 X40.9 Y87.001
G1 F1500 X40.921 Y86.479 E58.84987
G1 X40.946 Y86.164 E58.86564
G1 X41.105 Y85.155 E58.9166
G1 X41.177 Y84.853 E58.93209
G1 X41.495 Y83.868 E58.98373
G1 X41.615 Y83.577 E58.99943
G1 X42.087 Y82.648 E59.05142
G1 X42.251 Y82.38 E59.06709
G1 X42.87 Y81.53 E59.11955
G1 X43.074 Y81.292 E59.13519
G1 X43.786 Y80.579 E59.18546
G1 X44.026 Y80.373 E59.20124
G1 X44.877 Y79.754 E59.25374
G1 X45.143 Y79.591 E59.26931
G1 X46.075 Y79.116 E59.32149
G1 X46.366 Y78.996 E59.3372
G1 X47.341 Y78.68 E59.38833
G1 X47.645 Y78.607 E59.40393
G1 X48.664 Y78.446 E59.4554
G1 X48.979 Y78.421 E59.47116
G1 X49.501 Y78.4 E59.49723
G1 X170.499 Y78.4 E65.53384
G1 X171.021 Y78.421 E65.55991
G1 X171.336 Y78.446 E65.57567
G1 X172.355 Y78.607 E65.62714
G1 X172.659 Y78.68 E65.64274
G1 X173.631 Y78.995 E65.69371
G1 X173.92 Y79.114 E65.70931
G1 X174.852 Y79.587 E65.76145
G1 X175.12 Y79.751 E65.77712
G1 X175.97 Y80.37 E65.82958
G1 X176.208 Y80.574 E65.84522
G1 X176.921 Y81.286 E65.89549
G1 X177.127 Y81.526 E65.91127
G1 X177.746 Y82.377 E65.96377
G1 X177.909 Y82.643 E65.97934
G1 X178.381 Y83.567 E66.0311
G1 X178.501 Y83.857 E66.04676
G1 X178.821 Y84.845 E66.09857
G1 X178.894 Y85.15 E66.11422
G1 X179.054 Y86.161 E66.16529
G1 X179.079 Y86.474 E66.18095
G1 X179.1 Y86.999 E66.20716
G1 X179.1 Y132.999 E68.50211
G1 X179.079 Y133.521 E68.52818
G1 X179.054 Y133.836 E68.54394
G1 X178.895 Y134.845 E68.5949
G1 X178.823 Y135.147 E68.61039
G1 X178.505 Y136.132 E68.66203
G1 X178.385 Y136.423 E68.67774
G1 X177.913 Y137.352 E68.72972
G1 X177.749 Y137.62 E68.7454
G1 X177.13 Y138.47 E68.79786
G1 X176.926 Y138.708 E68.8135
G1 X176.212 Y139.423 E68.86391
G1 X175.973 Y139.628 E68.87962
G1 X175.13 Y140.242 E68.93165
G1 X174.863 Y140.406 E68.94728
G1 X173.925 Y140.884 E68.9998
G1 X173.634 Y141.004 E69.01551
G1 X172.659 Y141.32 E69.06664
G1 X172.355 Y141.393 E69.08224
G1 X171.336 Y141.554 E69.13371
G1 X171.021 Y141.579 E69.14947
G1 X170.499 Y141.6 E69.17554
G1 X49.501 Y141.6 E75.21215
G1 X48.979 Y141.579 E75.23822
G1 X48.664 Y141.554 E75.25398
G1 X47.645 Y141.393 E75.30545
G1 X47.341 Y141.32 E75.32105
G1 X46.366 Y141.004 E75.37218
G1 X46.075 Y140.884 E75.38788
G1 X45.137 Y140.406 E75.44041
G1 X44.87 Y140.242 E75.45604
G1 X44.027 Y139.628 E75.50807
G1 X43.788 Y139.423 E75.52378
G1 X43.074 Y138.708 E75.57419
G1 X42.87 Y138.47 E75.58983
G1 X42.251 Y137.62 E75.64229
G1 X42.087 Y137.352 E75.65797
G1 X41.615 Y136.423 E75.70995
G1 X41.495 Y136.132 E75.72566
G1 X41.177 Y135.147 E75.7773
G1 X41.105 Y134.845 E75.79279
G1 X40.946 Y133.839 E75.8436
G1 X40.921 Y133.526 E75.85926
G1 X40.9 Y133.001 E75.88548
G1 X40.9 Y87.001 E78.18043
G0 F7500 X41.3 Y87.001
G1 F1500 X41.319 Y86.51 E78.20494
G1 X41.344 Y86.195 E78.22071
G1 X41.494 Y85.248 E78.26854
G1 X41.566 Y84.946 E78.28403
G1 X41.865 Y84.02 E78.33258
G1 X41.985 Y83.729 E78.34828
G1 X42.429 Y82.857 E78.3971
G1 X42.593 Y82.589 E78.41277
G1 X43.174 Y81.79 E78.46206
G1 X43.378 Y81.552 E78.4777
G1 X44.047 Y80.882 E78.52494
G1 X44.287 Y80.676 E78.54072
G1 X45.086 Y80.095 E78.59
G1 X45.352 Y79.932 E78.60557
G1 X46.227 Y79.486 E78.65457
G1 X46.518 Y79.366 E78.67027
G1 X47.434 Y79.069 E78.71831
G1 X47.738 Y78.996 E78.73391
G1 X48.695 Y78.844 E78.78225
G1 X49.01 Y78.819 E78.79802
G1 X49.501 Y78.8 E78.82253
G1 X170.499 Y78.8 E84.85915
G1 X170.99 Y78.819 E84.88366
G1 X171.305 Y78.844 E84.89943
G1 X172.262 Y78.996 E84.94777
G1 X172.566 Y79.069 E84.96337
G1 X173.479 Y79.365 E85.01125
G1 X173.768 Y79.484 E85.02684
G1 X174.643 Y79.929 E85.07582
G1 X174.911 Y80.093 E85.09149
G1 X175.71 Y80.674 E85.14078
G1 X175.948 Y80.878 E85.15642
G1 X176.618 Y81.547 E85.20366
G1 X176.824 Y81.787 E85.21944
G1 X177.405 Y82.586 E85.26872
G1 X177.568 Y82.852 E85.28429
G1 X178.011 Y83.72 E85.33291
G1 X178.131 Y84.01 E85.34856
G1 X178.432 Y84.938 E85.39724
G1 X178.505 Y85.243 E85.41288
G1 X178.655 Y86.192 E85.46082
G1 X178.68 Y86.505 E85.47648
G1 X178.7 Y86.999 E85.50115
G1 X178.7 Y132.999 E87.7961
G1 X178.681 Y133.49 E87.82061
G1 X178.656 Y133.805 E87.83638
G1 X178.506 Y134.752 E87.88421
G1 X178.434 Y135.054 E87.8997
G1 X178.135 Y135.98 E87.94825
G1 X178.015 Y136.271 E87.96395
G1 X177.571 Y137.143 E88.01277
G1 X177.407 Y137.411 E88.02845
G1 X176.826 Y138.21 E88.07773
G1 X176.622 Y138.448 E88.09337
G1 X175.952 Y139.119 E88.14068
G1 X175.713 Y139.324 E88.15639
G1 X174.921 Y139.901 E88.20527
G1 X174.654 Y140.065 E88.22091
G1 X173.773 Y140.514 E88.27024
G1 X173.482 Y140.634 E88.28594
G1 X172.566 Y140.931 E88.33399
G1 X172.262 Y141.004 E88.34958
G1 X171.305 Y141.156 E88.39793
G1 X170.99 Y141.181 E88.41369
G1 X170.499 Y141.2 E88.43821
G1 X49.501 Y141.2 E94.47482
G1 X49.01 Y141.181 E94.49934
G1 X48.695 Y141.156 E94.5151
G1 X47.738 Y141.004 E94.56344
G1 X47.434 Y140.931 E94.57904
G1 X46.518 Y140.634 E94.62708
G1 X46.227 Y140.514 E94.64279
G1 X45.346 Y140.065 E94.69212
G1 X45.079 Y139.901 E94.70775
G1 X44.287 Y139.324 E94.75664
G1 X44.048 Y139.119 E94.77235
G1 X43.378 Y138.448 E94.81966
G1 X43.174 Y138.21 E94.83529
G1 X42.593 Y137.411 E94.88458
G1 X42.429 Y137.143 E94.90026
G1 X41.985 Y136.271 E94.94908
G1 X41.865 Y135.98 E94.96478
G1 X41.566 Y135.054 E95.01333
G1 X41.494 Y134.752 E95.02882
G1 X41.345 Y133.808 E95.0765
G1 X41.32 Y133.495 E95.09216
G1 X41.3 Y133.001 E95.11683
G1 X41.3 Y87.001 E97.41178
G0 F7500 X41.7 Y87.001
G1 F1500 X41.718 Y86.542 E97.43469
G1 X41.743 Y86.227 E97.45046
G1 X41.883 Y85.341 E97.49521
G1 X41.955 Y85.039 E97.5107
G1 X42.235 Y84.173 E97.55611
G1 X42.355 Y83.882 E97.57181
G1 X42.77 Y83.066 E97.61748
G1 X42.934 Y82.798 E97.63316
G1 X43.477 Y82.05 E97.67927
G1 X43.681 Y81.812 E97.69491
G1 X44.307 Y81.186 E97.73908
G1 X44.547 Y80.98 E97.75486
G1 X45.295 Y80.436 E97.801
G1 X45.561 Y80.273 E97.81657
G1 X46.38 Y79.856 E97.86242
G1 X46.671 Y79.736 E97.87812
G1 X47.528 Y79.458 E97.92307
G1 X47.832 Y79.385 E97.93867
G1 X48.727 Y79.243 E97.98388
G1 X49.042 Y79.218 E97.99964
G1 X49.501 Y79.2 E98.02256
G1 X170.499 Y79.2 E104.05917
G1 X170.958 Y79.218 E104.08209
G1 X171.273 Y79.243 E104.09786
G1 X172.168 Y79.385 E104.14307
G1 X172.472 Y79.458 E104.15867
G1 X173.326 Y79.735 E104.20346
G1 X173.615 Y79.854 E104.21905
G1 X174.434 Y80.27 E104.26488
G1 X174.702 Y80.434 E104.28055
G1 X175.45 Y80.977 E104.32667
G1 X175.688 Y81.181 E104.34231
G1 X176.314 Y81.807 E104.38647
G1 X176.52 Y82.047 E104.40225
G1 X177.064 Y82.795 E104.4484
G1 X177.227 Y83.061 E104.46396
G1 X177.641 Y83.873 E104.50943
G1 X177.761 Y84.163 E104.52509
G1 X178.043 Y85.031 E104.57062
G1 X178.116 Y85.336 E104.58627
G1 X178.257 Y86.224 E104.63113
G1 X178.282 Y86.537 E104.64679
G1 X178.3 Y86.999 E104.66986
G1 X178.3 Y132.999 E106.96481
G1 X178.282 Y133.458 E106.98773
G1 X178.257 Y133.773 E107.00349
G1 X178.117 Y134.659 E107.04824
G1 X178.045 Y134.961 E107.06373
G1 X177.765 Y135.827 E107.10914
G1 X177.645 Y136.118 E107.12484
G1 X177.23 Y136.934 E107.17052
G1 X177.066 Y137.202 E107.18619
G1 X176.523 Y137.95 E107.23231
G1 X176.319 Y138.188 E107.24794
G1 X175.691 Y138.815 E107.29222
G1 X175.452 Y139.02 E107.30793
G1 X174.712 Y139.56 E107.35363
G1 X174.445 Y139.724 E107.36926
G1 X173.62 Y140.144 E107.41545
G1 X173.329 Y140.264 E107.43115
G1 X172.472 Y140.542 E107.4761
