;FLAVOR:Marlin
;TIME:6842
;Filament used: 4.77171m
;Layer height: 0.2
;MINX:37.2
;MINY:74.575
;MINZ:0.3
;MAXX:182.8
;MAXY:145.425
;MAXZ:2.5
;Generated with Cura_SteamEngine 4.12.1
M140 S60
M105
M190 S60
M104 S200
M105
M109 S200
M82 ;absolute extrusion mode
G28 ;Home
G1 Z15.0 F2000 ;Move the platform
G92 E0
G92 E0
G1 F1500 E-6.5
;LAYER_COUNT:12
;LAYER:0
M107
M204 S1000
G0 F6750 X41.504 Y75.462 Z0.3
;TYPE:SKIRT
G1 F1500 E0
G1 F1350 X42.222 Y75.132 E0.03942
G1 X42.969 Y74.877 E0.0788
G1 X43.738 Y74.698 E0.11819
G1 X44.522 Y74.598 E0.15763
G1 X45.117 Y74.575 E0.18733
G1 X174.883 Y74.575 E6.66138
G1 X175.672 Y74.615 E6.7008
G1 X176.452 Y74.734 E6.74016
G1 X177.217 Y74.932 E6.77959
G1 X177.957 Y75.206 E6.81895
G1 X178.666 Y75.554 E6.85836
G1 X179.337 Y75.972 E6.8978
G1 X179.961 Y76.455 E6.93717
G1 X180.398 Y76.86 E6.96689
G1 X180.515 Y76.977 E6.97515
G1 X181.045 Y77.563 E7.01457
G1 X181.512 Y78.199 E7.05393
G1 X181.913 Y78.879 E7.09332
G1 X182.243 Y79.597 E7.13274
G1 X182.498 Y80.344 E7.17212
G1 X182.677 Y81.113 E7.21151
G1 X182.777 Y81.897 E7.25094
G1 X182.8 Y82.492 E7.28065
G1 X182.8 Y137.508 E10.02541
G1 X182.76 Y138.297 E10.06482
G1 X182.641 Y139.077 E10.10419
G1 X182.443 Y139.842 E10.14361
G1 X182.169 Y140.582 E10.18298
G1 X181.821 Y141.291 E10.22238
G1 X181.403 Y141.962 E10.26182
G1 X180.92 Y142.586 E10.30119
G1 X180.515 Y143.023 E10.33092
G1 X180.398 Y143.14 E10.33917
G1 X179.812 Y143.67 E10.37859
G1 X179.176 Y144.137 E10.41795
G1 X178.496 Y144.538 E10.45734
G1 X177.778 Y144.868 E10.49676
G1 X177.031 Y145.123 E10.53614
G1 X176.262 Y145.302 E10.57553
G1 X175.478 Y145.402 E10.61496
G1 X174.883 Y145.425 E10.64467
G1 X45.117 Y145.425 E17.11872
G1 X44.328 Y145.385 E17.15814
G1 X43.548 Y145.266 E17.1975
G1 X42.783 Y145.068 E17.23693
G1 X42.043 Y144.794 E17.27629
G1 X41.334 Y144.446 E17.3157
G1 X40.663 Y144.028 E17.35514
G1 X40.039 Y143.545 E17.39451
G1 X39.602 Y143.14 E17.42423
G1 X39.485 Y143.023 E17.43249
G1 X38.955 Y142.437 E17.47191
G1 X38.488 Y141.801 E17.51127
G1 X38.087 Y141.121 E17.55066
G1 X37.757 Y140.403 E17.59008
G1 X37.502 Y139.656 E17.62946
G1 X37.323 Y138.887 E17.66885
G1 X37.223 Y138.103 E17.70828
G1 X37.2 Y137.508 E17.73799
G1 X37.2 Y82.492 E20.48275
G1 X37.24 Y81.703 E20.52216
G1 X37.359 Y80.923 E20.56153
G1 X37.557 Y80.158 E20.60095
G1 X37.831 Y79.418 E20.64032
G1 X38.179 Y78.709 E20.67972
G1 X38.597 Y78.038 E20.71916
G1 X39.08 Y77.414 E20.75853
G1 X39.485 Y76.977 E20.78825
G1 X39.602 Y76.86 E20.79651
G1 X40.188 Y76.33 E20.83593
G1 X40.824 Y75.863 E20.87529
G1 X41.504 Y75.462 E20.91468
G0 F6750 X41.743 Y75.789
G1 F1350 X42.445 Y75.474 E20.95307
G1 X43.176 Y75.234 E20.99145
G1 X43.927 Y75.071 E21.02979
G1 X44.692 Y74.987 E21.06819
G1 X45.117 Y74.975 E21.0894
G1 X174.883 Y74.975 E27.56345
G1 X175.651 Y75.015 E27.60182
G1 X176.411 Y75.134 E27.6402
G1 X177.154 Y75.332 E27.67856
G1 X177.873 Y75.606 E27.71695
G1 X178.559 Y75.953 E27.7553
G1 X179.206 Y76.369 E27.79368
G1 X179.806 Y76.85 E27.83204
G1 X180.116 Y77.142 E27.85329
G1 X180.233 Y77.259 E27.86154
G1 X180.747 Y77.831 E27.89991
G1 X181.2 Y78.453 E27.9383
G1 X181.586 Y79.118 E27.97666
G1 X181.901 Y79.82 E28.01505
G1 X182.141 Y80.551 E28.05343
G1 X182.304 Y81.302 E28.09177
G1 X182.388 Y82.067 E28.13017
G1 X182.4 Y82.492 E28.15138
G1 X182.4 Y137.508 E30.89614
G1 X182.36 Y138.276 E30.93451
G1 X182.241 Y139.036 E30.97288
G1 X182.043 Y139.779 E31.01125
G1 X181.769 Y140.498 E31.04963
G1 X181.422 Y141.184 E31.08799
G1 X181.006 Y141.831 E31.12636
G1 X180.525 Y142.431 E31.16473
G1 X180.233 Y142.741 E31.18598
G1 X180.116 Y142.858 E31.19423
G1 X179.544 Y143.372 E31.2326
G1 X178.922 Y143.825 E31.27099
G1 X178.257 Y144.211 E31.30935
G1 X177.555 Y144.526 E31.34773
G1 X176.824 Y144.766 E31.38612
G1 X176.073 Y144.929 E31.42446
G1 X175.308 Y145.013 E31.46285
G1 X174.883 Y145.025 E31.48407
G1 X45.117 Y145.025 E37.95812
G1 X44.349 Y144.985 E37.99649
G1 X43.589 Y144.866 E38.03486
G1 X42.846 Y144.668 E38.07323
G1 X42.127 Y144.394 E38.11161
G1 X41.441 Y144.047 E38.14997
G1 X40.794 Y143.631 E38.18834
G1 X40.194 Y143.15 E38.22671
G1 X39.884 Y142.858 E38.24796
G1 X39.767 Y142.741 E38.25621
G1 X39.253 Y142.169 E38.29458
G1 X38.8 Y141.547 E38.33297
G1 X38.414 Y140.882 E38.37133
G1 X38.099 Y140.18 E38.40971
G1 X37.859 Y139.449 E38.4481
G1 X37.696 Y138.698 E38.48644
G1 X37.612 Y137.933 E38.52484
G1 X37.6 Y137.508 E38.54605
G1 X37.6 Y82.492 E41.29081
G1 X37.64 Y81.724 E41.32917
G1 X37.759 Y80.964 E41.36755
G1 X37.957 Y80.221 E41.40591
G1 X38.231 Y79.502 E41.4443
G1 X38.578 Y78.816 E41.48266
G1 X38.994 Y78.169 E41.52103
G1 X39.475 Y77.569 E41.5594
G1 X39.767 Y77.259 E41.58064
G1 X39.884 Y77.142 E41.5889
G1 X40.456 Y76.628 E41.62726
G1 X41.078 Y76.175 E41.66565
G1 X41.743 Y75.789 E41.70402
G0 F6750 X41.98 Y76.117
G1 F1350 X42.666 Y75.818 E41.74135
G1 X43.38 Y75.594 E41.77868
G1 X44.113 Y75.447 E41.81598
G1 X45.117 Y75.375 E41.8662
G1 X174.883 Y75.375 E48.34025
G1 X175.63 Y75.415 E48.37757
G1 X176.368 Y75.534 E48.41487
G1 X177.09 Y75.732 E48.45222
G1 X177.786 Y76.005 E48.48952
G1 X178.449 Y76.352 E48.52685
G1 X179.072 Y76.767 E48.5642
G1 X179.833 Y77.425 E48.61439
G1 X179.95 Y77.542 E48.62264
G1 X180.45 Y78.099 E48.65999
G1 X180.887 Y78.705 E48.69726
G1 X181.258 Y79.355 E48.7346
G1 X181.557 Y80.041 E48.77193
G1 X181.781 Y80.755 E48.80927
G1 X181.928 Y81.488 E48.84656
G1 X182 Y82.492 E48.89678
G1 X182 Y137.508 E51.64154
G1 X181.96 Y138.255 E51.67886
G1 X181.841 Y138.993 E51.71616
G1 X181.643 Y139.715 E51.75351
G1 X181.37 Y140.411 E51.79081
G1 X181.023 Y141.074 E51.82814
G1 X180.608 Y141.697 E51.86549
G1 X179.95 Y142.458 E51.91568
G1 X179.833 Y142.575 E51.92393
G1 X179.276 Y143.075 E51.96128
G1 X178.67 Y143.512 E51.99855
G1 X178.02 Y143.883 E52.03589
G1 X177.334 Y144.182 E52.07322
G1 X176.62 Y144.406 E52.11056
G1 X175.887 Y144.553 E52.14786
G1 X174.883 Y144.625 E52.19807
G1 X45.117 Y144.625 E58.67213
G1 X44.37 Y144.585 E58.70945
G1 X43.632 Y144.466 E58.74674
G1 X42.91 Y144.268 E58.78409
G1 X42.214 Y143.995 E58.82139
G1 X41.551 Y143.648 E58.85873
G1 X40.928 Y143.233 E58.89607
G1 X40.167 Y142.575 E58.94626
G1 X40.05 Y142.458 E58.95452
G1 X39.55 Y141.901 E58.99186
G1 X39.113 Y141.295 E59.02913
G1 X38.742 Y140.645 E59.06647
G1 X38.443 Y139.959 E59.10381
G1 X38.219 Y139.245 E59.14114
G1 X38.072 Y138.512 E59.17844
G1 X38 Y137.508 E59.22866
G1 X38 Y82.492 E61.97342
G1 X38.04 Y81.745 E62.01074
G1 X38.159 Y81.007 E62.04803
G1 X38.357 Y80.285 E62.08538
G1 X38.63 Y79.589 E62.12268
G1 X38.977 Y78.926 E62.16002
G1 X39.392 Y78.303 E62.19736
G1 X40.05 Y77.542 E62.24755
G1 X40.167 Y77.425 E62.25581
G1 X40.724 Y76.925 E62.29315
G1 X41.33 Y76.488 E62.33043
G1 X41.98 Y76.117 E62.36776
G0 F6750 X42.216 Y76.447
G1 F1350 X42.885 Y76.164 E62.404
G1 X43.581 Y75.956 E62.44025
G1 X44.296 Y75.826 E62.4765
G1 X45.117 Y75.775 E62.51754
G1 X174.883 Y75.775 E68.99159
G1 X175.608 Y75.815 E69.02782
G1 X176.325 Y75.934 E69.06408
G1 X177.024 Y76.132 E69.10032
G1 X177.697 Y76.405 E69.13656
G1 X178.336 Y76.75 E69.17279
G1 X178.933 Y77.164 E69.20903
G1 X179.55 Y77.708 E69.25007
G1 X179.667 Y77.825 E69.25833
G1 X180.151 Y78.366 E69.29454
G1 X180.574 Y78.957 E69.3308
G1 X180.928 Y79.591 E69.36703
G1 X181.211 Y80.26 E69.40327
G1 X181.419 Y80.956 E69.43951
G1 X181.549 Y81.671 E69.47576
G1 X181.6 Y82.492 E69.5168
G1 X181.6 Y137.508 E72.26156
G1 X181.56 Y138.233 E72.29779
G1 X181.441 Y138.95 E72.33405
G1 X181.243 Y139.649 E72.37029
G1 X180.97 Y140.322 E72.40653
G1 X180.625 Y140.961 E72.44276
G1 X180.211 Y141.558 E72.479
G1 X179.667 Y142.175 E72.52004
G1 X179.55 Y142.292 E72.5283
G1 X179.009 Y142.776 E72.56451
G1 X178.418 Y143.199 E72.60077
G1 X177.784 Y143.553 E72.637
G1 X177.115 Y143.836 E72.67324
G1 X176.419 Y144.044 E72.70948
G1 X175.704 Y144.174 E72.74573
G1 X174.883 Y144.225 E72.78677
G1 X45.117 Y144.225 E79.26083
G1 X44.392 Y144.185 E79.29705
G1 X43.675 Y144.066 E79.33331
G1 X42.976 Y143.868 E79.36956
G1 X42.303 Y143.595 E79.40579
G1 X41.664 Y143.25 E79.44202
G1 X41.067 Y142.836 E79.47827
G1 X40.45 Y142.292 E79.5193
G1 X40.333 Y142.175 E79.52756
G1 X39.849 Y141.634 E79.56377
G1 X39.426 Y141.043 E79.60003
G1 X39.072 Y140.409 E79.63626
G1 X38.789 Y139.74 E79.6725
G1 X38.581 Y139.044 E79.70874
G1 X38.451 Y138.329 E79.745
G1 X38.4 Y137.508 E79.78604
G1 X38.4 Y82.492 E82.5308
G1 X38.44 Y81.767 E82.56702
G1 X38.559 Y81.05 E82.60328
G1 X38.757 Y80.351 E82.63953
G1 X39.03 Y79.678 E82.67576
G1 X39.375 Y79.039 E82.71199
G1 X39.789 Y78.442 E82.74824
G1 X40.333 Y77.825 E82.78927
G1 X40.45 Y77.708 E82.79753
G1 X40.991 Y77.224 E82.83374
G1 X41.582 Y76.801 E82.87
G1 X42.216 Y76.447 E82.90623
G0 F6750 X42.451 Y76.778
G1 F1350 X43.102 Y76.511 E82.94133
G1 X43.78 Y76.321 E82.97646
G1 X44.475 Y76.208 E83.01159
G1 X45.117 Y76.175 E83.04366
G1 X174.883 Y76.175 E89.51772
G1 X175.586 Y76.215 E89.55285
G1 X176.28 Y76.334 E89.58797
G1 X176.955 Y76.532 E89.62307
G1 X177.604 Y76.804 E89.65818
G1 X178.218 Y77.149 E89.69331
G1 X178.789 Y77.56 E89.72841
G1 X179.267 Y77.991 E89.76052
G1 X179.384 Y78.108 E89.76878
G1 X179.853 Y78.633 E89.8039
G1 X180.259 Y79.208 E89.83902
G1 X180.597 Y79.826 E89.87416
G1 X180.864 Y80.477 E89.90926
G1 X181.054 Y81.155 E89.94439
G1 X181.167 Y81.85 E89.97952
G1 X181.2 Y82.492 E90.01159
G1 X181.2 Y137.508 E92.75635
G1 X181.16 Y138.211 E92.79148
G1 X181.041 Y138.905 E92.82661
G1 X180.843 Y139.58 E92.86171
G1 X180.571 Y140.229 E92.89681
G1 X180.226 Y140.843 E92.93195
G1 X179.815 Y141.414 E92.96705
G1 X179.384 Y141.892 E92.99916
G1 X179.267 Y142.009 E93.00742
G1 X178.742 Y142.478 E93.04254
G1 X178.167 Y142.884 E93.07765
G1 X177.549 Y143.222 E93.1128
G1 X176.898 Y143.489 E93.1479
G1 X176.22 Y143.679 E93.18303
G1 X175.525 Y143.792 E93.21816
G1 X174.883 Y143.825 E93.25023
G1 X45.117 Y143.825 E99.72428
G1 X44.414 Y143.785 E99.75941
G1 X43.72 Y143.666 E99.79454
G1 X43.045 Y143.468 E99.82964
G1 X42.396 Y143.196 E99.86474
G1 X41.782 Y142.851 E99.89988
G1 X41.211 Y142.44 E99.93498
G1 X40.733 Y142.009 E99.96709
G1 X40.616 Y141.892 E99.97534
G1 X40.147 Y141.367 E100.01047
G1 X39.741 Y140.792 E100.04558
G1 X39.403 Y140.174 E100.08073
G1 X39.136 Y139.523 E100.11583
G1 X38.946 Y138.845 E100.15096
G1 X38.833 Y138.15 E100.18609
G1 X38.8 Y137.508 E100.21816
G1 X38.8 Y82.492 E102.96292
G1 X38.84 Y81.789 E102.99805
G1 X38.959 Y81.095 E103.03318
G1 X39.157 Y80.42 E103.06827
G1 X39.429 Y79.771 E103.10338
G1 X39.774 Y79.157 E103.13852
G1 X40.185 Y78.586 E103.17362
G1 X40.616 Y78.108 E103.20573
G1 X40.733 Y77.991 E103.21398
G1 X41.258 Y77.522 E103.2491
G1 X41.833 Y77.116 E103.28422
G1 X42.451 Y76.778 E103.31936
G0 F6750 X42.683 Y77.11
G1 F1350 X43.317 Y76.861 E103.35335
G1 X43.976 Y76.688 E103.38734
G1 X44.65 Y76.594 E103.42129
G1 X45.117 Y76.575 E103.44461
G1 X174.883 Y76.575 E109.91866
G1 X175.563 Y76.615 E109.95264
G1 X176.233 Y76.734 E109.98659
G1 X176.885 Y76.931 E110.02057
G1 X177.509 Y77.203 E110.05453
G1 X178.097 Y77.547 E110.08852
G1 X178.641 Y77.957 E110.12251
G1 X178.984 Y78.274 E110.14581
G1 X179.101 Y78.391 E110.15406
G1 X179.554 Y78.9 E110.18806
G1 X179.943 Y79.458 E110.22199
G1 X180.265 Y80.058 E110.25596
G1 X180.514 Y80.692 E110.28995
G1 X180.687 Y81.351 E110.32394
G1 X180.781 Y82.025 E110.35789
G1 X180.8 Y82.492 E110.38121
G1 X180.8 Y137.508 E113.12597
G1 X180.76 Y138.188 E113.15995
G1 X180.641 Y138.858 E113.1939
G1 X180.444 Y139.51 E113.22788
G1 X180.172 Y140.134 E113.26184
G1 X179.828 Y140.722 E113.29583
G1 X179.418 Y141.266 E113.32981
G1 X179.101 Y141.609 E113.35312
G1 X178.984 Y141.726 E113.36137
G1 X178.475 Y142.179 E113.39537
G1 X177.917 Y142.568 E113.4293
G1 X177.317 Y142.89 E113.46327
G1 X176.683 Y143.139 E113.49726
G1 X176.024 Y143.312 E113.53125
G1 X175.35 Y143.406 E113.5652
G1 X174.883 Y143.425 E113.58852
G1 X45.117 Y143.425 E120.06257
G1 X44.437 Y143.385 E120.09655
G1 X43.767 Y143.266 E120.1305
G1 X43.115 Y143.069 E120.16448
G1 X42.491 Y142.797 E120.19844
G1 X41.903 Y142.453 E120.23243
G1 X41.359 Y142.043 E120.26642
G1 X41.016 Y141.726 E120.28972
G1 X40.899 Y141.609 E120.29797
G1 X40.446 Y141.1 E120.33197
G1 X40.057 Y140.542 E120.3659
G1 X39.735 Y139.942 E120.39988
G1 X39.486 Y139.308 E120.43386
G1 X39.313 Y138.649 E120.46785
G1 X39.219 Y137.975 E120.5018
G1 X39.2 Y137.508 E120.52512
G1 X39.2 Y82.492 E123.26988
G1 X39.24 Y81.812 E123.30386
G1 X39.359 Y81.142 E123.33781
G1 X39.556 Y80.49 E123.37179
G1 X39.828 Y79.866 E123.40575
G1 X40.172 Y79.278 E123.43974
G1 X40.582 Y78.734 E123.47373
G1 X40.899 Y78.391 E123.49703
G1 X41.016 Y78.274 E123.50528
G1 X41.525 Y77.821 E123.53928
G1 X42.083 Y77.432 E123.57321
G1 X42.683 Y77.11 E123.60718
G0 F6750 X42.332 Y77.749
G1 F1350 X42.914 Y77.445 E123.63994
G1 X43.529 Y77.214 E123.67272
G1 X44.168 Y77.059 E123.70552
G1 X45.117 Y76.975 E123.75305
G1 X174.883 Y76.975 E130.22711
G1 X175.539 Y77.015 E130.25989
G1 X176.185 Y77.134 E130.29267
G1 X176.812 Y77.331 E130.32545
G1 X177.41 Y77.603 E130.35823
G1 X177.971 Y77.945 E130.39101
G1 X178.701 Y78.557 E130.43853
G1 X178.818 Y78.674 E130.44679
G1 X179.254 Y79.166 E130.47959
G1 X179.626 Y79.707 E130.51234
G1 X179.93 Y80.289 E130.5451
G1 X180.161 Y80.904 E130.57788
G1 X180.316 Y81.543 E130.61068
G1 X180.4 Y82.492 E130.65821
G1 X180.4 Y137.508 E133.40297
G1 X180.36 Y138.164 E133.43576
G1 X180.241 Y138.81 E133.46853
G1 X180.044 Y139.437 E133.50132
G1 X179.772 Y140.035 E133.5341
G1 X179.43 Y140.596 E133.56688
G1 X178.818 Y141.326 E133.6144
G1 X178.701 Y141.443 E133.62266
G1 X178.209 Y141.879 E133.65545
G1 X177.668 Y142.251 E133.68821
G1 X177.086 Y142.555 E133.72097
G1 X176.471 Y142.786 E133.75374
G1 X175.832 Y142.941 E133.78655
G1 X174.883 Y143.025 E133.83408
G1 X45.117 Y143.025 E140.30813
G1 X44.461 Y142.985 E140.34092
G1 X43.815 Y142.866 E140.37369
G1 X43.188 Y142.669 E140.40648
G1 X42.59 Y142.397 E140.43925
G1 X42.029 Y142.055 E140.47203
G1 X41.299 Y141.443 E140.51956
G1 X41.182 Y141.326 E140.52781
G1 X40.746 Y140.834 E140.56061
G1 X40.374 Y140.293 E140.59337
G1 X40.07 Y139.711 E140.62613
G1 X39.839 Y139.096 E140.6589
G1 X39.684 Y138.457 E140.6917
G1 X39.6 Y137.508 E140.73924
G1 X39.6 Y82.492 E143.484
G1 X39.64 Y81.836 E143.51678
G1 X39.759 Y81.19 E143.54956
G1 X39.956 Y80.563 E143.58234
G1 X40.228 Y79.965 E143.61512
G1 X40.57 Y79.404 E143.6479
G1 X41.182 Y78.674 E143.69542
G1 X41.299 Y78.557 E143.70368
G1 X41.791 Y78.121 E143.73648
G1 X42.332 Y77.749 E143.76923
G0 F6750 X42.579 Y78.067
G1 F1350 X43.143 Y77.781 E143.80078
G1 X43.738 Y77.569 E143.83229
G1 X44.356 Y77.433 E143.86386
G1 X45.117 Y77.375 E143.90194
G1 X174.883 Y77.375 E150.37599
G1 X175.514 Y77.415 E150.40754
G1 X176.135 Y77.534 E150.43908
G1 X176.735 Y77.731 E150.47059
G1 X177.307 Y78.002 E150.50217
G1 X177.839 Y78.342 E150.53367
G1 X178.419 Y78.839 E150.57177
G1 X178.536 Y78.956 E150.58003
G1 X178.953 Y79.431 E150.61156
G1 X179.308 Y79.954 E150.6431
G1 X179.594 Y80.518 E150.67465
G1 X179.806 Y81.113 E150.70616
G1 X179.942 Y81.731 E150.73773
G1 X180 Y82.492 E150.7758
G1 X180 Y137.508 E153.52056
G1 X179.96 Y138.139 E153.55211
G1 X179.841 Y138.76 E153.58365
G1 X179.644 Y139.36 E153.61516
G1 X179.373 Y139.932 E153.64674
G1 X179.033 Y140.464 E153.67824
G1 X178.536 Y141.044 E153.71634
G1 X178.419 Y141.161 E153.7246
G1 X177.944 Y141.578 E153.75613
G1 X177.421 Y141.933 E153.78767
G1 X176.857 Y142.219 E153.81922
G1 X176.262 Y142.431 E153.85073
G1 X175.644 Y142.567 E153.8823
G1 X174.883 Y142.625 E153.92038
G1 X45.117 Y142.625 E160.39443
G1 X44.486 Y142.585 E160.42597
G1 X43.865 Y142.466 E160.45752
G1 X43.265 Y142.269 E160.48902
G1 X42.693 Y141.998 E160.5206
G1 X42.161 Y141.658 E160.5521
G1 X41.581 Y141.161 E160.59021
G1 X41.464 Y141.044 E160.59846
G1 X41.047 Y140.569 E160.63
G1 X40.692 Y140.046 E160.66153
G1 X40.406 Y139.482 E160.69308
G1 X40.194 Y138.887 E160.72459
G1 X40.058 Y138.269 E160.75616
G1 X40 Y137.508 E160.79424
G1 X40 Y82.492 E163.539
G1 X40.04 Y81.861 E163.57054
G1 X40.159 Y81.24 E163.60209
G1 X40.356 Y80.64 E163.6336
G1 X40.627 Y80.068 E163.66517
G1 X40.967 Y79.536 E163.69667
G1 X41.464 Y78.956 E163.73478
G1 X41.581 Y78.839 E163.74304
G1 X42.056 Y78.422 E163.77457
G1 X42.579 Y78.067 E163.80611
G0 F6750 X42.825 Y78.387
G1 F1350 X43.369 Y78.12 E163.83634
