;FLAVOR:Marlin
;TIME:20844
;Filament used: 13.4306m
;Layer height: 0.15
;MINX:39.7
;MINY:32.2
;MINZ:0.3
;MAXX:180.3
;MAXY:187.8
;MAXZ:8.55
;Generated with Cura_SteamEngine main
M140 S60
M105
M190 S60
M104 S200
M105
M109 S200
M82 ;absolute extrusion mode
G28 ;Home
G1 Z15.0 F2000 ;Move the platform
G92 E0
G92 E0
G1 F1500 E-6.5
;LAYER_COUNT:56
;LAYER:0
M107
M204 S1000
G0 F7500 X41.58 Y34.922 Z0.3
G0 X39.7 Y40
;TYPE:SKIRT
G1 F1500 E0
G1 X39.74 Y39.211 E0.03941
G1 X39.859 Y38.431 E0.07878
G1 X40.057 Y37.666 E0.1182
G1 X40.331 Y36.926 E0.15757
G1 X40.679 Y36.217 E0.19697
G1 X41.097 Y35.546 E0.23641
G1 X41.58 Y34.922 E0.27578
G1 X42.123 Y34.349 E0.31517
G1 X42.722 Y33.834 E0.35458
G1 X43.37 Y33.383 E0.39397
G1 X44.061 Y32.999 E0.43341
G1 X44.786 Y32.687 E0.47278
G1 X45.539 Y32.45 E0.51217
G1 X46.313 Y32.291 E0.55159
G1 X47.098 Y32.21 E0.59096
G1 X47.5 Y32.2 E0.61102
G1 X172.5 Y32.2 E6.8473
G1 X173.289 Y32.24 E6.88671
G1 X174.069 Y32.359 E6.92608
G1 X174.834 Y32.557 E6.9655
G1 X175.574 Y32.831 E7.00487
G1 X176.283 Y33.179 E7.04427
G1 X176.954 Y33.597 E7.08371
G1 X177.578 Y34.08 E7.12308
G1 X178.151 Y34.623 E7.16246
G1 X178.666 Y35.222 E7.20187
G1 X179.117 Y35.87 E7.24126
G1 X179.501 Y36.561 E7.2807
G1 X179.813 Y37.286 E7.32008
G1 X180.05 Y38.039 E7.35946
G1 X180.209 Y38.813 E7.39889
G1 X180.29 Y39.598 E7.43826
G1 X180.3 Y40 E7.45832
G1 X180.3 Y180 E14.44295
G1 X180.26 Y180.789 E14.48236
G1 X180.141 Y181.569 E14.52173
G1 X179.943 Y182.334 E14.56115
G1 X179.669 Y183.074 E14.60052
G1 X179.321 Y183.783 E14.63992
G1 X178.903 Y184.454 E14.67936
G1 X178.42 Y185.078 E14.71873
G1 X177.877 Y185.651 E14.75811
G1 X177.278 Y186.166 E14.79753
G1 X176.63 Y186.617 E14.83691
G1 X175.939 Y187.001 E14.87635
G1 X175.214 Y187.313 E14.91573
G1 X174.461 Y187.55 E14.95511
G1 X173.687 Y187.709 E14.99454
G1 X172.902 Y187.79 E15.03391
G1 X172.5 Y187.8 E15.05397
G1 X143.001 Y187.8 E16.52568
G1 X142.384 Y187.776 E16.55649
G1 X142.069 Y187.751 E16.57225
G1 X141.286 Y187.648 E16.61165
G1 X140.561 Y187.486 E16.64871
G1 X139.803 Y187.263 E16.68813
G1 X139.408 Y187.113 E16.70921
G1 X139.117 Y186.993 E16.72492
G1 X138.404 Y186.655 E16.76428
G1 X138.009 Y186.428 E16.78701
G1 X137.742 Y186.264 E16.80265
G1 X137.09 Y185.818 E16.84206
G1 X136.507 Y185.333 E16.87989
G1 X135.934 Y184.79 E16.91928
G1 X135.459 Y184.251 E16.95512
G1 X134.995 Y183.651 E16.99296
G1 X134.826 Y183.898 E17.00789
G1 X134.541 Y184.251 E17.03052
G1 X134.337 Y184.489 E17.04616
G1 X133.794 Y185.062 E17.08555
G1 X133.254 Y185.538 E17.12146
G1 X132.63 Y186.022 E17.16086
G1 X131.991 Y186.428 E17.19863
G1 X131.298 Y186.807 E17.23804
G1 X130.883 Y186.993 E17.26073
G1 X130.592 Y187.113 E17.27643
G1 X129.847 Y187.377 E17.31586
G1 X129.135 Y187.559 E17.35253
G1 X128.359 Y187.705 E17.39192
G1 X127.931 Y187.751 E17.4134
G1 X127.616 Y187.776 E17.42916
G1 X126.999 Y187.8 E17.45997
G1 X93.001 Y187.8 E19.15613
G1 X92.384 Y187.776 E19.18694
G1 X92.069 Y187.751 E19.2027
G1 X91.286 Y187.648 E19.2421
G1 X90.561 Y187.486 E19.27917
G1 X89.803 Y187.263 E19.31859
G1 X89.408 Y187.113 E19.33967
G1 X89.117 Y186.993 E19.35537
G1 X88.404 Y186.655 E19.39474
G1 X88.009 Y186.428 E19.41747
G1 X87.742 Y186.264 E19.4331
G1 X87.09 Y185.818 E19.47251
G1 X86.507 Y185.333 E19.51034
G1 X85.934 Y184.79 E19.54973
G1 X85.459 Y184.251 E19.58557
G1 X84.995 Y183.651 E19.62341
G1 X84.826 Y183.898 E19.63834
G1 X84.541 Y184.251 E19.66098
G1 X84.337 Y184.489 E19.67662
G1 X83.794 Y185.062 E19.716
G1 X83.254 Y185.538 E19.75191
G1 X82.63 Y186.022 E19.79131
G1 X81.991 Y186.428 E19.82908
G1 X81.298 Y186.807 E19.86849
G1 X80.883 Y186.993 E19.89118
G1 X80.592 Y187.113 E19.90688
G1 X79.847 Y187.377 E19.94631
G1 X79.135 Y187.559 E19.98298
G1 X78.359 Y187.705 E20.02237
G1 X77.931 Y187.751 E20.04385
G1 X77.616 Y187.776 E20.05961
G1 X76.999 Y187.8 E20.09042
G1 X47.5 Y187.8 E21.56213
G1 X46.711 Y187.76 E21.60154
G1 X45.931 Y187.641 E21.64091
G1 X45.166 Y187.443 E21.68033
G1 X44.426 Y187.169 E21.7197
G1 X43.717 Y186.821 E21.7591
G1 X43.046 Y186.403 E21.79854
G1 X42.422 Y185.92 E21.83791
G1 X41.849 Y185.377 E21.8773
G1 X41.334 Y184.778 E21.91671
G1 X40.883 Y184.13 E21.9561
G1 X40.499 Y183.439 E21.99554
G1 X40.187 Y182.714 E22.03491
G1 X39.95 Y181.961 E22.0743
G1 X39.791 Y181.187 E22.11372
G1 X39.71 Y180.402 E22.15309
G1 X39.7 Y180 E22.17315
G1 X39.7 Y40 E29.15778
G0 F7500 X40.1 Y40
G1 F1500 X40.14 Y39.232 E29.19615
G1 X40.259 Y38.472 E29.23453
G1 X40.457 Y37.729 E29.27289
G1 X40.731 Y37.01 E29.31128
G1 X41.078 Y36.324 E29.34963
G1 X41.494 Y35.677 E29.38801
G1 X41.975 Y35.077 E29.42637
G1 X42.516 Y34.53 E29.46475
G1 X43.111 Y34.042 E29.50315
G1 X43.753 Y33.619 E29.5415
G1 X44.436 Y33.264 E29.57991
G1 X45.151 Y32.983 E29.61823
G1 X45.893 Y32.777 E29.65665
G1 X46.651 Y32.649 E29.695
G1 X47.5 Y32.6 E29.73743
G1 X172.5 Y32.6 E35.97371
G1 X173.268 Y32.64 E36.01207
G1 X174.028 Y32.759 E36.05045
G1 X174.771 Y32.957 E36.08881
G1 X175.49 Y33.231 E36.1272
G1 X176.176 Y33.578 E36.16556
G1 X176.823 Y33.994 E36.20393
G1 X177.423 Y34.475 E36.2423
G1 X177.97 Y35.016 E36.28068
G1 X178.458 Y35.611 E36.31907
G1 X178.881 Y36.253 E36.35743
G1 X179.236 Y36.936 E36.39583
G1 X179.517 Y37.651 E36.43416
G1 X179.723 Y38.393 E36.47258
G1 X179.851 Y39.151 E36.51093
G1 X179.9 Y40 E36.55336
G1 X179.9 Y180 E43.53799
G1 X179.86 Y180.768 E43.57635
G1 X179.741 Y181.528 E43.61473
G1 X179.543 Y182.271 E43.65309
G1 X179.269 Y182.99 E43.69148
G1 X178.922 Y183.676 E43.72984
G1 X178.506 Y184.323 E43.76821
G1 X178.025 Y184.923 E43.80658
G1 X177.484 Y185.47 E43.84496
G1 X176.889 Y185.958 E43.88335
G1 X176.247 Y186.381 E43.92171
G1 X175.564 Y186.736 E43.96011
G1 X174.849 Y187.017 E43.99844
G1 X174.107 Y187.223 E44.03686
G1 X173.349 Y187.351 E44.07521
G1 X172.5 Y187.4 E44.11764
G1 X143.001 Y187.4 E45.58935
G1 X142.416 Y187.377 E45.61856
G1 X142.101 Y187.352 E45.63432
G1 X141.338 Y187.251 E45.67272
G1 X140.654 Y187.097 E45.7077
G1 X139.561 Y186.743 E45.76502
G1 X139.27 Y186.623 E45.78072
G1 X138.575 Y186.293 E45.8191
G1 X138.218 Y186.088 E45.83964
G1 X137.951 Y185.924 E45.85528
G1 X137.317 Y185.487 E45.89369
G1 X136.767 Y185.03 E45.92937
G1 X135.967 Y184.229 E45.98585
G1 X135.763 Y183.991 E46.00149
G1 X135.293 Y183.382 E46.03987
G1 X135.004 Y182.931 E46.06659
G1 X134.496 Y183.672 E46.11141
G1 X134.033 Y184.229 E46.14755
G1 X133.233 Y185.03 E46.20403
G1 X132.994 Y185.235 E46.21974
G1 X132.385 Y185.705 E46.25811
G1 X131.782 Y186.088 E46.29375
G1 X131.107 Y186.455 E46.33209
G1 X130.73 Y186.623 E46.35268
G1 X130.439 Y186.743 E46.36838
G1 X129.346 Y187.097 E46.4257
G1 X129.042 Y187.17 E46.4413
G1 X128.286 Y187.311 E46.47966
G1 X127.584 Y187.377 E46.51484
G1 X126.999 Y187.4 E46.54405
G1 X93.001 Y187.4 E48.24022
G1 X92.416 Y187.377 E48.26943
G1 X92.101 Y187.352 E48.28519
G1 X91.338 Y187.251 E48.32359
G1 X90.654 Y187.097 E48.35857
G1 X89.561 Y186.743 E48.41589
G1 X89.27 Y186.623 E48.43159
G1 X88.575 Y186.293 E48.46997
G1 X88.218 Y186.088 E48.49051
G1 X87.951 Y185.924 E48.50615
G1 X87.317 Y185.487 E48.54456
G1 X86.767 Y185.03 E48.58024
G1 X85.967 Y184.229 E48.63672
G1 X85.763 Y183.991 E48.65236
G1 X85.293 Y183.382 E48.69074
G1 X85.004 Y182.931 E48.71746
G1 X84.496 Y183.672 E48.76228
G1 X84.033 Y184.229 E48.79842
G1 X83.233 Y185.03 E48.8549
G1 X82.994 Y185.235 E48.87061
G1 X82.385 Y185.705 E48.90898
G1 X81.782 Y186.088 E48.94462
G1 X81.107 Y186.455 E48.98296
G1 X80.73 Y186.623 E49.00355
G1 X80.439 Y186.743 E49.01925
G1 X79.346 Y187.097 E49.07657
G1 X79.042 Y187.17 E49.09217
G1 X78.286 Y187.311 E49.13054
G1 X77.584 Y187.377 E49.16571
G1 X76.999 Y187.4 E49.19492
G1 X47.5 Y187.4 E50.66663
G1 X46.732 Y187.36 E50.705
G1 X45.972 Y187.241 E50.74338
G1 X45.229 Y187.043 E50.78174
G1 X44.51 Y186.769 E50.82013
G1 X43.824 Y186.422 E50.85848
G1 X43.177 Y186.006 E50.89686
G1 X42.577 Y185.525 E50.93522
G1 X42.03 Y184.984 E50.97361
G1 X41.542 Y184.389 E51.012
G1 X41.119 Y183.747 E51.05035
G1 X40.764 Y183.064 E51.08876
G1 X40.483 Y182.349 E51.12708
G1 X40.277 Y181.607 E51.1655
G1 X40.149 Y180.849 E51.20386
G1 X40.1 Y180 E51.24628
G1 X40.1 Y40 E58.23091
G0 F7500 X40.5 Y40
G1 F1500 X40.54 Y39.253 E58.26823
G1 X40.659 Y38.515 E58.30553
G1 X40.857 Y37.793 E58.34288
G1 X41.13 Y37.097 E58.38018
G1 X41.477 Y36.434 E58.41751
G1 X41.892 Y35.811 E58.45486
G1 X42.371 Y35.237 E58.49215
G1 X42.908 Y34.716 E58.52948
G1 X43.498 Y34.257 E58.56678
G1 X44.134 Y33.862 E58.60413
G1 X44.808 Y33.538 E58.64144
G1 X45.513 Y33.288 E58.67876
G1 X46.241 Y33.114 E58.7161
G1 X46.983 Y33.019 E58.75342
G1 X47.5 Y33 E58.77923
G1 X172.5 Y33 E65.01551
G1 X173.247 Y33.04 E65.05283
G1 X173.985 Y33.159 E65.09012
G1 X174.707 Y33.357 E65.12747
G1 X175.403 Y33.63 E65.16477
G1 X176.066 Y33.977 E65.20211
G1 X176.689 Y34.392 E65.23945
G1 X177.263 Y34.871 E65.27675
G1 X177.784 Y35.408 E65.31408
G1 X178.243 Y35.998 E65.35137
G1 X178.638 Y36.634 E65.38872
G1 X178.962 Y37.308 E65.42603
G1 X179.212 Y38.013 E65.46335
G1 X179.386 Y38.741 E65.50069
G1 X179.481 Y39.483 E65.53802
G1 X179.5 Y40 E65.56383
G1 X179.5 Y180 E72.54845
G1 X179.46 Y180.747 E72.58578
G1 X179.341 Y181.485 E72.62307
G1 X179.143 Y182.207 E72.66042
G1 X178.87 Y182.903 E72.69772
G1 X178.523 Y183.566 E72.73505
G1 X178.108 Y184.189 E72.7724
G1 X177.629 Y184.763 E72.8097
G1 X177.092 Y185.284 E72.84703
G1 X176.502 Y185.743 E72.88432
G1 X175.866 Y186.138 E72.92167
G1 X175.192 Y186.462 E72.95898
G1 X174.487 Y186.712 E72.9963
G1 X173.759 Y186.886 E73.03364
G1 X173.017 Y186.981 E73.07096
G1 X172.5 Y187 E73.09677
G1 X143.001 Y187 E74.56849
G1 X142.447 Y186.978 E74.59615
G1 X142.132 Y186.953 E74.61191
G1 X141.052 Y186.782 E74.66646
G1 X140.748 Y186.709 E74.68206
G1 X139.713 Y186.373 E74.73635
G1 X139.422 Y186.253 E74.75206
G1 X138.427 Y185.747 E74.80775
G1 X138.16 Y185.583 E74.82338
G1 X137.267 Y184.931 E74.87854
G1 X137.028 Y184.726 E74.89425
G1 X136.27 Y183.969 E74.9477
G1 X136.066 Y183.731 E74.96334
G1 X135.41 Y182.829 E75.01898
G1 X135.246 Y182.561 E75.03465
G1 X135 Y182.076 E75.06179
G1 X134.754 Y182.561 E75.08892
G1 X134.59 Y182.829 E75.10459
G1 X133.934 Y183.731 E75.16024
G1 X133.73 Y183.969 E75.17588
G1 X132.972 Y184.726 E75.22932
G1 X132.733 Y184.931 E75.24503
G1 X131.84 Y185.583 E75.30019
G1 X131.573 Y185.747 E75.31583
G1 X130.578 Y186.253 E75.37152
G1 X130.287 Y186.373 E75.38722
G1 X129.252 Y186.709 E75.44151
G1 X128.948 Y186.782 E75.45711
G1 X127.868 Y186.953 E75.51166
G1 X127.553 Y186.978 E75.52743
G1 X126.999 Y187 E75.55509
G1 X93.001 Y187 E77.25125
G1 X92.447 Y186.978 E77.27891
G1 X92.132 Y186.953 E77.29468
G1 X91.052 Y186.782 E77.34923
G1 X90.748 Y186.709 E77.36483
G1 X89.713 Y186.373 E77.41912
G1 X89.422 Y186.253 E77.43482
G1 X88.427 Y185.747 E77.49051
G1 X88.16 Y185.583 E77.50615
G1 X87.267 Y184.931 E77.56131
G1 X87.028 Y184.726 E77.57702
G1 X86.27 Y183.969 E77.63046
G1 X86.066 Y183.731 E77.6461
G1 X85.61 Y183.137 E77.68346
G1 X85.24 Y182.55 E77.71808
G1 X85 Y182.076 E77.74459
G1 X84.754 Y182.561 E77.77172
G1 X84.59 Y182.829 E77.78739
G1 X83.934 Y183.731 E77.84304
G1 X83.73 Y183.969 E77.85868
G1 X82.972 Y184.726 E77.91212
G1 X82.733 Y184.931 E77.92783
G1 X81.84 Y185.583 E77.983
G1 X81.573 Y185.747 E77.99863
G1 X80.578 Y186.253 E78.05432
G1 X80.287 Y186.373 E78.07002
G1 X79.252 Y186.709 E78.12431
G1 X78.948 Y186.782 E78.13991
G1 X77.868 Y186.953 E78.19446
G1 X77.553 Y186.978 E78.21023
G1 X76.999 Y187 E78.23789
G1 X47.5 Y187 E79.7096
G1 X46.753 Y186.96 E79.74692
G1 X46.015 Y186.841 E79.78422
G1 X45.293 Y186.643 E79.82157
G1 X44.597 Y186.37 E79.85887
G1 X43.934 Y186.023 E79.8962
G1 X43.311 Y185.608 E79.93355
G1 X42.737 Y185.129 E79.97084
G1 X42.216 Y184.592 E80.00817
G1 X41.757 Y184.002 E80.04547
G1 X41.362 Y183.366 E80.08282
G1 X41.038 Y182.692 E80.12013
G1 X40.788 Y181.987 E80.15745
G1 X40.614 Y181.259 E80.19479
G1 X40.519 Y180.517 E80.23211
G1 X40.5 Y180 E80.25792
G1 X40.5 Y40 E87.24255
G0 F7500 X40.9 Y40
G1 F1500 X40.94 Y39.275 E87.27877
G1 X41.059 Y38.558 E87.31503
G1 X41.257 Y37.859 E87.35128
G1 X41.53 Y37.186 E87.38751
G1 X41.875 Y36.547 E87.42374
G1 X42.289 Y35.95 E87.45999
G1 X42.765 Y35.402 E87.4962
G1 X43.299 Y34.909 E87.53246
G1 X43.884 Y34.479 E87.56868
G1 X44.513 Y34.115 E87.60494
G1 X45.178 Y33.822 E87.64119
G1 X45.871 Y33.604 E87.67744
G1 X46.583 Y33.464 E87.71364
G1 X47.5 Y33.4 E87.7595
G1 X172.5 Y33.4 E93.99578
G1 X173.225 Y33.44 E94.032
G1 X173.942 Y33.559 E94.06826
G1 X174.641 Y33.757 E94.10451
G1 X175.314 Y34.03 E94.14074
G1 X175.953 Y34.375 E94.17697
G1 X176.55 Y34.789 E94.21322
G1 X177.098 Y35.265 E94.24943
G1 X177.591 Y35.799 E94.28569
G1 X178.021 Y36.384 E94.32191
G1 X178.385 Y37.013 E94.35817
G1 X178.678 Y37.678 E94.39442
G1 X178.896 Y38.371 E94.43067
G1 X179.036 Y39.083 E94.46687
G1 X179.1 Y40 E94.51273
G1 X179.1 Y180 E101.49736
G1 X179.06 Y180.725 E101.53358
G1 X178.941 Y181.442 E101.56984
G1 X178.743 Y182.141 E101.60609
G1 X178.47 Y182.814 E101.64232
G1 X178.125 Y183.453 E101.67855
G1 X177.711 Y184.05 E101.7148
G1 X177.235 Y184.598 E101.75101
G1 X176.701 Y185.091 E101.78727
G1 X176.116 Y185.521 E101.82349
G1 X175.487 Y185.885 E101.85975
G1 X174.822 Y186.178 E101.896
G1 X174.129 Y186.396 E101.93225
G1 X173.417 Y186.536 E101.96845
G1 X172.5 Y186.6 E102.01431
G1 X143.001 Y186.6 E103.48602
G1 X142.479 Y186.579 E103.51208
G1 X142.164 Y186.554 E103.52785
G1 X141.145 Y186.393 E103.57932
G1 X140.841 Y186.32 E103.59491
G1 X139.866 Y186.004 E103.64605
G1 X139.575 Y185.884 E103.66175
G1 X138.637 Y185.406 E103.71428
G1 X138.37 Y185.242 E103.72991
G1 X137.527 Y184.628 E103.78194
G1 X137.288 Y184.423 E103.79765
G1 X136.574 Y183.708 E103.84806
G1 X136.37 Y183.47 E103.8637
G1 X135.751 Y182.62 E103.91616
G1 X135.587 Y182.352 E103.93183
G1 X135.115 Y181.423 E103.98382
G1 X135 Y181.144 E103.99888
G1 X134.885 Y181.423 E104.01393
G1 X134.413 Y182.352 E104.06592
G1 X134.249 Y182.62 E104.08159
G1 X133.63 Y183.47 E104.13405
G1 X133.426 Y183.708 E104.14969
G1 X132.712 Y184.423 E104.2001
G1 X132.473 Y184.628 E104.21581
G1 X131.63 Y185.242 E104.26784
G1 X131.363 Y185.406 E104.28348
G1 X130.425 Y185.884 E104.336
G1 X130.134 Y186.004 E104.3517
G1 X129.159 Y186.32 E104.40284
G1 X128.855 Y186.393 E104.41844
G1 X127.836 Y186.554 E104.4699
G1 X127.521 Y186.579 E104.48567
G1 X126.999 Y186.6 E104.51173
G1 X93.001 Y186.6 E106.2079
G1 X92.479 Y186.579 E106.23396
G1 X92.164 Y186.554 E106.24973
G1 X91.145 Y186.393 E106.3012
G1 X90.841 Y186.32 E106.3168
G1 X89.866 Y186.004 E106.36793
G1 X89.575 Y185.884 E106.38363
G1 X88.637 Y185.406 E106.43616
G1 X88.37 Y185.242 E106.45179
G1 X87.527 Y184.628 E106.50382
G1 X87.288 Y184.423 E106.51953
G1 X86.574 Y183.708 E106.56994
G1 X86.37 Y183.47 E106.58558
G1 X85.744 Y182.608 E106.63873
G1 X85.582 Y182.342 E106.65427
G1 X85.121 Y181.434 E106.70507
G1 X85 Y181.143 E106.72079
G1 X84.885 Y181.423 E106.7359
G1 X84.413 Y182.352 E106.78788
G1 X84.249 Y182.62 E106.80356
G1 X83.63 Y183.47 E106.85602
G1 X83.426 Y183.708 E106.87166
G1 X82.712 Y184.423 E106.92207
G1 X82.473 Y184.628 E106.93778
G1 X81.63 Y185.242 E106.98981
G1 X81.363 Y185.406 E107.00544
G1 X80.425 Y185.884 E107.05796
G1 X80.134 Y186.004 E107.07367
G1 X79.159 Y186.32 E107.1248
G1 X78.855 Y186.393 E107.1404
G1 X77.836 Y186.554 E107.19187
G1 X77.521 Y186.579 E107.20763
G1 X76.999 Y186.6 E107.2337
G1 X47.5 Y186.6 E108.70541
G1 X46.775 Y186.56 E108.74163
G1 X46.058 Y186.441 E108.7779
G1 X45.359 Y186.243 E108.81414
G1 X44.686 Y185.97 E108.85037
G1 X44.047 Y185.625 E108.8866
G1 X43.45 Y185.211 E108.92285
G1 X42.902 Y184.735 E108.95906
G1 X42.409 Y184.201 E108.99532
G1 X41.979 Y183.616 E109.03154
G1 X41.615 Y182.987 E109.0678
G1 X41.322 Y182.322 E109.10405
G1 X41.104 Y181.629 E109.1403
G1 X40.964 Y180.917 E109.1765
G1 X40.9 Y180 E109.22236
G1 X40.9 Y40 E116.20699
G0 F7500 X41.3 Y40
G1 F1500 X41.34 Y39.297 E116.24212
G1 X41.459 Y38.603 E116.27725
G1 X41.657 Y37.928 E116.31234
G1 X41.929 Y37.279 E116.34745
G1 X42.274 Y36.665 E116.38259
G1 X42.685 Y36.094 E116.41769
G1 X43.159 Y35.573 E116.45283
G1 X43.689 Y35.109 E116.48797
G1 X44.268 Y34.709 E116.52308
G1 X44.889 Y34.377 E116.55821
G1 X45.543 Y34.117 E116.59332
G1 X46.223 Y33.933 E116.62847
G1 X46.919 Y33.827 E116.66359
G1 X47.5 Y33.8 E116.69261
