;FLAVOR:Marlin
;TIME:1043
;Filament used: 0.884645m
;Layer height: 0.15
;MINX:-19.8
;MINY:-23.8
;MINZ:0.3
;MAXX:19.8
;MAXY:23.8
;MAXZ:8.25
;Generated with Cura_SteamEngine main
M140 S60
M105
M190 S60
M104 S200
M105
M109 S200
M82 ;absolute extrusion mode
G21 ;metric values
G90 ;absolute positioning
M82 ;set extruder to absolute mode
M107 ;start with the fan off
G28 ;Home all axes (max endstops)
G1 Z15.0 F9000 ;move the platform down 15mm
G92 E0 ;zero the extruded length
G1 F200 E3 ;extrude 3mm of feed stock
G92 E0 ;zero the extruded length again
G1 F9000
;Put printing message on LCD screen
M117 Printing...
G92 E0
G92 E0
G1 F1500 E-6.5
;LAYER_COUNT:54
;LAYER:0
M107
G0 F3600 X19.8 Y-15.108 Z0.3
G0 X18.32 Y-19.882
;TYPE:SKIRT
G1 F1500 E0
G1 F1800 X18.831 Y-19.006 E0.0506
G1 X19.222 Y-18.134 E0.09827
G1 X19.561 Y-17.052 E0.15484
G1 X19.729 Y-16.161 E0.20008
G1 X19.8 Y-15.108 E0.25273
G1 X19.8 Y15.108 E1.76021
G1 X19.76 Y15.897 E1.79963
G1 X19.568 Y17.024 E1.85666
G1 X19.311 Y17.893 E1.90187
G1 X18.845 Y18.981 E1.96092
G1 X18.36 Y19.82 E2.00927
G1 X17.899 Y20.461 E2.04866
G1 X17.224 Y21.214 E2.09912
G1 X16.518 Y21.853 E2.14662
G1 X15.882 Y22.32 E2.18599
G1 X15.006 Y22.831 E2.23658
G1 X14.134 Y23.222 E2.28426
G1 X13.043 Y23.563 E2.34129
G1 X12.151 Y23.73 E2.38656
G1 X11.107 Y23.8 E2.43877
G1 X-11.107 Y23.8 E3.54703
G1 X-11.896 Y23.76 E3.58644
G1 X-13.014 Y23.57 E3.64302
G1 X-13.885 Y23.314 E3.68831
G1 X-14.98 Y22.845 E3.74774
G1 X-15.82 Y22.36 E3.79613
G1 X-16.461 Y21.899 E3.83552
G1 X-17.214 Y21.224 E3.88598
G1 X-17.853 Y20.518 E3.93348
G1 X-18.32 Y19.882 E3.97285
G1 X-18.831 Y19.006 E4.02344
G1 X-19.222 Y18.134 E4.07112
G1 X-19.561 Y17.052 E4.12769
G1 X-19.729 Y16.161 E4.17293
G1 X-19.8 Y15.108 E4.22558
G1 X-19.8 Y-15.108 E5.73306
G1 X-19.76 Y-15.897 E5.77248
G1 X-19.568 Y-17.024 E5.82951
G1 X-19.311 Y-17.893 E5.87472
G1 X-18.845 Y-18.981 E5.93377
G1 X-18.36 Y-19.82 E5.98212
G1 X-17.899 Y-20.461 E6.02151
G1 X-17.224 Y-21.214 E6.07196
G1 X-16.518 Y-21.853 E6.11947
G1 X-15.882 Y-22.32 E6.15884
G1 X-15.006 Y-22.831 E6.20943
G1 X-14.134 Y-23.222 E6.25711
G1 X-13.043 Y-23.563 E6.31414
G1 X-12.151 Y-23.73 E6.35941
G1 X-11.107 Y-23.8 E6.41161
G1 X11.107 Y-23.8 E7.51988
G1 X11.896 Y-23.76 E7.55929
G1 X13.014 Y-23.57 E7.61587
G1 X13.885 Y-23.314 E7.66116
G1 X14.98 Y-22.845 E7.72059
G1 X15.82 Y-22.36 E7.76898
G1 X16.461 Y-21.899 E7.80837
G1 X17.214 Y-21.224 E7.85882
G1 X17.853 Y-20.518 E7.90633
G1 X18.32 Y-19.882 E7.9457
G1 F1500 E1.4457
G0 F3600 X12.741 Y-22.402
G1 F1500 E7.9457
G1 F1800 X13.543 Y-22.162 E7.98746
G1 X14.445 Y-21.771 E8.03651
G1 X15.218 Y-21.321 E8.08113
G1 X15.802 Y-20.888 E8.1174
G1 X16.38 Y-20.362 E8.15639
G1 X16.959 Y-19.715 E8.19971
G1 X17.382 Y-19.124 E8.23597
G1 X17.772 Y-18.44 E8.27525
G1 X18.124 Y-17.644 E8.31867
G1 X18.396 Y-16.763 E8.36467
G1 X18.547 Y-15.941 E8.40637
G1 X18.6 Y-15.108 E8.44801
G1 X18.6 Y15.108 E9.95549
G1 X18.56 Y15.833 E9.99172
G1 X18.4 Y16.75 E10.03816
G1 X18.159 Y17.55 E10.07984
G1 X17.771 Y18.445 E10.12851
G1 X17.321 Y19.218 E10.17314
G1 X16.888 Y19.802 E10.20941
G1 X16.362 Y20.38 E10.2484
G1 X15.715 Y20.959 E10.29171
G1 X15.124 Y21.382 E10.32797
G1 X14.44 Y21.772 E10.36725
G1 X13.644 Y22.124 E10.41068
G1 X12.755 Y22.398 E10.45709
G1 X11.933 Y22.548 E10.49877
G1 X11.107 Y22.6 E10.54007
G1 X-11.107 Y22.6 E11.64833
G1 X-11.832 Y22.56 E11.68455
G1 X-12.741 Y22.402 E11.73058
G1 X-13.543 Y22.162 E11.77235
G1 X-14.445 Y21.771 E11.82139
G1 X-15.218 Y21.321 E11.86602
G1 X-15.802 Y20.888 E11.90229
G1 X-16.38 Y20.362 E11.94128
G1 X-16.959 Y19.715 E11.9846
G1 X-17.382 Y19.124 E12.02085
G1 X-17.772 Y18.44 E12.06014
G1 X-18.124 Y17.644 E12.10356
G1 X-18.396 Y16.763 E12.14956
G1 X-18.547 Y15.941 E12.19126
G1 X-18.6 Y15.108 E12.2329
G1 X-18.6 Y-15.108 E13.74038
G1 X-18.56 Y-15.833 E13.77661
G1 X-18.4 Y-16.75 E13.82305
G1 X-18.159 Y-17.55 E13.86473
G1 X-17.771 Y-18.445 E13.9134
G1 X-17.321 Y-19.218 E13.95802
G1 X-16.888 Y-19.802 E13.99429
G1 X-16.362 Y-20.38 E14.03328
G1 X-15.715 Y-20.959 E14.0766
G1 X-15.124 Y-21.382 E14.11286
G1 X-14.44 Y-21.772 E14.15214
G1 X-13.644 Y-22.124 E14.19556
G1 X-12.755 Y-22.398 E14.24197
G1 X-11.933 Y-22.548 E14.28366
G1 X-11.107 Y-22.6 E14.32495
G1 X11.107 Y-22.6 E15.43321
G1 X11.832 Y-22.56 E15.46944
G1 X12.741 Y-22.402 E15.51547
G0 F3600 X11.107 Y-22.2
G1 F1800 X11.81 Y-22.16 E15.5506
G1 X12.652 Y-22.012 E15.59325
G1 X13.428 Y-21.778 E15.63369
G1 X14.267 Y-21.413 E15.67933
G1 X15.016 Y-20.975 E15.72262
G1 X15.58 Y-20.553 E15.75776
G1 X16.103 Y-20.072 E15.79321
G1 X16.661 Y-19.448 E15.83498
G1 X17.067 Y-18.873 E15.87009
G1 X17.419 Y-18.252 E15.90571
G1 X17.758 Y-17.482 E15.94768
G1 X18.008 Y-16.666 E15.99026
G1 X18.153 Y-15.869 E16.03067
G1 X18.2 Y-15.108 E16.06871
G1 X18.2 Y15.108 E17.5762
G1 X18.16 Y15.811 E17.61132
G1 X18.01 Y16.659 E17.65429
G1 X17.775 Y17.435 E17.69474
G1 X17.413 Y18.267 E17.74001
G1 X16.975 Y19.016 E17.7833
G1 X16.553 Y19.58 E17.81844
G1 X16.072 Y20.103 E17.85389
G1 X15.448 Y20.661 E17.89565
G1 X14.873 Y21.067 E17.93077
G1 X14.252 Y21.419 E17.96638
G1 X13.482 Y21.758 E18.00835
G1 X12.659 Y22.01 E18.0513
G1 X11.861 Y22.154 E18.09175
G1 X11.107 Y22.2 E18.12944
G1 X-11.107 Y22.2 E19.2377
G1 X-11.81 Y22.16 E19.27283
G1 X-12.652 Y22.012 E19.31548
G1 X-13.428 Y21.778 E19.35592
G1 X-14.267 Y21.413 E19.40156
G1 X-15.016 Y20.975 E19.44485
G1 X-15.58 Y20.553 E19.48
G1 X-16.103 Y20.072 E19.51544
G1 X-16.661 Y19.448 E19.55721
G1 X-17.067 Y18.873 E19.59233
G1 X-17.419 Y18.252 E19.62794
G1 X-17.758 Y17.482 E19.66991
G1 X-18.008 Y16.666 E19.71249
G1 X-18.153 Y15.869 E19.75291
G1 X-18.2 Y15.108 E19.79094
G1 X-18.2 Y-15.108 E21.29843
G1 X-18.16 Y-15.811 E21.33356
G1 X-18.01 Y-16.659 E21.37652
G1 X-17.775 Y-17.435 E21.41697
G1 X-17.413 Y-18.267 E21.46224
G1 X-16.975 Y-19.016 E21.50553
G1 X-16.553 Y-19.58 E21.54067
G1 X-16.072 Y-20.103 E21.57612
G1 X-15.448 Y-20.661 E21.61788
G1 X-14.873 Y-21.067 E21.653
G1 X-14.252 Y-21.419 E21.68861
G1 X-13.482 Y-21.758 E21.73059
G1 X-12.659 Y-22.01 E21.77353
G1 X-11.861 Y-22.154 E21.81398
G1 X-11.107 Y-22.2 E21.85167
G1 X11.107 Y-22.2 E22.95993
G0 F3600 X11.107 Y-21.8
G1 F1800 X11.787 Y-21.76 E22.99391
G1 X12.563 Y-21.622 E23.03324
G1 X13.312 Y-21.394 E23.0723
G1 X14.088 Y-21.056 E23.11453
G1 X14.814 Y-20.629 E23.15655
G1 X15.357 Y-20.218 E23.19052
G1 X15.909 Y-19.69 E23.22863
G1 X16.362 Y-19.181 E23.26263
G1 X16.751 Y-18.623 E23.29656
G1 X17.118 Y-17.945 E23.33502
G1 X17.391 Y-17.321 E23.369
G1 X17.62 Y-16.569 E23.40822
G1 X17.759 Y-15.798 E23.44731
G1 X17.8 Y-15.108 E23.48179
G1 X17.8 Y15.108 E24.98928
G1 X17.76 Y15.788 E25.02326
G1 X17.62 Y16.568 E25.0628
G1 X17.392 Y17.318 E25.1019
G1 X17.055 Y18.089 E25.14388
G1 X16.629 Y18.814 E25.18584
G1 X16.218 Y19.357 E25.21981
G1 X15.69 Y19.909 E25.25792
G1 X15.181 Y20.362 E25.29192
G1 X14.623 Y20.751 E25.32585
G1 X13.945 Y21.118 E25.36431
G1 X13.321 Y21.391 E25.3983
G1 X12.564 Y21.622 E25.43778
G1 X11.79 Y21.76 E25.47701
G1 X11.107 Y21.8 E25.51114
G1 X-11.107 Y21.8 E26.6194
G1 X-11.787 Y21.76 E26.65338
G1 X-12.563 Y21.622 E26.69271
G1 X-13.312 Y21.394 E26.73177
G1 X-14.088 Y21.056 E26.77399
G1 X-14.814 Y20.629 E26.81601
G1 X-15.357 Y20.218 E26.84999
G1 X-15.909 Y19.69 E26.8881
G1 X-16.362 Y19.181 E26.92209
G1 X-16.751 Y18.623 E26.95603
G1 X-17.118 Y17.945 E26.99449
G1 X-17.391 Y17.321 E27.02847
G1 X-17.62 Y16.569 E27.06769
G1 X-17.759 Y15.798 E27.10678
G1 X-17.8 Y15.108 E27.14126
G1 X-17.8 Y-15.108 E28.64875
G1 X-17.76 Y-15.788 E28.68273
G1 X-17.62 Y-16.568 E28.72227
G1 X-17.392 Y-17.318 E28.76137
G1 X-17.055 Y-18.089 E28.80335
G1 X-16.629 Y-18.814 E28.84531
G1 X-16.218 Y-19.357 E28.87928
G1 X-15.69 Y-19.909 E28.91739
G1 X-15.181 Y-20.362 E28.95138
G1 X-14.623 Y-20.751 E28.98532
G1 X-13.945 Y-21.118 E29.02378
G1 X-13.321 Y-21.391 E29.05776
G1 X-12.564 Y-21.622 E29.09725
G1 X-11.79 Y-21.76 E29.13647
G1 X-11.107 Y-21.8 E29.17061
G1 X11.107 Y-21.8 E30.27887
G0 F3600 X11.107 Y-21.4
G1 F1800 X11.763 Y-21.36 E30.31166
G1 X12.472 Y-21.232 E30.3476
G1 X13.196 Y-21.011 E30.38537
G1 X13.913 Y-20.695 E30.42446
G1 X14.611 Y-20.283 E30.4649
G1 X15.132 Y-19.883 E30.49767
G1 X15.626 Y-19.407 E30.53189
G1 X16.062 Y-18.915 E30.56469
G1 X16.434 Y-18.374 E30.59744
G1 X16.761 Y-17.763 E30.63202
G1 X17.024 Y-17.161 E30.66479
G1 X17.232 Y-16.471 E30.70075
G1 X17.364 Y-15.727 E30.73845
G1 X17.4 Y-15.108 E30.76938
G1 X17.4 Y15.108 E32.27686
G1 X17.36 Y15.764 E32.30965
G1 X17.23 Y16.478 E32.34586
G1 X17.009 Y17.201 E32.38358
G1 X16.695 Y17.914 E32.42244
G1 X16.283 Y18.611 E32.46284
G1 X15.883 Y19.132 E32.49561
G1 X15.407 Y19.626 E32.52983
G1 X14.915 Y20.062 E32.56263
G1 X14.374 Y20.434 E32.59539
G1 X13.763 Y20.761 E32.62996
G1 X13.161 Y21.024 E32.66274
G1 X12.465 Y21.234 E32.69901
G1 X11.72 Y21.365 E32.73674
G1 X11.107 Y21.4 E32.76738
G1 X-11.107 Y21.4 E33.87564
G1 X-11.763 Y21.36 E33.90843
G1 X-12.472 Y21.232 E33.94437
G1 X-13.196 Y21.011 E33.98214
G1 X-13.913 Y20.695 E34.02123
G1 X-14.611 Y20.283 E34.06166
G1 X-15.132 Y19.883 E34.09443
G1 X-15.626 Y19.407 E34.12866
G1 X-16.062 Y18.915 E34.16146
G1 X-16.434 Y18.374 E34.19421
G1 X-16.761 Y17.763 E34.22879
G1 X-17.024 Y17.161 E34.26156
G1 X-17.232 Y16.471 E34.29752
G1 X-17.364 Y15.727 E34.33521
G1 X-17.4 Y15.108 E34.36615
G1 X-17.4 Y-15.108 E35.87363
G1 X-17.36 Y-15.764 E35.90642
G1 X-17.23 Y-16.478 E35.94263
G1 X-17.009 Y-17.201 E35.98034
G1 X-16.695 Y-17.914 E36.01921
G1 X-16.283 Y-18.611 E36.05961
G1 X-15.883 Y-19.132 E36.09238
G1 X-15.407 Y-19.626 E36.1266
G1 X-14.915 Y-20.062 E36.1594
G1 X-14.374 Y-20.434 E36.19216
G1 X-13.763 Y-20.761 E36.22673
G1 X-13.161 Y-21.024 E36.2595
G1 X-12.465 Y-21.234 E36.29577
G1 X-11.72 Y-21.365 E36.33351
G1 X-11.107 Y-21.4 E36.36414
G1 X11.107 Y-21.4 E37.47241
G0 F3600 X11.107 Y-21
G1 F1800 X11.738 Y-20.96 E37.50395
G1 X12.383 Y-20.842 E37.53666
G1 X13.078 Y-20.628 E37.57294
G1 X13.735 Y-20.337 E37.60879
G1 X14.407 Y-19.939 E37.64776
G1 X15.223 Y-19.263 E37.70062
G1 X15.761 Y-18.65 E37.74131
G1 X16.33 Y-17.755 E37.79423
G1 X16.656 Y-17.001 E37.83521
G1 X16.844 Y-16.374 E37.86786
G1 X16.97 Y-15.658 E37.90414
G1 X17 Y-15.108 E37.93162
G1 X17 Y15.108 E39.4391
G1 X16.96 Y15.739 E39.47064
G1 X16.841 Y16.388 E39.50356
G1 X16.626 Y17.083 E39.53986
G1 X16.336 Y17.736 E39.5755
G1 X15.939 Y18.407 E39.6144
G1 X15.263 Y19.223 E39.66726
G1 X14.65 Y19.761 E39.70795
G1 X13.755 Y20.33 E39.76087
G1 X13.001 Y20.656 E39.80185
G1 X12.369 Y20.846 E39.83477
G1 X11.651 Y20.97 E39.87113
G1 X11.107 Y21 E39.89831
G1 X-11.107 Y21 E41.00657
G1 X-11.738 Y20.96 E41.03811
G1 X-12.383 Y20.842 E41.07082
G1 X-13.078 Y20.628 E41.1071
G1 X-13.735 Y20.337 E41.14295
G1 X-14.407 Y19.939 E41.18192
G1 X-15.223 Y19.263 E41.23478
G1 X-15.761 Y18.65 E41.27548
G1 X-16.33 Y17.755 E41.32839
G1 X-16.656 Y17.001 E41.36937
G1 X-16.844 Y16.374 E41.40203
G1 X-16.97 Y15.658 E41.4383
G1 X-17 Y15.108 E41.46578
G1 X-17 Y-15.108 E42.97326
G1 X-16.96 Y-15.739 E43.0048
G1 X-16.841 Y-16.388 E43.03772
G1 X-16.626 Y-17.083 E43.07402
G1 X-16.336 Y-17.736 E43.10966
G1 X-15.939 Y-18.407 E43.14856
G1 X-15.263 Y-19.223 E43.20143
G1 X-14.65 Y-19.761 E43.24212
G1 X-13.755 Y-20.33 E43.29503
G1 X-13.001 Y-20.656 E43.33601
G1 X-12.369 Y-20.846 E43.36894
G1 X-11.651 Y-20.97 E43.40529
G1 X-11.107 Y-21 E43.43247
G1 X11.107 Y-21 E44.54073
G0 F3600 X11.107 Y-20.6
G1 F1800 X11.712 Y-20.56 E44.57098
G1 X12.381 Y-20.425 E44.60503
G1 X12.959 Y-20.245 E44.63523
G1 X13.681 Y-19.905 E44.67505
G1 X14.202 Y-19.594 E44.70532
G1 X14.943 Y-18.977 E44.75342
G1 X15.46 Y-18.386 E44.7926
G1 X15.977 Y-17.567 E44.84092
G1 X16.288 Y-16.842 E44.88028
G1 X16.472 Y-16.187 E44.91422
G1 X16.6 Y-15.444 E44.95183
G1 X16.6 Y15.108 E46.47608
G1 X16.56 Y15.713 E46.50633
G1 X16.424 Y16.386 E46.54058
G1 X16.243 Y16.964 E46.5708
G1 X15.905 Y17.681 E46.61035
G1 X15.594 Y18.202 E46.64062
G1 X14.977 Y18.943 E46.68873
G1 X14.386 Y19.46 E46.7279
G1 X13.567 Y19.977 E46.77622
G1 X12.842 Y20.288 E46.81558
G1 X12.181 Y20.473 E46.84982
G1 X11.436 Y20.6 E46.88753
G1 X-11.107 Y20.6 E48.0122
G1 X-11.712 Y20.56 E48.04245
G1 X-12.381 Y20.425 E48.0765
G1 X-12.959 Y20.245 E48.1067
G1 X-13.681 Y19.905 E48.14652
G1 X-14.202 Y19.594 E48.17679
G1 X-14.943 Y18.977 E48.2249
G1 X-15.46 Y18.386 E48.26407
G1 X-15.977 Y17.567 E48.31239
G1 X-16.288 Y16.842 E48.35175
G1 X-16.472 Y16.187 E48.38569
G1 X-16.6 Y15.444 E48.42331
G1 X-16.6 Y-15.108 E49.94755
G1 X-16.56 Y-15.713 E49.9778
G1 X-16.424 Y-16.386 E50.01206
G1 X-16.243 Y-16.964 E50.04227
G1 X-15.905 Y-17.681 E50.08182
G1 X-15.594 Y-18.202 E50.11209
G1 X-14.977 Y-18.943 E50.1602
G1 X-14.386 Y-19.46 E50.19937
G1 X-13.567 Y-19.977 E50.24769
G1 X-12.842 Y-20.288 E50.28705
G1 X-12.181 Y-20.473 E50.3213
G1 X-11.436 Y-20.6 E50.359
G1 X11.107 Y-20.6 E51.48367
G0 F3600 X11.107 Y-20.2
G1 F1800 X11.685 Y-20.16 E51.51258
G1 X12.287 Y-20.036 E51.54324
G1 X12.84 Y-19.862 E51.57217
G1 X13.499 Y-19.549 E51.60857
G1 X13.996 Y-19.25 E51.6375
G1 X14.664 Y-18.69 E51.68099
G1 X15.158 Y-18.122 E51.71855
G1 X15.623 Y-17.381 E51.76219
G1 X15.92 Y-16.684 E51.79999
G1 X16.083 Y-16.093 E51.83058
G1 X16.2 Y-15.404 E51.86544
G1 X16.2 Y15.108 E53.38769
G1 X16.16 Y15.686 E53.4166
G1 X16.035 Y16.292 E53.44747
G1 X15.861 Y16.844 E53.47634
G1 X15.549 Y17.499 E53.51254
G1 X15.25 Y17.996 E53.54148
G1 X14.69 Y18.664 E53.58496
G1 X14.122 Y19.158 E53.62252
G1 X13.381 Y19.623 E53.66616
G1 X12.684 Y19.92 E53.70396
G1 X12.087 Y20.084 E53.73485
G1 X11.397 Y20.2 E53.76976
G1 X-11.107 Y20.2 E54.89249
G1 X-11.685 Y20.16 E54.92139
G1 X-12.287 Y20.036 E54.95206
G1 X-12.84 Y19.862 E54.98098
G1 X-13.499 Y19.549 E55.01738
G1 X-13.996 Y19.25 E55.04631
G1 X-14.664 Y18.69 E55.0898
G1 X-15.158 Y18.122 E55.12736
G1 X-15.623 Y17.381 E55.171
G1 X-15.92 Y16.684 E55.2088
G1 X-16.083 Y16.093 E55.23939
G1 X-16.2 Y15.404 E55.27425
G1 X-16.2 Y-15.108 E56.7965
G1 X-16.16 Y-15.686 E56.82541
G1 X-16.035 Y-16.292 E56.85628
G1 X-15.861 Y-16.844 E56.88515
G1 X-15.549 Y-17.499 E56.92135
G1 X-15.25 Y-17.996 E56.95029
G1 X-14.69 Y-18.664 E56.99378
G1 X-14.122 Y-19.158 E57.03133
G1 X-13.381 Y-19.623 E57.07498
G1 X-12.684 Y-19.92 E57.11278
G1 X-12.087 Y-20.084 E57.14366
G1 X-11.397 Y-20.2 E57.17857
G1 X11.107 Y-20.2 E58.3013
G0 F3600 X11.107 Y-19.8
G1 F1800 X11.657 Y-19.76 E58.32881
G1 X12.194 Y-19.647 E58.35619
G1 X12.719 Y-19.48 E58.38367
G1 X13.317 Y-19.192 E58.41679
G1 X13.788 Y-18.907 E58.44425
G1 X14.386 Y-18.402 E58.4833
G1 X14.855 Y-17.859 E58.5191
G1 X15.269 Y-17.194 E58.55818
G1 X15.551 Y-16.528 E58.59426
G1 X15.694 Y-15.999 E58.6216
G1 X15.8 Y-15.358 E58.65402
G1 X15.8 Y15.108 E60.17397
G1 X15.76 Y15.658 E60.20148
G1 X15.646 Y16.198 E60.22902
G1 X15.478 Y16.723 E60.25652
G1 X15.192 Y17.317 E60.28941
G1 X14.907 Y17.788 E60.31688
G1 X14.402 Y18.386 E60.35592
G1 X13.859 Y18.855 E60.39172
G1 X13.194 Y19.269 E60.4308
G1 X12.528 Y19.551 E60.46688
G1 X11.994 Y19.695 E60.49448
G1 X11.352 Y19.8 E60.52693
G1 X-11.107 Y19.8 E61.64742
G1 X-11.657 Y19.76 E61.67493
G1 X-12.194 Y19.647 E61.70231
G1 X-12.719 Y19.48 E61.72979
G1 X-13.317 Y19.192 E61.76291
G1 X-13.788 Y18.907 E61.79037
G1 X-14.386 Y18.402 E61.82942
G1 X-14.855 Y17.859 E61.86522
G1 X-15.269 Y17.194 E61.9043
G1 X-15.551 Y16.528 E61.94038
G1 X-15.694 Y15.999 E61.96772
G1 X-15.8 Y15.358 E62.00013
G1 X-15.8 Y-15.108 E63.52009
G1 X-15.76 Y-15.658 E63.5476
G1 X-15.646 Y-16.198 E63.57514
G1 X-15.478 Y-16.723 E63.60264
G1 X-15.192 Y-17.317 E63.63553
G1 X-14.907 Y-17.788 E63.66299
G1 X-14.402 Y-18.386 E63.70204
G1 X-13.859 Y-18.855 E63.73784
G1 X-13.194 Y-19.269 E63.77692
G1 X-12.528 Y-19.551 E63.813
G1 X-11.994 Y-19.695 E63.84059
G1 X-11.352 Y-19.8 E63.87305
G1 X11.107 Y-19.8 E64.99353
G0 F3600 X11.107 Y-19.4
G1 F1800 X11.627 Y-19.36 E65.01955
G1 X12.1 Y-19.258 E65.04369
G1 X12.596 Y-19.098 E65.0697
G1 X13.135 Y-18.836 E65.09959
G1 X13.58 Y-18.564 E65.12561
G1 X14.11 Y-18.113 E65.16033
G1 X14.551 Y-17.597 E65.1942
G1 X14.917 Y-17.004 E65.22896
G1 X15.181 Y-16.372 E65.26314
G1 X15.305 Y-15.905 E65.28724
G1 X15.4 Y-15.317 E65.31696
G1 X15.4 Y15.108 E66.83487
G1 X15.36 Y15.628 E66.86089
G1 X15.257 Y16.104 E66.88518
G1 X15.097 Y16.6 E66.91118
G1 X14.836 Y17.135 E66.94088
G1 X14.564 Y17.58 E66.9669
