;FLAVOR:Marlin
;TIME:6940
;Filament used: 5.81402m
;Layer height: 0.15
;MINX:-34.8
;MINY:-76.575
;MINZ:0.3
;MAXX:34.8
;MAXY:76.575
;MAXZ:13.95
;Generated with Cura_SteamEngine main
M140 S60
M105
M190 S60
M104 S200
M105
M109 S200
M82 ;absolute extrusion mode
G21 ;metric values
G90 ;absolute positioning
M82 ;set extruder to absolute mode
M107 ;start with the fan off
G28 ;Home all axes (max endstops)
G1 Z15.0 F9000 ;move the platform down 15mm
G92 E0 ;zero the extruded length
G1 F200 E3 ;extrude 3mm of feed stock
G92 E0 ;zero the extruded length again
G1 F9000
;Put printing message on LCD screen
M117 Printing...
G92 E0
G92 E0
G1 F1500 E-6.5
;LAYER_COUNT:92
;LAYER:0
M107
G0 F3600 X34.8 Y68.775 Z0.3
G0 X33.403 Y73.229
;TYPE:SKIRT
G1 F1500 E0
G1 F1800 X32.92 Y73.853 E0.03937
G1 X32.377 Y74.426 E0.07875
G1 X31.778 Y74.941 E0.11816
G1 X31.13 Y75.392 E0.15755
G1 X30.439 Y75.776 E0.19699
G1 X29.714 Y76.088 E0.23637
G1 X28.961 Y76.325 E0.27575
G1 X28.187 Y76.484 E0.31517
G1 X27.305 Y76.575 E0.35941
G1 X-27 Y76.575 E3.0687
G1 X-27.789 Y76.535 E3.10811
G1 X-28.569 Y76.416 E3.14748
G1 X-29.334 Y76.218 E3.1869
G1 X-30.074 Y75.944 E3.22627
G1 X-30.783 Y75.596 E3.26567
G1 X-31.454 Y75.178 E3.30511
G1 X-32.078 Y74.695 E3.34448
G1 X-32.651 Y74.152 E3.38386
G1 X-33.166 Y73.553 E3.42328
G1 X-33.617 Y72.905 E3.46266
G1 X-34.001 Y72.214 E3.5021
G1 X-34.313 Y71.489 E3.54148
G1 X-34.55 Y70.736 E3.58086
G1 X-34.709 Y69.962 E3.62029
G1 X-34.8 Y69.08 E3.66452
G1 X-34.8 Y-68.775 E10.54214
G1 X-34.76 Y-69.564 E10.58155
G1 X-34.641 Y-70.344 E10.62092
G1 X-34.443 Y-71.109 E10.66034
G1 X-34.169 Y-71.849 E10.69971
G1 X-33.821 Y-72.558 E10.73911
G1 X-33.403 Y-73.229 E10.77855
G1 X-32.92 Y-73.853 E10.81792
G1 X-32.377 Y-74.426 E10.8573
G1 X-31.778 Y-74.941 E10.89671
G1 X-31.13 Y-75.392 E10.9361
G1 X-30.439 Y-75.776 E10.97554
G1 X-29.714 Y-76.088 E11.01492
G1 X-28.961 Y-76.325 E11.0543
G1 X-28.187 Y-76.484 E11.09373
G1 X-27.305 Y-76.575 E11.13796
G1 X27 Y-76.575 E13.84725
G1 X27.789 Y-76.535 E13.88666
G1 X28.569 Y-76.416 E13.92603
G1 X29.334 Y-76.218 E13.96545
G1 X30.074 Y-75.944 E14.00482
G1 X30.783 Y-75.596 E14.04422
G1 X31.454 Y-75.178 E14.08366
G1 X32.078 Y-74.695 E14.12303
G1 X32.651 Y-74.152 E14.16242
G1 X33.166 Y-73.553 E14.20183
G1 X33.617 Y-72.905 E14.24121
G1 X34.001 Y-72.214 E14.28065
G1 X34.313 Y-71.489 E14.32003
G1 X34.55 Y-70.736 E14.35942
G1 X34.709 Y-69.962 E14.39884
G1 X34.8 Y-69.08 E14.44307
G1 X34.8 Y68.775 E21.32069
G1 X34.76 Y69.564 E21.3601
G1 X34.641 Y70.344 E21.39947
G1 X34.443 Y71.109 E21.43889
G1 X34.169 Y71.849 E21.47826
G1 X33.821 Y72.558 E21.51766
G1 X33.403 Y73.229 E21.5571
G1 F1500 E15.0571
G0 F3600 X28.957 Y74.658
G1 F1500 E21.5571
G1 F1800 X28.277 Y74.842 E21.59225
G1 X27.581 Y74.948 E21.62737
G1 X27 Y74.975 E21.65639
G1 X-27 Y74.975 E24.35046
G1 X-27.703 Y74.935 E24.38559
G1 X-28.397 Y74.816 E24.42072
G1 X-29.072 Y74.618 E24.45581
G1 X-29.721 Y74.346 E24.49092
G1 X-30.335 Y74.001 E24.52606
G1 X-30.906 Y73.59 E24.56116
G1 X-31.427 Y73.116 E24.5963
G1 X-31.891 Y72.586 E24.63144
G1 X-32.291 Y72.007 E24.66655
G1 X-32.623 Y71.386 E24.70168
G1 X-32.883 Y70.732 E24.73679
G1 X-33.067 Y70.052 E24.77194
G1 X-33.173 Y69.356 E24.80706
G1 X-33.2 Y68.775 E24.83608
G1 X-33.2 Y-68.775 E31.69848
G1 X-33.16 Y-69.478 E31.73361
G1 X-33.041 Y-70.172 E31.76874
G1 X-32.843 Y-70.847 E31.80383
G1 X-32.571 Y-71.496 E31.83894
G1 X-32.226 Y-72.11 E31.87408
G1 X-31.815 Y-72.681 E31.90918
G1 X-31.341 Y-73.202 E31.94432
G1 X-30.811 Y-73.666 E31.97946
G1 X-30.232 Y-74.066 E32.01457
G1 X-29.611 Y-74.398 E32.0497
G1 X-28.957 Y-74.658 E32.08481
G1 X-28.277 Y-74.842 E32.11996
G1 X-27.581 Y-74.948 E32.15508
G1 X-27 Y-74.975 E32.1841
G1 X27 Y-74.975 E34.87817
G1 X27.703 Y-74.935 E34.9133
G1 X28.397 Y-74.816 E34.94843
G1 X29.072 Y-74.618 E34.98352
G1 X29.721 Y-74.346 E35.01863
G1 X30.335 Y-74.001 E35.05377
G1 X30.906 Y-73.59 E35.08887
G1 X31.427 Y-73.116 E35.12401
G1 X31.891 Y-72.586 E35.15915
G1 X32.291 Y-72.007 E35.19426
G1 X32.623 Y-71.386 E35.22939
G1 X32.883 Y-70.732 E35.2645
G1 X33.067 Y-70.052 E35.29965
G1 X33.173 Y-69.356 E35.33477
G1 X33.2 Y-68.775 E35.36379
G1 X33.2 Y68.775 E42.22619
G1 X33.16 Y69.478 E42.26132
G1 X33.041 Y70.172 E42.29645
G1 X32.843 Y70.847 E42.33154
G1 X32.571 Y71.496 E42.36665
G1 X32.226 Y72.11 E42.40179
G1 X31.815 Y72.681 E42.43689
G1 X31.341 Y73.202 E42.47203
G1 X30.811 Y73.666 E42.50717
G1 X30.232 Y74.066 E42.54228
G1 X29.611 Y74.398 E42.57741
G1 X28.957 Y74.658 E42.61252
G0 F3600 X27 Y74.575
G1 F1800 X-27 Y74.575 E45.30659
G1 X-27.68 Y74.535 E45.34058
G1 X-28.35 Y74.416 E45.37453
G1 X-29.002 Y74.219 E45.40851
G1 X-29.626 Y73.947 E45.44247
G1 X-30.214 Y73.603 E45.47646
G1 X-30.758 Y73.193 E45.51044
G1 X-31.249 Y72.722 E45.54439
G1 X-31.683 Y72.197 E45.57837
G1 X-32.052 Y71.625 E45.61233
G1 X-32.351 Y71.013 E45.64631
G1 X-32.576 Y70.371 E45.68025
G1 X-32.725 Y69.706 E45.71425
G1 X-32.8 Y68.775 E45.76085
G1 X-32.8 Y-68.775 E52.62325
G1 X-32.76 Y-69.455 E52.65723
G1 X-32.641 Y-70.125 E52.69118
G1 X-32.444 Y-70.777 E52.72516
G1 X-32.172 Y-71.401 E52.75912
G1 X-31.828 Y-71.989 E52.79311
G1 X-31.418 Y-72.533 E52.82709
G1 X-30.947 Y-73.024 E52.86104
G1 X-30.422 Y-73.458 E52.89502
G1 X-29.85 Y-73.827 E52.92898
G1 X-29.238 Y-74.126 E52.96296
G1 X-28.596 Y-74.351 E52.9969
G1 X-27.931 Y-74.5 E53.0309
G1 X-27 Y-74.575 E53.0775
G1 X27 Y-74.575 E55.77157
G1 X27.68 Y-74.535 E55.80555
G1 X28.35 Y-74.416 E55.8395
G1 X29.002 Y-74.219 E55.87349
G1 X29.626 Y-73.947 E55.90745
G1 X30.214 Y-73.603 E55.94143
G1 X30.758 Y-73.193 E55.97542
G1 X31.249 Y-72.722 E56.00936
G1 X31.683 Y-72.197 E56.04335
G1 X32.052 Y-71.625 E56.07731
G1 X32.351 Y-71.013 E56.11129
G1 X32.576 Y-70.371 E56.14523
G1 X32.725 Y-69.706 E56.17923
G1 X32.8 Y-68.775 E56.22583
G1 X32.8 Y68.775 E63.08822
G1 X32.76 Y69.455 E63.12221
G1 X32.641 Y70.125 E63.15616
G1 X32.444 Y70.777 E63.19014
G1 X32.172 Y71.401 E63.2241
G1 X31.828 Y71.989 E63.25808
G1 X31.418 Y72.533 E63.29207
G1 X30.947 Y73.024 E63.32601
G1 X30.422 Y73.458 E63.36
G1 X29.85 Y73.827 E63.39396
G1 X29.238 Y74.126 E63.42794
G1 X28.596 Y74.351 E63.46188
G1 X27.931 Y74.5 E63.49588
G1 X27 Y74.575 E63.54248
G0 F3600 X27 Y74.175
G1 F1800 X-27 Y74.175 E66.23655
G1 X-27.656 Y74.135 E66.26934
G1 X-28.302 Y74.016 E66.30211
G1 X-28.929 Y73.819 E66.3349
G1 X-29.527 Y73.547 E66.36767
G1 X-30.088 Y73.205 E66.40045
G1 X-30.603 Y72.797 E66.43323
G1 X-31.065 Y72.33 E66.466
G1 X-31.466 Y71.81 E66.49877
G1 X-31.802 Y71.246 E66.53152
G1 X-32.066 Y70.644 E66.56431
G1 X-32.256 Y70.015 E66.59709
G1 X-32.367 Y69.368 E66.62984
G1 X-32.4 Y68.775 E66.65948
G1 X-32.4 Y-68.775 E73.52187
G1 X-32.36 Y-69.431 E73.55466
G1 X-32.241 Y-70.077 E73.58743
G1 X-32.044 Y-70.704 E73.62022
G1 X-31.772 Y-71.302 E73.653
G1 X-31.43 Y-71.863 E73.68578
G1 X-31.022 Y-72.378 E73.71856
G1 X-30.555 Y-72.84 E73.75133
G1 X-30.035 Y-73.241 E73.78409
G1 X-29.471 Y-73.577 E73.81684
G1 X-28.869 Y-73.841 E73.84964
G1 X-28.24 Y-74.031 E73.88242
G1 X-27.593 Y-74.142 E73.91517
G1 X-27 Y-74.175 E73.9448
G1 X27 Y-74.175 E76.63887
G1 X27.656 Y-74.135 E76.67166
G1 X28.302 Y-74.016 E76.70443
G1 X28.929 Y-73.819 E76.73722
G1 X29.527 Y-73.547 E76.77
G1 X30.088 Y-73.205 E76.80278
G1 X30.603 Y-72.797 E76.83555
G1 X31.065 Y-72.33 E76.86833
G1 X31.466 Y-71.81 E76.90109
G1 X31.802 Y-71.246 E76.93384
G1 X32.066 Y-70.644 E76.96664
G1 X32.256 Y-70.015 E76.99942
G1 X32.367 Y-69.368 E77.03217
G1 X32.4 Y-68.775 E77.0618
G1 X32.4 Y68.775 E83.9242
G1 X32.36 Y69.431 E83.95699
G1 X32.241 Y70.077 E83.98976
G1 X32.044 Y70.704 E84.02255
G1 X31.772 Y71.302 E84.05532
G1 X31.43 Y71.863 E84.0881
G1 X31.022 Y72.378 E84.12088
G1 X30.555 Y72.84 E84.15365
G1 X30.035 Y73.241 E84.18641
G1 X29.471 Y73.577 E84.21917
G1 X28.869 Y73.841 E84.25196
G1 X28.24 Y74.031 E84.28474
G1 X27.593 Y74.142 E84.31749
G1 X27 Y74.175 E84.34712
G0 F3600 X27 Y73.775
G1 F1800 X-27 Y73.775 E87.0412
G1 X-27.631 Y73.735 E87.07274
G1 X-28.252 Y73.616 E87.10429
G1 X-28.852 Y73.419 E87.13579
G1 X-29.424 Y73.148 E87.16737
G1 X-29.956 Y72.808 E87.19887
G1 X-30.441 Y72.402 E87.23042
G1 X-30.871 Y71.939 E87.26195
G1 X-31.24 Y71.425 E87.29352
G1 X-31.54 Y70.869 E87.32504
G1 X-31.768 Y70.28 E87.35655
G1 X-31.92 Y69.666 E87.3881
G1 X-32 Y68.775 E87.43273
G1 X-32 Y-68.775 E94.29513
G1 X-31.96 Y-69.406 E94.32667
G1 X-31.841 Y-70.027 E94.35822
G1 X-31.644 Y-70.627 E94.38973
G1 X-31.373 Y-71.199 E94.4213
G1 X-31.033 Y-71.731 E94.4528
G1 X-30.627 Y-72.216 E94.48436
G1 X-30.164 Y-72.646 E94.51588
G1 X-29.65 Y-73.015 E94.54745
G1 X-29.094 Y-73.315 E94.57897
G1 X-28.505 Y-73.543 E94.61048
G1 X-27.891 Y-73.695 E94.64204
G1 X-27 Y-73.775 E94.68667
G1 X27 Y-73.775 E97.38074
G1 X27.631 Y-73.735 E97.41228
G1 X28.252 Y-73.616 E97.44383
G1 X28.852 Y-73.419 E97.47534
G1 X29.424 Y-73.148 E97.50691
G1 X29.956 Y-72.808 E97.53841
G1 X30.441 Y-72.402 E97.56997
G1 X30.871 Y-71.939 E97.60149
G1 X31.24 Y-71.425 E97.63306
G1 X31.54 Y-70.869 E97.66458
G1 X31.768 Y-70.28 E97.69609
G1 X31.92 Y-69.666 E97.72765
G1 X32 Y-68.775 E97.77228
G1 X32 Y68.775 E104.63468
G1 X31.96 Y69.406 E104.66622
G1 X31.841 Y70.027 E104.69776
G1 X31.644 Y70.627 E104.72927
G1 X31.373 Y71.199 E104.76085
G1 X31.033 Y71.731 E104.79235
G1 X30.627 Y72.216 E104.8239
G1 X30.164 Y72.646 E104.85543
G1 X29.65 Y73.015 E104.887
G1 X29.094 Y73.315 E104.91852
G1 X28.505 Y73.543 E104.95003
G1 X27.891 Y73.695 E104.98158
G1 X27 Y73.775 E105.02621
G0 F3600 X27 Y73.375
G1 F1800 X-27 Y73.375 E107.72028
G1 X-27.605 Y73.335 E107.75053
G1 X-28.199 Y73.216 E107.78076
G1 X-28.773 Y73.02 E107.81102
G1 X-29.316 Y72.749 E107.84129
G1 X-29.819 Y72.41 E107.87156
G1 X-30.272 Y72.008 E107.90177
G1 X-30.669 Y71.55 E107.93201
G1 X-31.002 Y71.043 E107.96227
G1 X-31.266 Y70.497 E107.99253
G1 X-31.455 Y69.921 E108.02278
G1 X-31.567 Y69.325 E108.05303
G1 X-31.6 Y68.775 E108.08052
G1 X-31.6 Y-68.775 E114.94292
G1 X-31.56 Y-69.38 E114.97317
G1 X-31.441 Y-69.974 E115.00339
G1 X-31.245 Y-70.548 E115.03365
G1 X-30.974 Y-71.091 E115.06393
G1 X-30.635 Y-71.594 E115.09419
G1 X-30.233 Y-72.047 E115.12441
G1 X-29.775 Y-72.444 E115.15464
G1 X-29.268 Y-72.777 E115.18491
G1 X-28.722 Y-73.041 E115.21516
G1 X-28.146 Y-73.23 E115.24541
G1 X-27.55 Y-73.342 E115.27566
G1 X-27 Y-73.375 E115.30315
G1 X27 Y-73.375 E117.99722
G1 X27.605 Y-73.335 E118.02747
G1 X28.199 Y-73.216 E118.0577
G1 X28.773 Y-73.02 E118.08796
G1 X29.316 Y-72.749 E118.11823
G1 X29.819 Y-72.41 E118.1485
G1 X30.272 Y-72.008 E118.17871
G1 X30.669 Y-71.55 E118.20895
G1 X31.002 Y-71.043 E118.23921
G1 X31.266 Y-70.497 E118.26947
G1 X31.455 Y-69.921 E118.29971
G1 X31.567 Y-69.325 E118.32997
G1 X31.6 Y-68.775 E118.35746
G1 X31.6 Y68.775 E125.21986
G1 X31.56 Y69.38 E125.25011
G1 X31.441 Y69.974 E125.28033
G1 X31.245 Y70.548 E125.31059
G1 X30.974 Y71.091 E125.34087
G1 X30.635 Y71.594 E125.37113
G1 X30.233 Y72.047 E125.40134
G1 X29.775 Y72.444 E125.43158
G1 X29.268 Y72.777 E125.46185
G1 X28.722 Y73.041 E125.4921
G1 X28.146 Y73.23 E125.52235
G1 X27.55 Y73.342 E125.5526
G1 X27 Y73.375 E125.58009
G0 F3600 X27 Y72.975
G1 F1800 X-27 Y72.975 E128.27416
G1 X-27.578 Y72.935 E128.30307
G1 X-28.145 Y72.816 E128.33197
G1 X-28.69 Y72.62 E128.36087
G1 X-29.203 Y72.351 E128.38977
G1 X-29.674 Y72.014 E128.41866
G1 X-30.094 Y71.615 E128.44756
G1 X-30.456 Y71.162 E128.47649
G1 X-30.751 Y70.664 E128.50537
G1 X-30.976 Y70.13 E128.53428
G1 X-31.124 Y69.57 E128.56318
G1 X-31.2 Y68.775 E128.60302
G1 X-31.2 Y-68.775 E135.46542
G1 X-31.16 Y-69.353 E135.49432
G1 X-31.041 Y-69.92 E135.52323
G1 X-30.845 Y-70.465 E135.55212
G1 X-30.576 Y-70.978 E135.58102
G1 X-30.239 Y-71.449 E135.60991
G1 X-29.84 Y-71.869 E135.63882
G1 X-29.387 Y-72.231 E135.66775
G1 X-28.889 Y-72.526 E135.69662
G1 X-28.355 Y-72.751 E135.72553
G1 X-27.795 Y-72.899 E135.75443
G1 X-27 Y-72.975 E135.79427
G1 X27 Y-72.975 E138.48834
G1 X27.578 Y-72.935 E138.51725
G1 X28.145 Y-72.816 E138.54615
G1 X28.69 Y-72.62 E138.57505
G1 X29.203 Y-72.351 E138.60395
G1 X29.674 Y-72.014 E138.63284
G1 X30.094 Y-71.615 E138.66174
G1 X30.456 Y-71.162 E138.69067
G1 X30.751 Y-70.664 E138.71955
G1 X30.976 Y-70.13 E138.74846
G1 X31.124 Y-69.57 E138.77736
G1 X31.2 Y-68.775 E138.8172
G1 X31.2 Y68.775 E145.6796
G1 X31.16 Y69.353 E145.70851
G1 X31.041 Y69.92 E145.73741
G1 X30.845 Y70.465 E145.7663
G1 X30.576 Y70.978 E145.7952
G1 X30.239 Y71.449 E145.8241
G1 X29.84 Y71.869 E145.853
G1 X29.387 Y72.231 E145.88193
G1 X28.889 Y72.526 E145.91081
G1 X28.355 Y72.751 E145.93972
G1 X27.795 Y72.899 E145.96861
G1 X27 Y72.975 E146.00846
G0 F3600 X27 Y72.575
G1 F1800 X-27 Y72.575 E148.70253
G1 X-27.55 Y72.535 E148.73004
G1 X-28.088 Y72.416 E148.75753
G1 X-28.603 Y72.22 E148.78502
G1 X-29.084 Y71.952 E148.81249
G1 X-29.522 Y71.618 E148.83997
G1 X-29.906 Y71.223 E148.86746
G1 X-30.23 Y70.777 E148.89496
G1 X-30.485 Y70.289 E148.92243
G1 X-30.668 Y69.769 E148.94993
G1 X-30.773 Y69.228 E148.97743
G1 X-30.8 Y68.775 E149.00007
G1 X-30.8 Y-68.775 E155.86246
G1 X-30.76 Y-69.325 E155.88998
G1 X-30.641 Y-69.863 E155.91747
G1 X-30.445 Y-70.378 E155.94496
G1 X-30.177 Y-70.859 E155.97243
G1 X-29.843 Y-71.297 E155.99991
G1 X-29.448 Y-71.681 E156.02739
G1 X-29.002 Y-72.005 E156.05489
G1 X-28.514 Y-72.26 E156.08236
G1 X-27.994 Y-72.443 E156.10987
G1 X-27.453 Y-72.548 E156.13736
G1 X-27 Y-72.575 E156.16
G1 X27 Y-72.575 E158.85407
G1 X27.55 Y-72.535 E158.88158
G1 X28.088 Y-72.416 E158.90907
G1 X28.603 Y-72.22 E158.93657
G1 X29.084 Y-71.952 E158.96404
G1 X29.522 Y-71.618 E158.99152
G1 X29.906 Y-71.223 E159.019
G1 X30.23 Y-70.777 E159.0465
G1 X30.485 Y-70.289 E159.07397
G1 X30.668 Y-69.769 E159.10148
G1 X30.773 Y-69.228 E159.12897
G1 X30.8 Y-68.775 E159.15161
G1 X30.8 Y68.775 E166.01401
G1 X30.76 Y69.325 E166.04152
G1 X30.641 Y69.863 E166.06901
G1 X30.445 Y70.378 E166.0965
G1 X30.177 Y70.859 E166.12397
G1 X29.843 Y71.297 E166.15145
G1 X29.448 Y71.681 E166.17894
G1 X29.002 Y72.005 E166.20644
G1 X28.514 Y72.26 E166.23391
G1 X27.994 Y72.443 E166.26141
G1 X27.453 Y72.548 E166.28891
G1 X27 Y72.575 E166.31155
G0 F3600 X27 Y72.175
G1 F1800 X-27 Y72.175 E169.00562
G1 X-27.52 Y72.135 E169.03164
G1 X-28.027 Y72.016 E169.05762
G1 X-28.51 Y71.821 E169.0836
G1 X-28.958 Y71.555 E169.1096
G1 X-29.36 Y71.223 E169.13561
G1 X-29.706 Y70.833 E169.16162
G1 X-29.989 Y70.395 E169.18764
G1 X-30.202 Y69.92 E169.21361
G1 X-30.339 Y69.417 E169.23962
G1 X-30.4 Y68.775 E169.27179
G1 X-30.4 Y-68.775 E176.13419
G1 X-30.36 Y-69.295 E176.16021
G1 X-30.241 Y-69.802 E176.18619
G1 X-30.046 Y-70.285 E176.21218
G1 X-29.78 Y-70.733 E176.23817
G1 X-29.448 Y-71.135 E176.26418
G1 X-29.058 Y-71.481 E176.29019
G1 X-28.62 Y-71.764 E176.31621
G1 X-28.145 Y-71.977 E176.34218
G1 X-27.642 Y-72.114 E176.36819
G1 X-27 Y-72.175 E176.40036
G1 X27 Y-72.175 E179.09443
G1 X27.52 Y-72.135 E179.12045
G1 X28.027 Y-72.016 E179.14643
G1 X28.51 Y-71.821 E179.17242
G1 X28.958 Y-71.555 E179.19841
G1 X29.36 Y-71.223 E179.22443
G1 X29.706 Y-70.833 E179.25044
G1 X29.989 Y-70.395 E179.27645
G1 X30.202 Y-69.92 E179.30242
G1 X30.339 Y-69.417 E179.32843
G1 X30.4 Y-68.775 E179.36061
G1 X30.4 Y68.775 E186.223
G1 X30.36 Y69.295 E186.24902
G1 X30.241 Y69.802 E186.27501
G1 X30.046 Y70.285 E186.30099
G1 X29.78 Y70.733 E186.32699
G1 X29.448 Y71.135 E186.353
G1 X29.058 Y71.481 E186.37901
G1 X28.62 Y71.764 E186.40502
G1 X28.145 Y71.977 E186.431
G1 X27.642 Y72.114 E186.45701
G1 X27 Y72.175 E186.48918
G0 F3600 X27.221 Y71.775
G1 F1800 X-27 Y71.775 E189.19428
G1 X-27.488 Y71.735 E189.2187
G1 X-27.963 Y71.616 E189.24313
G1 X-28.412 Y71.422 E189.26754
G1 X-28.824 Y71.157 E189.29198
G1 X-29.187 Y70.829 E189.31638
G1 X-29.492 Y70.446 E189.34081
G1 X-29.73 Y70.018 E189.36524
G1 X-29.896 Y69.558 E189.38964
G1 X-30 Y68.996 E189.41815
G1 X-30 Y-68.775 E196.29158
G1 X-29.96 Y-69.263 E196.31601
G1 X-29.841 Y-69.738 E196.34044
G1 X-29.647 Y-70.187 E196.36484
G1 X-29.382 Y-70.599 E196.38928
G1 X-29.054 Y-70.962 E196.41369
G1 X-28.671 Y-71.267 E196.43811
G1 X-28.243 Y-71.505 E196.46255
G1 X-27.783 Y-71.671 E196.48694
G1 X-27.221 Y-71.775 E196.51546
G1 X27 Y-71.775 E199.22055
G1 X27.488 Y-71.735 E199.24498
G1 X27.963 Y-71.616 E199.26941
G1 X28.412 Y-71.422 E199.29381
G1 X28.824 Y-71.157 E199.31825
