;FLAVOR:Marlin
;TIME:2833
;Filament used: 2.21494m
;Layer height: 0.15
;MINX:-27.8
;MINY:-24.8
;MINZ:0.3
;MAXX:27.8
;MAXY:24.8
;MAXZ:33
;Generated with Cura_SteamEngine main
M140 S60
M105
M190 S60
M104 S200
M105
M109 S200
M82 ;absolute extrusion mode
G21 ;metric values
G90 ;absolute positioning
M82 ;set extruder to absolute mode
M107 ;start with the fan off
G28 ;Home all axes (max endstops)
G1 Z15.0 F9000 ;move the platform down 15mm
G92 E0 ;zero the extruded length
G1 F200 E3 ;extrude 3mm of feed stock
G92 E0 ;zero the extruded length again
G1 F9000
;Put printing message on LCD screen
M117 Printing...
G92 E0
G92 E0
G1 F1500 E-6.5
;LAYER_COUNT:219
;LAYER:0
M107
G0 F3600 X-20 Y24.8 Z0.3
G0 X-24.454 Y23.403
;TYPE:SKIRT
G1 F1500 E0
G1 F1800 X-25.078 Y22.92 E0.03937
G1 X-25.651 Y22.377 E0.07875
G1 X-26.166 Y21.778 E0.11816
G1 X-26.617 Y21.13 E0.15755
G1 X-27.001 Y20.439 E0.19699
G1 X-27.313 Y19.714 E0.23637
G1 X-27.55 Y18.961 E0.27575
G1 X-27.709 Y18.187 E0.31517
G1 X-27.8 Y17.305 E0.35941
G1 X-27.8 Y-17 E2.07089
G1 X-27.76 Y-17.789 E2.11031
G1 X-27.641 Y-18.569 E2.14967
G1 X-27.443 Y-19.334 E2.1891
G1 X-27.169 Y-20.074 E2.22846
G1 X-26.821 Y-20.783 E2.26787
G1 X-26.403 Y-21.454 E2.30731
G1 X-25.92 Y-22.078 E2.34668
G1 X-25.377 Y-22.651 E2.38606
G1 X-24.778 Y-23.166 E2.42547
G1 X-24.13 Y-23.617 E2.46486
G1 X-23.439 Y-24.001 E2.5043
G1 X-22.714 Y-24.313 E2.54368
G1 X-21.961 Y-24.55 E2.58306
G1 X-21.187 Y-24.709 E2.62248
G1 X-20.305 Y-24.8 E2.66672
G1 X20 Y-24.8 E4.67754
G1 X20.789 Y-24.76 E4.71696
G1 X21.569 Y-24.641 E4.75632
G1 X22.334 Y-24.443 E4.79575
G1 X23.074 Y-24.169 E4.83511
G1 X23.783 Y-23.821 E4.87452
G1 X24.454 Y-23.403 E4.91396
G1 X25.078 Y-22.92 E4.95333
G1 X25.651 Y-22.377 E4.99271
G1 X26.166 Y-21.778 E5.03212
G1 X26.617 Y-21.13 E5.07151
G1 X27.001 Y-20.439 E5.11095
G1 X27.313 Y-19.714 E5.15033
G1 X27.55 Y-18.961 E5.18971
G1 X27.709 Y-18.187 E5.22913
G1 X27.8 Y-17.305 E5.27337
G1 X27.8 Y17 E6.98485
G1 X27.76 Y17.789 E7.02427
G1 X27.641 Y18.569 E7.06363
G1 X27.443 Y19.334 E7.10305
G1 X27.169 Y20.074 E7.14242
G1 X26.821 Y20.783 E7.18183
G1 X26.403 Y21.454 E7.22127
G1 X25.92 Y22.078 E7.26063
G1 X25.377 Y22.651 E7.30002
G1 X24.778 Y23.166 E7.33943
G1 X24.13 Y23.617 E7.37882
G1 X23.439 Y24.001 E7.41826
G1 X22.714 Y24.313 E7.45763
G1 X21.961 Y24.55 E7.49702
G1 X21.187 Y24.709 E7.53644
G1 X20.305 Y24.8 E7.58068
G1 X-20 Y24.8 E9.5915
G1 X-20.789 Y24.76 E9.63092
G1 X-21.569 Y24.641 E9.67028
G1 X-22.334 Y24.443 E9.7097
G1 X-23.074 Y24.169 E9.74907
G1 X-23.783 Y23.821 E9.78848
G1 X-24.454 Y23.403 E9.82792
G1 F1500 E3.32792
G0 F3600 X-25.883 Y18.957
G1 F1500 E9.82792
G1 F1800 X-26.067 Y18.277 E9.86306
G1 X-26.173 Y17.581 E9.89819
G1 X-26.2 Y17 E9.9272
G1 X-26.2 Y-17 E11.62347
G1 X-26.16 Y-17.703 E11.6586
G1 X-26.041 Y-18.397 E11.69373
G1 X-25.843 Y-19.072 E11.72882
G1 X-25.571 Y-19.721 E11.76393
G1 X-25.226 Y-20.335 E11.79907
G1 X-24.815 Y-20.906 E11.83417
G1 X-24.341 Y-21.427 E11.86931
G1 X-23.811 Y-21.891 E11.90445
G1 X-23.232 Y-22.291 E11.93956
G1 X-22.611 Y-22.623 E11.97469
G1 X-21.957 Y-22.883 E12.0098
G1 X-21.277 Y-23.067 E12.04495
G1 X-20.581 Y-23.173 E12.08007
G1 X-20 Y-23.2 E12.10909
G1 X20 Y-23.2 E14.1047
G1 X20.703 Y-23.16 E14.13983
G1 X21.397 Y-23.041 E14.17496
G1 X22.072 Y-22.843 E14.21005
G1 X22.721 Y-22.571 E14.24516
G1 X23.335 Y-22.226 E14.2803
G1 X23.906 Y-21.815 E14.3154
G1 X24.427 Y-21.341 E14.35054
G1 X24.891 Y-20.811 E14.38568
G1 X25.291 Y-20.232 E14.42079
G1 X25.623 Y-19.611 E14.45592
G1 X25.883 Y-18.957 E14.49103
G1 X26.067 Y-18.277 E14.52618
G1 X26.173 Y-17.581 E14.5613
G1 X26.2 Y-17 E14.59032
G1 X26.2 Y17 E16.28659
G1 X26.16 Y17.703 E16.32172
G1 X26.041 Y18.397 E16.35685
G1 X25.843 Y19.072 E16.39194
G1 X25.571 Y19.721 E16.42705
G1 X25.226 Y20.335 E16.46218
G1 X24.815 Y20.906 E16.49728
G1 X24.341 Y21.427 E16.53242
G1 X23.811 Y21.891 E16.56757
G1 X23.232 Y22.291 E16.60268
G1 X22.611 Y22.623 E16.63781
G1 X21.957 Y22.883 E16.67292
G1 X21.277 Y23.067 E16.70807
G1 X20.581 Y23.173 E16.74319
G1 X20 Y23.2 E16.77221
G1 X-20 Y23.2 E18.76782
G1 X-20.703 Y23.16 E18.80295
G1 X-21.397 Y23.041 E18.83807
G1 X-22.072 Y22.843 E18.87317
G1 X-22.721 Y22.571 E18.90828
G1 X-23.335 Y22.226 E18.94341
G1 X-23.906 Y21.815 E18.97851
G1 X-24.427 Y21.341 E19.01365
G1 X-24.891 Y20.811 E19.0488
G1 X-25.291 Y20.232 E19.08391
G1 X-25.623 Y19.611 E19.11904
G1 X-25.883 Y18.957 E19.15415
G0 F3600 X-25.8 Y17
G1 F1800 X-25.8 Y-17 E20.85042
G1 X-25.76 Y-17.68 E20.8844
G1 X-25.641 Y-18.35 E20.91835
G1 X-25.444 Y-19.002 E20.95233
G1 X-25.172 Y-19.626 E20.98629
G1 X-24.828 Y-20.214 E21.02028
G1 X-24.418 Y-20.758 E21.05426
G1 X-23.947 Y-21.249 E21.08821
G1 X-23.422 Y-21.683 E21.12219
G1 X-22.85 Y-22.052 E21.15615
G1 X-22.238 Y-22.351 E21.19013
G1 X-21.596 Y-22.576 E21.22407
G1 X-20.931 Y-22.725 E21.25807
G1 X-20 Y-22.8 E21.30467
G1 X20 Y-22.8 E23.30028
G1 X20.68 Y-22.76 E23.33426
G1 X21.35 Y-22.641 E23.36821
G1 X22.002 Y-22.444 E23.40219
G1 X22.626 Y-22.172 E23.43615
G1 X23.214 Y-21.828 E23.47014
G1 X23.758 Y-21.418 E23.50413
G1 X24.249 Y-20.947 E23.53807
G1 X24.683 Y-20.422 E23.57205
G1 X25.052 Y-19.85 E23.60601
G1 X25.351 Y-19.238 E23.64
G1 X25.576 Y-18.596 E23.67394
G1 X25.725 Y-17.931 E23.70794
G1 X25.8 Y-17 E23.75453
G1 X25.8 Y17 E25.4508
G1 X25.76 Y17.68 E25.48478
G1 X25.641 Y18.35 E25.51873
G1 X25.444 Y19.002 E25.55271
G1 X25.172 Y19.626 E25.58668
G1 X24.828 Y20.214 E25.62066
G1 X24.418 Y20.758 E25.65465
G1 X23.947 Y21.249 E25.68859
G1 X23.422 Y21.683 E25.72258
G1 X22.85 Y22.052 E25.75654
G1 X22.238 Y22.351 E25.79052
G1 X21.596 Y22.576 E25.82446
G1 X20.931 Y22.725 E25.85846
G1 X20 Y22.8 E25.90505
G1 X-20 Y22.8 E27.90066
G1 X-20.68 Y22.76 E27.93465
G1 X-21.35 Y22.641 E27.9686
G1 X-22.002 Y22.444 E28.00258
G1 X-22.626 Y22.172 E28.03654
G1 X-23.214 Y21.828 E28.07052
G1 X-23.758 Y21.418 E28.10451
G1 X-24.249 Y20.947 E28.13845
G1 X-24.683 Y20.422 E28.17244
G1 X-25.052 Y19.85 E28.2064
G1 X-25.351 Y19.238 E28.24038
G1 X-25.576 Y18.596 E28.27432
G1 X-25.725 Y17.931 E28.30832
G1 X-25.8 Y17 E28.35492
G0 F3600 X-25.4 Y17
G1 F1800 X-25.4 Y-17 E30.05118
G1 X-25.36 Y-17.656 E30.08397
G1 X-25.241 Y-18.302 E30.11674
G1 X-25.044 Y-18.929 E30.14953
G1 X-24.772 Y-19.527 E30.18231
G1 X-24.43 Y-20.088 E30.21509
G1 X-24.022 Y-20.603 E30.24787
G1 X-23.555 Y-21.065 E30.28064
G1 X-23.035 Y-21.466 E30.3134
G1 X-22.471 Y-21.802 E30.34615
G1 X-21.869 Y-22.066 E30.37895
G1 X-21.24 Y-22.256 E30.41173
G1 X-20.593 Y-22.367 E30.44448
G1 X-20 Y-22.4 E30.47411
G1 X20 Y-22.4 E32.46972
G1 X20.656 Y-22.36 E32.50251
G1 X21.302 Y-22.241 E32.53528
G1 X21.929 Y-22.044 E32.56807
G1 X22.527 Y-21.772 E32.60084
G1 X23.088 Y-21.43 E32.63362
G1 X23.603 Y-21.022 E32.6664
G1 X24.065 Y-20.555 E32.69918
G1 X24.466 Y-20.035 E32.73194
G1 X24.802 Y-19.471 E32.76469
G1 X25.066 Y-18.869 E32.79748
G1 X25.256 Y-18.24 E32.83027
G1 X25.367 Y-17.593 E32.86302
G1 X25.4 Y-17 E32.89265
G1 X25.4 Y17 E34.58891
G1 X25.36 Y17.656 E34.6217
G1 X25.241 Y18.302 E34.65447
G1 X25.044 Y18.929 E34.68726
G1 X24.772 Y19.527 E34.72004
G1 X24.43 Y20.088 E34.75282
G1 X24.022 Y20.603 E34.7856
G1 X23.555 Y21.065 E34.81837
G1 X23.035 Y21.466 E34.85113
G1 X22.471 Y21.802 E34.88388
G1 X21.869 Y22.066 E34.91668
G1 X21.24 Y22.256 E34.94946
G1 X20.593 Y22.367 E34.98221
G1 X20 Y22.4 E35.01184
G1 X-20 Y22.4 E37.00745
G1 X-20.656 Y22.36 E37.04024
G1 X-21.302 Y22.241 E37.07301
G1 X-21.929 Y22.044 E37.1058
G1 X-22.527 Y21.772 E37.13857
G1 X-23.088 Y21.43 E37.17135
G1 X-23.603 Y21.022 E37.20413
G1 X-24.065 Y20.555 E37.23691
G1 X-24.466 Y20.035 E37.26967
G1 X-24.802 Y19.471 E37.30242
G1 X-25.066 Y18.869 E37.33522
G1 X-25.256 Y18.24 E37.368
G1 X-25.367 Y17.593 E37.40075
G1 X-25.4 Y17 E37.43038
G0 F3600 X-25 Y17
G1 F1800 X-25 Y-17 E39.12665
G1 X-24.96 Y-17.631 E39.15819
G1 X-24.841 Y-18.252 E39.18973
G1 X-24.644 Y-18.852 E39.22124
G1 X-24.373 Y-19.424 E39.25282
G1 X-24.033 Y-19.956 E39.28432
G1 X-23.627 Y-20.441 E39.31587
G1 X-23.164 Y-20.871 E39.3474
G1 X-22.65 Y-21.24 E39.37897
G1 X-22.094 Y-21.54 E39.41048
G1 X-21.505 Y-21.768 E39.44199
G1 X-20.891 Y-21.92 E39.47355
G1 X-20 Y-22 E39.51818
G1 X20 Y-22 E41.51379
G1 X20.631 Y-21.96 E41.54534
G1 X21.252 Y-21.841 E41.57688
G1 X21.852 Y-21.644 E41.60839
G1 X22.424 Y-21.373 E41.63996
G1 X22.956 Y-21.033 E41.67146
G1 X23.441 Y-20.627 E41.70302
G1 X23.871 Y-20.164 E41.73454
G1 X24.24 Y-19.65 E41.76611
G1 X24.54 Y-19.094 E41.79763
G1 X24.768 Y-18.505 E41.82914
G1 X24.92 Y-17.891 E41.8607
G1 X25 Y-17 E41.90533
G1 X25 Y17 E43.6016
G1 X24.96 Y17.631 E43.63314
G1 X24.841 Y18.252 E43.66469
G1 X24.644 Y18.852 E43.69619
G1 X24.373 Y19.424 E43.72777
G1 X24.033 Y19.956 E43.75927
G1 X23.627 Y20.441 E43.79082
G1 X23.164 Y20.871 E43.82235
G1 X22.65 Y21.24 E43.85392
G1 X22.094 Y21.54 E43.88544
G1 X21.505 Y21.768 E43.91695
G1 X20.891 Y21.92 E43.9485
G1 X20 Y22 E43.99313
G1 X-20 Y22 E45.98874
G1 X-20.631 Y21.96 E46.02029
G1 X-21.252 Y21.841 E46.05183
G1 X-21.852 Y21.644 E46.08334
G1 X-22.424 Y21.373 E46.11492
G1 X-22.956 Y21.033 E46.14641
G1 X-23.441 Y20.627 E46.17797
G1 X-23.871 Y20.164 E46.2095
G1 X-24.24 Y19.65 E46.24106
G1 X-24.54 Y19.094 E46.27258
G1 X-24.768 Y18.505 E46.30409
G1 X-24.92 Y17.891 E46.33565
G1 X-25 Y17 E46.38028
G0 F3600 X-24.6 Y17
G1 F1800 X-24.6 Y-17 E48.07655
G1 X-24.56 Y-17.605 E48.1068
G1 X-24.441 Y-18.199 E48.13702
G1 X-24.245 Y-18.773 E48.16728
G1 X-23.974 Y-19.316 E48.19756
G1 X-23.635 Y-19.819 E48.22782
G1 X-23.233 Y-20.272 E48.25804
G1 X-22.775 Y-20.669 E48.28827
G1 X-22.268 Y-21.002 E48.31854
G1 X-21.722 Y-21.266 E48.34879
G1 X-21.146 Y-21.455 E48.37904
G1 X-20.55 Y-21.567 E48.40929
G1 X-20 Y-21.6 E48.43678
G1 X20 Y-21.6 E50.43239
G1 X20.605 Y-21.56 E50.46264
G1 X21.199 Y-21.441 E50.49286
G1 X21.773 Y-21.245 E50.52312
G1 X22.316 Y-20.974 E50.5534
G1 X22.819 Y-20.635 E50.58366
G1 X23.272 Y-20.233 E50.61388
G1 X23.669 Y-19.775 E50.64412
G1 X24.002 Y-19.268 E50.67438
G1 X24.266 Y-18.722 E50.70464
G1 X24.455 Y-18.146 E50.73488
G1 X24.567 Y-17.55 E50.76514
G1 X24.6 Y-17 E50.79263
G1 X24.6 Y17 E52.48889
G1 X24.56 Y17.605 E52.51914
G1 X24.441 Y18.199 E52.54937
G1 X24.245 Y18.773 E52.57963
G1 X23.974 Y19.316 E52.6099
G1 X23.635 Y19.819 E52.64016
G1 X23.233 Y20.272 E52.67038
G1 X22.775 Y20.669 E52.70062
G1 X22.268 Y21.002 E52.73088
G1 X21.722 Y21.266 E52.76114
G1 X21.146 Y21.455 E52.79138
G1 X20.55 Y21.567 E52.82164
G1 X20 Y21.6 E52.84913
G1 X-20 Y21.6 E54.84474
G1 X-20.605 Y21.56 E54.87499
G1 X-21.199 Y21.441 E54.90521
G1 X-21.773 Y21.245 E54.93547
G1 X-22.316 Y20.974 E54.96575
G1 X-22.819 Y20.635 E54.99601
G1 X-23.272 Y20.233 E55.02622
G1 X-23.669 Y19.775 E55.05646
G1 X-24.002 Y19.268 E55.08673
G1 X-24.266 Y18.722 E55.11698
G1 X-24.455 Y18.146 E55.14723
G1 X-24.567 Y17.55 E55.17748
G1 X-24.6 Y17 E55.20497
G0 F3600 X-24.2 Y17
G1 F1800 X-24.2 Y-17 E56.90124
G1 X-24.16 Y-17.578 E56.93014
G1 X-24.041 Y-18.145 E56.95905
G1 X-23.845 Y-18.69 E56.98794
G1 X-23.576 Y-19.203 E57.01684
G1 X-23.239 Y-19.674 E57.04574
G1 X-22.84 Y-20.094 E57.07464
G1 X-22.387 Y-20.456 E57.10357
G1 X-21.889 Y-20.751 E57.13244
G1 X-21.355 Y-20.976 E57.16135
G1 X-20.795 Y-21.124 E57.19025
G1 X-20 Y-21.2 E57.2301
G1 X20 Y-21.2 E59.2257
G1 X20.578 Y-21.16 E59.25461
G1 X21.145 Y-21.041 E59.28351
G1 X21.69 Y-20.845 E59.31241
G1 X22.203 Y-20.576 E59.34131
G1 X22.674 Y-20.239 E59.3702
G1 X23.094 Y-19.84 E59.3991
G1 X23.456 Y-19.387 E59.42803
G1 X23.751 Y-18.889 E59.45691
G1 X23.976 Y-18.355 E59.48582
G1 X24.124 Y-17.795 E59.51472
G1 X24.2 Y-17 E59.55456
G1 X24.2 Y17 E61.25083
G1 X24.16 Y17.578 E61.27973
G1 X24.041 Y18.145 E61.30864
G1 X23.845 Y18.69 E61.33753
G1 X23.576 Y19.203 E61.36643
G1 X23.239 Y19.674 E61.39532
G1 X22.84 Y20.094 E61.42423
G1 X22.387 Y20.456 E61.45316
G1 X21.889 Y20.751 E61.48203
G1 X21.355 Y20.976 E61.51094
G1 X20.795 Y21.124 E61.53984
G1 X20 Y21.2 E61.57969
G1 X-20 Y21.2 E63.57529
G1 X-20.578 Y21.16 E63.6042
G1 X-21.145 Y21.041 E63.6331
G1 X-21.69 Y20.845 E63.662
G1 X-22.203 Y20.576 E63.6909
G1 X-22.674 Y20.239 E63.71979
G1 X-23.094 Y19.84 E63.74869
G1 X-23.456 Y19.387 E63.77762
G1 X-23.751 Y18.889 E63.8065
G1 X-23.976 Y18.355 E63.83541
G1 X-24.124 Y17.795 E63.86431
G1 X-24.2 Y17 E63.90415
G0 F3600 X-23.8 Y17
G1 F1800 X-23.8 Y-17 E65.60042
G1 X-23.76 Y-17.55 E65.62793
G1 X-23.641 Y-18.088 E65.65542
G1 X-23.445 Y-18.603 E65.68291
G1 X-23.177 Y-19.084 E65.71038
G1 X-22.843 Y-19.522 E65.73786
G1 X-22.448 Y-19.906 E65.76535
G1 X-22.002 Y-20.23 E65.79285
G1 X-21.514 Y-20.485 E65.82032
G1 X-20.994 Y-20.668 E65.84782
G1 X-20.453 Y-20.773 E65.87532
G1 X-20 Y-20.8 E65.89796
G1 X20 Y-20.8 E67.89356
G1 X20.55 Y-20.76 E67.92108
G1 X21.088 Y-20.641 E67.94857
G1 X21.603 Y-20.445 E67.97606
G1 X22.084 Y-20.177 E68.00353
G1 X22.522 Y-19.843 E68.03101
G1 X22.906 Y-19.448 E68.05849
G1 X23.23 Y-19.002 E68.08599
G1 X23.485 Y-18.514 E68.11346
G1 X23.668 Y-17.994 E68.14097
G1 X23.773 Y-17.453 E68.16846
G1 X23.8 Y-17 E68.1911
G1 X23.8 Y17 E69.88737
G1 X23.76 Y17.55 E69.91488
G1 X23.641 Y18.088 E69.94237
G1 X23.445 Y18.603 E69.96986
G1 X23.177 Y19.084 E69.99733
G1 X22.843 Y19.522 E70.02481
G1 X22.448 Y19.906 E70.0523
G1 X22.002 Y20.23 E70.0798
G1 X21.514 Y20.485 E70.10727
G1 X20.994 Y20.668 E70.13477
G1 X20.453 Y20.773 E70.16227
G1 X20 Y20.8 E70.18491
G1 X-20 Y20.8 E72.18051
G1 X-20.55 Y20.76 E72.20803
G1 X-21.088 Y20.641 E72.23552
G1 X-21.603 Y20.445 E72.26301
G1 X-22.084 Y20.177 E72.29048
G1 X-22.522 Y19.843 E72.31796
G1 X-22.906 Y19.448 E72.34544
G1 X-23.23 Y19.002 E72.37295
G1 X-23.485 Y18.514 E72.40042
G1 X-23.668 Y17.994 E72.42792
G1 X-23.773 Y17.453 E72.45541
G1 X-23.8 Y17 E72.47805
G0 F3600 X-23.4 Y17
G1 F1800 X-23.4 Y-17 E74.17432
G1 X-23.36 Y-17.52 E74.20034
G1 X-23.241 Y-18.027 E74.22632
G1 X-23.046 Y-18.51 E74.25231
G1 X-22.78 Y-18.958 E74.2783
G1 X-22.448 Y-19.36 E74.30431
G1 X-22.058 Y-19.706 E74.33032
G1 X-21.62 Y-19.989 E74.35634
G1 X-21.145 Y-20.202 E74.38231
G1 X-20.642 Y-20.339 E74.40832
G1 X-20 Y-20.4 E74.44049
G1 X20 Y-20.4 E76.4361
G1 X20.52 Y-20.36 E76.46212
G1 X21.027 Y-20.241 E76.4881
G1 X21.51 Y-20.046 E76.51409
G1 X21.958 Y-19.78 E76.54008
G1 X22.36 Y-19.448 E76.56609
G1 X22.706 Y-19.058 E76.59211
G1 X22.989 Y-18.62 E76.61812
G1 X23.202 Y-18.145 E76.64409
G1 X23.339 Y-17.642 E76.6701
G1 X23.4 Y-17 E76.70228
G1 X23.4 Y17 E78.39854
G1 X23.36 Y17.52 E78.42456
G1 X23.241 Y18.027 E78.45054
G1 X23.046 Y18.51 E78.47653
G1 X22.78 Y18.958 E78.50252
G1 X22.448 Y19.36 E78.52854
G1 X22.058 Y19.706 E78.55455
G1 X21.62 Y19.989 E78.58056
G1 X21.145 Y20.202 E78.60653
G1 X20.642 Y20.339 E78.63254
G1 X20 Y20.4 E78.66472
G1 X-20 Y20.4 E80.66033
G1 X-20.52 Y20.36 E80.68634
G1 X-21.027 Y20.241 E80.71233
G1 X-21.51 Y20.046 E80.73831
G1 X-21.958 Y19.78 E80.76431
G1 X-22.36 Y19.448 E80.79032
G1 X-22.706 Y19.058 E80.81633
G1 X-22.989 Y18.62 E80.84235
G1 X-23.202 Y18.145 E80.86832
G1 X-23.339 Y17.642 E80.89433
G1 X-23.4 Y17 E80.9265
G0 F3600 X-23 Y17.221
G1 F1800 X-23 Y-17 E82.63379
G1 X-22.96 Y-17.488 E82.65822
G1 X-22.841 Y-17.963 E82.68265
G1 X-22.647 Y-18.412 E82.70705
G1 X-22.382 Y-18.824 E82.73149
G1 X-22.054 Y-19.187 E82.7559
G1 X-21.671 Y-19.492 E82.78033
G1 X-21.243 Y-19.73 E82.80476
G1 X-20.783 Y-19.896 E82.82916
G1 X-20.221 Y-20 E82.85767
G1 X20 Y-20 E84.86431
G1 X20.488 Y-19.96 E84.88873
G1 X20.963 Y-19.841 E84.91316
G1 X21.412 Y-19.647 E84.93757
G1 X21.824 Y-19.382 E84.96201
G1 X22.187 Y-19.054 E84.98641
G1 X22.492 Y-18.671 E85.01084
G1 X22.73 Y-18.243 E85.03527
G1 X22.896 Y-17.783 E85.05967
G1 X23 Y-17.221 E85.08818
G1 X23 Y17 E86.79548
G1 X22.96 Y17.488 E86.81991
G1 X22.841 Y17.963 E86.84434
G1 X22.647 Y18.412 E86.86874
G1 X22.382 Y18.824 E86.89318
G1 X22.054 Y19.187 E86.91759
G1 X21.671 Y19.492 E86.94201
G1 X21.243 Y19.73 E86.96644
G1 X20.783 Y19.896 E86.99084
G1 X20.221 Y20 E87.01936
G1 X-20 Y20 E89.02599
G1 X-20.488 Y19.96 E89.05042
G1 X-20.963 Y19.841 E89.07485
G1 X-21.412 Y19.647 E89.09925
G1 X-21.824 Y19.382 E89.12369
G1 X-22.187 Y19.054 E89.1481
G1 X-22.492 Y18.671 E89.17253
G1 X-22.73 Y18.243 E89.19696
G1 X-22.896 Y17.783 E89.22136
G1 X-23 Y17.221 E89.24987
G0 F3600 X-22.6 Y17
G1 F1800 X-22.6 Y-17 E90.94614
G1 X-22.56 Y-17.454 E90.96887
G1 X-22.442 Y-17.894 E90.9916
