;FLAVOR:Marlin
;TIME:4057
;Filament used: 3.45272m
;Layer height: 0.15
;MINX:-46.352
;MINY:-32.8
;MINZ:0.3
;MAXX:45.056
;MAXY:32.8
;MAXZ:6.45
;Generated with Cura_SteamEngine main
M140 S60
M105
M190 S60
M104 S200
M105
M109 S200
M82 ;absolute extrusion mode
G21 ;metric values
G90 ;absolute positioning
M82 ;set extruder to absolute mode
M107 ;start with the fan off
G28 ;Home all axes (max endstops)
G1 Z15.0 F9000 ;move the platform down 15mm
G92 E0 ;zero the extruded length
G1 F200 E3 ;extrude 3mm of feed stock
G92 E0 ;zero the extruded length again
G1 F9000
;Put printing message on LCD screen
M117 Printing...
G92 E0
G92 E0
G1 F1500 E-6.5
;LAYER_COUNT:42
;LAYER:0
M107
G0 F3600 X-.648 Y-27.399 Z0.3
G0 X-10.553 Y-32.8
;TYPE:SKIRT
G1 F1500 E0
G1 F1800 X-9.945 Y-32.776 E0.03036
G1 X-9.318 Y-32.727 E0.06173
G1 X-8.418 Y-32.611 E0.10701
G1 X-7.489 Y-32.387 E0.15468
G1 X-6.623 Y-32.131 E0.19974
G1 X-5.757 Y-31.773 E0.24649
G1 X-4.945 Y-31.388 E0.29132
G1 X-4.131 Y-30.89 E0.33893
G1 X-3.381 Y-30.377 E0.38426
G1 X-2.655 Y-29.756 E0.43192
G1 X-1.998 Y-29.133 E0.4771
G1 X-1.389 Y-28.422 E0.5238
G1 X-.907 Y-27.797 E0.56318
G1 X-.648 Y-27.399 E0.58687
G1 X-.12 Y-28.172 E0.63357
G1 X0.5 Y-28.897 E0.68116
G1 X1.123 Y-29.554 E0.72634
G1 X1.834 Y-30.163 E0.77304
G1 X2.549 Y-30.715 E0.81811
G1 X3.36 Y-31.212 E0.86556
G1 X4.154 Y-31.646 E0.91071
G1 X5.042 Y-32.013 E0.95864
G1 X5.887 Y-32.313 E1.00338
G1 X6.799 Y-32.533 E1.05018
G1 X7.694 Y-32.701 E1.09561
G1 X8.65 Y-32.776 E1.14346
G1 X9.257 Y-32.8 E1.17376
G1 X33.255 Y-32.8 E2.37103
G1 X33.862 Y-32.776 E2.40133
G1 X34.49 Y-32.727 E2.43276
G1 X35.391 Y-32.611 E2.47808
G1 X36.322 Y-32.386 E2.52587
G1 X37.187 Y-32.13 E2.57087
G1 X38.047 Y-31.775 E2.61729
G1 X38.87 Y-31.385 E2.66273
G1 X39.683 Y-30.887 E2.71029
G1 X40.432 Y-30.373 E2.75561
G1 X41.153 Y-29.756 E2.80296
G1 X41.81 Y-29.133 E2.84813
G1 X42.419 Y-28.422 E2.89483
G1 X42.976 Y-27.7 E2.94033
G1 X43.483 Y-26.869 E2.98889
G1 X43.91 Y-26.082 E3.03356
G1 X44.269 Y-25.214 E3.08043
G1 X44.571 Y-24.363 E3.12548
G1 X44.792 Y-23.443 E3.17268
G1 X44.958 Y-22.559 E3.21756
G1 X45.032 Y-21.619 E3.2646
G1 X45.056 Y-21.009 E3.29505
G1 X45.056 Y20.999 E5.39084
G1 X45.032 Y21.606 E5.42115
G1 X44.983 Y22.234 E5.45258
G1 X44.867 Y23.137 E5.498
G1 X44.645 Y24.058 E5.54526
G1 X44.389 Y24.923 E5.59027
G1 X44.03 Y25.793 E5.63722
G1 X43.641 Y26.615 E5.68259
G1 X43.143 Y27.427 E5.73011
G1 X42.629 Y28.176 E5.77543
G1 X42.012 Y28.897 E5.82278
G1 X41.388 Y29.556 E5.86806
G1 X40.678 Y30.163 E5.91466
G1 X39.968 Y30.711 E5.9594
G1 X39.155 Y31.21 E6.007
G1 X38.356 Y31.647 E6.05243
G1 X37.47 Y32.013 E6.10026
G1 X36.625 Y32.313 E6.14499
G1 X35.713 Y32.533 E6.1918
G1 X34.818 Y32.701 E6.23723
G1 X33.862 Y32.776 E6.28507
G1 X33.255 Y32.8 E6.31538
G1 X9.257 Y32.8 E7.51264
G1 X8.65 Y32.776 E7.54295
G1 X8.022 Y32.727 E7.57438
G1 X7.121 Y32.611 E7.6197
G1 X6.19 Y32.386 E7.66748
G1 X5.326 Y32.13 E7.71244
G1 X4.461 Y31.773 E7.75913
G1 X3.644 Y31.386 E7.80423
G1 X2.823 Y30.882 E7.85229
G1 X2.082 Y30.375 E7.89708
G1 X1.356 Y29.754 E7.94475
G1 X0.702 Y29.133 E7.98974
G1 X0.092 Y28.42 E8.03655
G1 X-.391 Y27.795 E8.07596
G1 X-.648 Y27.399 E8.09951
G1 X-1.178 Y28.174 E8.14636
G1 X-1.796 Y28.897 E8.19381
G1 X-2.42 Y29.556 E8.23909
G1 X-3.13 Y30.163 E8.28569
G1 X-3.848 Y30.717 E8.33093
G1 X-4.659 Y31.214 E8.37839
G1 X-5.448 Y31.644 E8.42322
G1 X-6.334 Y32.011 E8.47106
G1 X-7.182 Y32.313 E8.51597
G1 X-8.099 Y32.534 E8.56303
G1 X-8.988 Y32.701 E8.60816
G1 X-9.945 Y32.776 E8.65605
G1 X-10.553 Y32.8 E8.68641
G1 X-34.551 Y32.8 E9.88367
G1 X-35.158 Y32.776 E9.91398
G1 X-35.786 Y32.727 E9.94541
G1 X-36.688 Y32.611 E9.99078
G1 X-37.616 Y32.387 E10.03841
G1 X-38.478 Y32.132 E10.08325
G1 X-39.351 Y31.771 E10.13038
G1 X-40.169 Y31.384 E10.17553
G1 X-40.981 Y30.886 E10.22305
G1 X-41.735 Y30.368 E10.26869
G1 X-42.453 Y29.754 E10.31583
G1 X-43.107 Y29.133 E10.36082
G1 X-43.717 Y28.42 E10.40763
G1 X-44.27 Y27.705 E10.45273
G1 X-44.768 Y26.892 E10.50029
G1 X-45.201 Y26.099 E10.54537
G1 X-45.567 Y25.212 E10.59324
G1 X-45.871 Y24.354 E10.63866
G1 X-46.09 Y23.439 E10.6856
G1 X-46.254 Y22.555 E10.73045
G1 X-46.328 Y21.61 E10.77774
G1 X-46.352 Y21.001 E10.80815
G1 X-46.35 Y-21.025 E12.90483
G1 X-46.325 Y-21.645 E12.93579
G1 X-46.276 Y-22.26 E12.96657
G1 X-46.16 Y-23.15 E13.01135
G1 X-45.941 Y-24.06 E13.05804
G1 X-45.686 Y-24.925 E13.10304
G1 X-45.322 Y-25.804 E13.1505
G1 X-44.933 Y-26.622 E13.19569
G1 X-44.441 Y-27.425 E13.24267
G1 X-43.928 Y-28.174 E13.28797
G1 X-43.309 Y-28.897 E13.33545
G1 X-42.686 Y-29.554 E13.38062
G1 X-41.975 Y-30.163 E13.42733
G1 X-41.256 Y-30.718 E13.47264
G1 X-40.442 Y-31.216 E13.52025
G1 X-39.655 Y-31.645 E13.56497
G1 X-38.771 Y-32.011 E13.6127
G1 X-37.923 Y-32.313 E13.65761
G1 X-37.006 Y-32.534 E13.70467
G1 X-36.118 Y-32.701 E13.74975
G1 X-35.158 Y-32.776 E13.79779
G1 X-34.551 Y-32.8 E13.8281
G1 X-10.553 Y-32.8 E15.02536
G0 F3600 X-10.553 Y-32.4
G1 F1800 X-9.976 Y-32.378 E15.05417
G1 X-9.349 Y-32.329 E15.08555
G1 X-8.485 Y-32.216 E15.12902
G1 X-7.582 Y-31.998 E15.17536
G1 X-6.488 Y-31.642 E15.23276
G1 X-5.91 Y-31.403 E15.26397
G1 X-5.123 Y-31.029 E15.30744
G1 X-4.339 Y-30.549 E15.3533
G1 X-3.624 Y-30.058 E15.39657
G1 X-2.915 Y-29.452 E15.4431
G1 X-2.103 Y-28.641 E15.50036
G1 X-1.693 Y-28.162 E15.53182
G1 X-1.15 Y-27.455 E15.57629
G1 X-.649 Y-26.629 E15.62449
G1 X-.291 Y-27.216 E15.65879
G1 X0.203 Y-27.934 E15.70227
G1 X0.804 Y-28.637 E15.74841
G1 X1.615 Y-29.449 E15.80567
G1 X2.094 Y-29.859 E15.83713
G1 X2.79 Y-30.394 E15.88092
G1 X3.569 Y-30.872 E15.92652
G1 X4.334 Y-31.287 E15.96994
G1 X5.195 Y-31.643 E16.01642
G1 X6.284 Y-31.997 E16.07355
G1 X6.893 Y-32.144 E16.10481
G1 X7.754 Y-32.306 E16.14852
G1 X8.681 Y-32.378 E16.1949
G1 X9.257 Y-32.4 E16.22366
G1 X33.255 Y-32.4 E17.42093
G1 X33.831 Y-32.378 E17.44969
G1 X34.459 Y-32.329 E17.48111
G1 X35.321 Y-32.216 E17.52448
G1 X36.228 Y-31.997 E17.57104
G1 X37.315 Y-31.644 E17.62805
G1 X37.894 Y-31.405 E17.6593
G1 X38.687 Y-31.028 E17.70311
G1 X39.474 Y-30.546 E17.74915
G1 X40.188 Y-30.055 E17.79238
G1 X40.893 Y-29.452 E17.83867
G1 X41.705 Y-28.641 E17.89592
G1 X42.115 Y-28.162 E17.92738
G1 X42.653 Y-27.462 E17.97143
G1 X43.142 Y-26.661 E18.01825
G1 X43.555 Y-25.896 E18.06162
G1 X43.9 Y-25.062 E18.10665
G1 X44.255 Y-23.966 E18.16412
G1 X44.403 Y-23.35 E18.19573
G1 X44.561 Y-22.501 E18.23881
G1 X44.633 Y-21.588 E18.28451
G1 X44.656 Y-21.009 E18.31341
G1 X44.656 Y20.999 E20.4092
G1 X44.634 Y21.575 E20.43796
G1 X44.585 Y22.203 E20.46939
G1 X44.471 Y23.07 E20.51301
G1 X44.256 Y23.965 E20.55894
G1 X43.9 Y25.059 E20.61633
G1 X43.66 Y25.64 E20.64769
G1 X43.284 Y26.432 E20.69143
G1 X42.802 Y27.218 E20.73743
G1 X42.311 Y27.932 E20.78067
G1 X41.708 Y28.637 E20.82695
G1 X40.896 Y29.45 E20.88428
G1 X40.418 Y29.859 E20.91566
G1 X39.727 Y30.39 E20.95914
G1 X38.946 Y30.87 E21.00487
G1 X38.18 Y31.287 E21.04838
G1 X37.317 Y31.643 E21.09496
G1 X36.228 Y31.997 E21.15209
G1 X35.619 Y32.144 E21.18334
G1 X34.758 Y32.306 E21.22705
G1 X33.831 Y32.378 E21.27344
G1 X33.255 Y32.4 E21.3022
G1 X9.257 Y32.4 E22.49946
G1 X8.681 Y32.378 E22.52822
G1 X8.053 Y32.329 E22.55965
G1 X7.191 Y32.216 E22.60302
G1 X6.284 Y31.997 E22.64957
G1 X5.195 Y31.643 E22.7067
G1 X4.614 Y31.403 E22.73806
G1 X3.82 Y31.026 E22.78191
G1 X3.032 Y30.542 E22.82805
G1 X2.313 Y30.047 E22.8716
G1 X1.616 Y29.45 E22.91739
G1 X0.804 Y28.637 E22.97471
G1 X0.396 Y28.16 E23.00603
G1 X-.148 Y27.453 E23.05053
G1 X-.647 Y26.629 E23.09859
G1 X-1.006 Y27.218 E23.13301
G1 X-1.497 Y27.932 E23.17624
G1 X-2.1 Y28.637 E23.22252
G1 X-2.912 Y29.45 E23.27985
G1 X-3.39 Y29.859 E23.31123
G1 X-4.082 Y30.391 E23.35478
G1 X-4.868 Y30.873 E23.40078
G1 X-5.635 Y31.29 E23.44434
G1 X-6.487 Y31.642 E23.49033
G1 X-7.582 Y31.998 E23.54777
G1 X-8.192 Y32.145 E23.57908
G1 X-9.056 Y32.306 E23.62292
G1 X-9.976 Y32.378 E23.66896
G1 X-10.553 Y32.4 E23.69777
G1 X-34.551 Y32.4 E24.89504
G1 X-35.127 Y32.378 E24.92379
G1 X-35.755 Y32.329 E24.95522
G1 X-36.621 Y32.215 E24.9988
G1 X-37.523 Y31.998 E25.04508
G1 X-38.618 Y31.642 E25.10253
G1 X-39.198 Y31.402 E25.13384
G1 X-39.987 Y31.026 E25.17745
G1 X-40.772 Y30.545 E25.22338
G1 X-41.492 Y30.05 E25.26697
G1 X-42.193 Y29.45 E25.313
G1 X-43.005 Y28.637 E25.37033
G1 X-43.413 Y28.16 E25.40165
G1 X-43.948 Y27.464 E25.44544
G1 X-44.427 Y26.683 E25.49115
G1 X-44.842 Y25.919 E25.53453
G1 X-45.197 Y25.059 E25.58094
G1 X-45.485 Y24.248 E25.62388
G1 X-45.7 Y23.346 E25.67014
G1 X-45.857 Y22.498 E25.71317
G1 X-45.929 Y21.578 E25.75921
G1 X-45.952 Y21.001 E25.78802
G1 X-45.95 Y-21.025 E27.8847
G1 X-45.927 Y-21.613 E27.91406
G1 X-45.878 Y-22.228 E27.94484
G1 X-45.765 Y-23.082 E27.98782
G1 X-45.552 Y-23.966 E28.03318
G1 X-45.307 Y-24.794 E28.07626
G1 X-44.952 Y-25.651 E28.12254
G1 X-44.576 Y-26.439 E28.1661
G1 X-44.1 Y-27.216 E28.21156
G1 X-43.606 Y-27.934 E28.25504
G1 X-43.005 Y-28.637 E28.30119
G1 X-42.194 Y-29.449 E28.35844
G1 X-41.715 Y-29.859 E28.3899
G1 X-41.022 Y-30.392 E28.43351
G1 X-40.233 Y-30.875 E28.47967
G1 X-39.473 Y-31.288 E28.52282
G1 X-38.618 Y-31.642 E28.56899
G1 X-37.523 Y-31.998 E28.62643
G1 X-36.913 Y-32.145 E28.65774
G1 X-36.05 Y-32.306 E28.70154
G1 X-35.127 Y-32.378 E28.74772
G1 X-34.551 Y-32.4 E28.77648
G1 X-10.553 Y-32.4 E29.97375
G0 F3600 X-10.553 Y-32
G1 F1800 X-10.008 Y-31.979 E30.00096
G1 X-9.381 Y-31.93 E30.03233
G1 X-8.286 Y-31.756 E30.08765
G1 X-7.676 Y-31.609 E30.11895
G1 X-6.641 Y-31.273 E30.17324
G1 X-6.063 Y-31.034 E30.20445
G1 X-5.084 Y-30.536 E30.25925
G1 X-4.548 Y-30.208 E30.2906
G1 X-3.652 Y-29.557 E30.34585
G1 X-3.175 Y-29.149 E30.37717
G1 X-2.407 Y-28.381 E30.43135
G1 X-1.997 Y-27.902 E30.46281
G1 X-1.34 Y-26.997 E30.5186
G1 X-1.008 Y-26.453 E30.5504
G1 X-.648 Y-25.745 E30.59003
G1 X-.276 Y-26.475 E30.6309
G1 X0.05 Y-27.007 E30.66203
G1 X0.699 Y-27.9 E30.7171
G1 X1.107 Y-28.377 E30.74842
G1 X1.875 Y-29.145 E30.80261
G1 X2.354 Y-29.555 E30.83406
G1 X3.245 Y-30.204 E30.88906
G1 X3.778 Y-30.531 E30.92025
G1 X4.766 Y-31.034 E30.97557
G1 X5.347 Y-31.274 E31.00693
G1 X6.378 Y-31.609 E31.06101
G1 X6.987 Y-31.756 E31.09227
G1 X8.084 Y-31.93 E31.14768
G1 X8.712 Y-31.979 E31.17911
G1 X9.257 Y-32 E31.20632
G1 X33.255 Y-32 E32.40358
G1 X33.8 Y-31.979 E32.43079
G1 X34.428 Y-31.93 E32.46222
G1 X35.525 Y-31.756 E32.51763
G1 X36.134 Y-31.609 E32.54889
G1 X37.163 Y-31.274 E32.60288
G1 X37.742 Y-31.035 E32.63413
G1 X38.73 Y-30.533 E32.68942
G1 X39.265 Y-30.205 E32.72073
G1 X40.156 Y-29.557 E32.77569
G1 X40.633 Y-29.149 E32.80701
G1 X41.401 Y-28.381 E32.86119
G1 X41.811 Y-27.902 E32.89265
G1 X42.468 Y-26.997 E32.94844
G1 X42.8 Y-26.453 E32.98024
G1 X43.295 Y-25.478 E33.03479
G1 X43.53 Y-24.909 E33.06551
G1 X43.866 Y-23.872 E33.11989
G1 X44.014 Y-23.256 E33.1515
G1 X44.187 Y-22.168 E33.20646
G1 X44.235 Y-21.556 E33.23709
G1 X44.256 Y-21.009 E33.2644
G1 X44.256 Y20.999 E35.36018
G1 X44.235 Y21.544 E35.38739
G1 X44.186 Y22.172 E35.41882
G1 X44.013 Y23.264 E35.47398
G1 X43.867 Y23.871 E35.50513
G1 X43.531 Y24.907 E35.55946
G1 X43.291 Y25.488 E35.59082
G1 X42.789 Y26.474 E35.64602
G1 X42.461 Y27.009 E35.67733
G1 X41.813 Y27.9 E35.7323
G1 X41.405 Y28.377 E35.76361
G1 X40.636 Y29.146 E35.81787
G1 X40.158 Y29.555 E35.84926
G1 X39.271 Y30.201 E35.904
G1 X38.737 Y30.529 E35.93527
G1 X37.746 Y31.034 E35.99076
G1 X37.165 Y31.274 E36.02212
G1 X36.134 Y31.609 E36.0762
G1 X35.525 Y31.756 E36.10746
G1 X34.428 Y31.93 E36.16287
G1 X33.8 Y31.979 E36.1943
G1 X33.255 Y32 E36.22151
G1 X9.257 Y32 E37.41877
G1 X8.712 Y31.979 E37.44599
G1 X8.084 Y31.93 E37.47741
G1 X6.987 Y31.756 E37.53283
G1 X6.378 Y31.609 E37.56408
G1 X5.347 Y31.274 E37.61816
G1 X4.766 Y31.034 E37.64953
G1 X3.775 Y30.529 E37.70502
G1 X3.241 Y30.201 E37.73628
G1 X2.354 Y29.555 E37.79103
G1 X1.876 Y29.146 E37.82241
G1 X1.107 Y28.377 E37.87667
G1 X0.699 Y27.9 E37.90799
G1 X0.051 Y27.009 E37.96295
G1 X-.277 Y26.474 E37.99426
G1 X-.648 Y25.745 E38.03507
G1 X-1.019 Y26.474 E38.07588
G1 X-1.347 Y27.009 E38.10719
G1 X-1.995 Y27.9 E38.16215
G1 X-2.403 Y28.377 E38.19347
G1 X-3.172 Y29.146 E38.24772
G1 X-3.65 Y29.555 E38.27911
G1 X-4.542 Y30.204 E38.33414
G1 X-5.077 Y30.532 E38.36545
G1 X-6.06 Y31.032 E38.42047
G1 X-6.64 Y31.272 E38.45179
G1 X-7.676 Y31.609 E38.50614
G1 X-8.286 Y31.756 E38.53745
G1 X-9.381 Y31.93 E38.59276
G1 X-10.008 Y31.979 E38.62414
G1 X-10.553 Y32 E38.65135
G1 X-34.551 Y32 E39.84861
G1 X-35.096 Y31.979 E39.87582
G1 X-35.724 Y31.93 E39.90725
G1 X-36.819 Y31.756 E39.96256
G1 X-37.429 Y31.609 E39.99387
G1 X-38.465 Y31.272 E40.04822
G1 X-39.045 Y31.032 E40.07954
G1 X-40.028 Y30.532 E40.13456
G1 X-40.563 Y30.204 E40.16587
G1 X-41.455 Y29.555 E40.2209
G1 X-41.933 Y29.146 E40.25229
G1 X-42.702 Y28.377 E40.30654
G1 X-43.11 Y27.9 E40.33786
G1 X-43.758 Y27.009 E40.39282
G1 X-44.086 Y26.474 E40.42413
G1 X-44.588 Y25.488 E40.47933
G1 X-44.828 Y24.907 E40.51069
G1 X-45.166 Y23.86 E40.56558
G1 X-45.311 Y23.253 E40.59672
G1 X-45.482 Y22.173 E40.65127
G1 X-45.531 Y21.547 E40.6826
G1 X-45.552 Y21.001 E40.70986
G1 X-45.55 Y-21.025 E42.80655
G1 X-45.528 Y-21.581 E42.83431
G1 X-45.479 Y-22.196 E42.86509
G1 X-45.307 Y-23.278 E42.91974
G1 X-45.164 Y-23.872 E42.95023
G1 X-44.825 Y-24.914 E43.00489
G1 X-44.583 Y-25.498 E43.03643
G1 X-44.085 Y-26.475 E43.09114
G1 X-43.759 Y-27.007 E43.12227
G1 X-43.11 Y-27.9 E43.17734
G1 X-42.702 Y-28.377 E43.20866
G1 X-41.934 Y-29.145 E43.26285
G1 X-41.455 Y-29.555 E43.2943
G1 X-40.559 Y-30.207 E43.34959
G1 X-40.025 Y-30.534 E43.38083
G1 X-39.045 Y-31.032 E43.43567
G1 X-38.465 Y-31.272 E43.46699
G1 X-37.429 Y-31.609 E43.52134
G1 X-36.819 Y-31.756 E43.55264
G1 X-35.724 Y-31.93 E43.60796
G1 X-35.096 Y-31.979 E43.63938
G1 X-34.551 Y-32 E43.66659
G1 X-10.553 Y-32 E44.86386
G0 F3600 X-10.553 Y-31.6
G1 F1800 X-10.039 Y-31.58 E44.88952
G1 X-9.412 Y-31.531 E44.9209
G1 X-8.38 Y-31.367 E44.97303
G1 X-7.77 Y-31.22 E45.00434
G1 X-6.794 Y-30.903 E45.05553
G1 X-6.216 Y-30.664 E45.08674
G1 X-5.293 Y-30.195 E45.13839
G1 X-4.757 Y-29.867 E45.16974
G1 X-3.912 Y-29.253 E45.22185
G1 X-3.435 Y-28.845 E45.25317
G1 X-2.711 Y-28.121 E45.30425
G1 X-2.301 Y-27.642 E45.3357
G1 X-1.681 Y-26.788 E45.38836
G1 X-1.349 Y-26.244 E45.42015
G1 X-.883 Y-25.325 E45.47156
G1 X-.648 Y-24.756 E45.50227
G1 X-.404 Y-25.345 E45.53408
G1 X0.066 Y-26.266 E45.58566
G1 X0.392 Y-26.798 E45.61679
G1 X1.003 Y-27.64 E45.66869
G1 X1.411 Y-28.117 E45.70001
G1 X2.135 Y-28.841 E45.75109
G1 X2.614 Y-29.251 E45.78255
G1 X3.455 Y-29.863 E45.83444
G1 X3.988 Y-30.19 E45.86564
G1 X4.919 Y-30.664 E45.91776
G1 X5.5 Y-30.904 E45.94912
G1 X6.471 Y-31.22 E46.00006
G1 X7.08 Y-31.367 E46.03132
G1 X8.116 Y-31.531 E46.08365
G1 X8.744 Y-31.58 E46.11508
G1 X9.257 Y-31.6 E46.14069
G1 X33.255 Y-31.6 E47.33795
G1 X33.768 Y-31.58 E47.36357
G1 X34.396 Y-31.531 E47.39499
G1 X35.432 Y-31.367 E47.44732
G1 X36.041 Y-31.22 E47.47858
G1 X37.01 Y-30.905 E47.52941
G1 X37.589 Y-30.666 E47.56066
G1 X38.521 Y-30.192 E47.61283
G1 X39.056 Y-29.864 E47.64414
G1 X39.896 Y-29.253 E47.69596
G1 X40.373 Y-28.845 E47.72727
G1 X41.097 Y-28.121 E47.77836
G1 X41.507 Y-27.642 E47.80981
G1 X42.127 Y-26.788 E47.86246
G1 X42.459 Y-26.244 E47.89426
G1 X42.925 Y-25.325 E47.94567
G1 X43.16 Y-24.756 E47.97638
G1 X43.477 Y-23.779 E48.02762
G1 X43.625 Y-23.163 E48.05923
G1 X43.788 Y-22.137 E48.11106
G1 X43.836 Y-21.525 E48.14169
G1 X43.856 Y-21.009 E48.16745
G1 X43.856 Y20.999 E50.26324
G1 X43.836 Y21.512 E50.28885
G1 X43.787 Y22.14 E50.32028
G1 X43.624 Y23.17 E50.3723
G1 X43.478 Y23.777 E50.40345
G1 X43.161 Y24.754 E50.45469
G1 X42.921 Y25.335 E50.48605
G1 X42.448 Y26.265 E50.53811
G1 X42.12 Y26.8 E50.56942
G1 X41.509 Y27.64 E50.62124
G1 X41.101 Y28.117 E50.65255
G1 X40.376 Y28.842 E50.70371
G1 X39.898 Y29.251 E50.73509
G1 X39.061 Y29.86 E50.78673
G1 X38.527 Y30.188 E50.818
G1 X37.593 Y30.664 E50.8703
G1 X37.012 Y30.904 E50.90166
G1 X36.041 Y31.22 E50.95261
G1 X35.432 Y31.367 E50.98386
G1 X34.396 Y31.531 E51.03619
G1 X33.768 Y31.58 E51.06762
G1 X33.255 Y31.6 E51.09323
G1 X9.257 Y31.6 E52.2905
G1 X8.744 Y31.58 E52.31611
G1 X8.116 Y31.531 E52.34754
G1 X7.08 Y31.367 E52.39987
G1 X6.471 Y31.22 E52.43112
G1 X5.5 Y30.904 E52.48207
G1 X4.919 Y30.664 E52.51343
G1 X3.985 Y30.188 E52.56573
