;FLAVOR:Marlin
;TIME:3212
;Filament used: 1.72047m
;Layer height: 0.15
;MINX:-13.8
;MINY:-40.8
;MINZ:0.3
;MAXX:27.5
;MAXY:30.8
;MAXZ:12.45
;Generated with Cura_SteamEngine main
M140 S60
M105
M190 S60
M104 S200
M105
M109 S200
M82 ;absolute extrusion mode
G21 ;metric values
G90 ;absolute positioning
M82 ;set extruder to absolute mode
M107 ;start with the fan off
G28 ;Home all axes (max endstops)
G1 Z15.0 F9000 ;move the platform down 15mm
G92 E0 ;zero the extruded length
G1 F200 E3 ;extrude 3mm of feed stock
G92 E0 ;zero the extruded length again
G1 F9000
;Put printing message on LCD screen
M117 Printing...
G92 E0
G92 E0
G1 F1500 E-6.5
;LAYER_COUNT:82
;LAYER:0
M107
G0 F3600 X-13.8 Y-4 Z0.3
G0 X-13.8 Y-5.195
;TYPE:SKIRT
G1 F1500 E0
G1 F1800 X-13.8 Y-13.5 E0.41434
G1 X-13.76 Y-14.289 E0.45375
G1 X-13.734 Y-14.458 E0.46228
G1 X-13.8 Y-15.094 E0.49418
G1 X-13.8 Y-23.4 E0.90857
G1 X-13.753 Y-24.237 E0.9504
G1 X-13.8 Y-24.696 E0.97341
G1 X-13.8 Y-33 E1.3877
G1 X-13.76 Y-33.789 E1.42712
G1 X-13.641 Y-34.569 E1.46648
G1 X-13.443 Y-35.334 E1.5059
G1 X-13.169 Y-36.074 E1.54527
G1 X-12.821 Y-36.783 E1.58468
G1 X-12.403 Y-37.454 E1.62412
G1 X-11.92 Y-38.078 E1.66349
G1 X-11.377 Y-38.651 E1.70287
G1 X-10.778 Y-39.166 E1.74228
G1 X-10.13 Y-39.617 E1.78167
G1 X-9.439 Y-40.001 E1.82111
G1 X-8.714 Y-40.313 E1.86049
G1 X-7.961 Y-40.55 E1.89987
G1 X-7.187 Y-40.709 E1.93929
G1 X-6.305 Y-40.8 E1.98353
G1 X4.21 Y-40.8 E2.50812
G1 X4.999 Y-40.76 E2.54754
G1 X6.023 Y-40.586 E2.59936
G1 X6.862 Y-40.362 E2.64268
G1 X7.442 Y-40.542 E2.67298
G1 X8.454 Y-40.731 E2.72434
G1 X9.49 Y-40.8 E2.77614
G1 X19.7 Y-40.8 E3.28552
G1 X20.489 Y-40.76 E3.32493
G1 X21.269 Y-40.641 E3.3643
G1 X22.034 Y-40.443 E3.40372
G1 X22.774 Y-40.169 E3.44309
G1 X23.483 Y-39.821 E3.48249
G1 X24.154 Y-39.403 E3.52193
G1 X24.778 Y-38.92 E3.5613
G1 X25.351 Y-38.377 E3.60069
G1 X25.866 Y-37.778 E3.6401
G1 X26.317 Y-37.13 E3.67949
G1 X26.701 Y-36.439 E3.71893
G1 X27.013 Y-35.714 E3.7583
G1 X27.25 Y-34.961 E3.79769
G1 X27.409 Y-34.187 E3.83711
G1 X27.5 Y-33.305 E3.88135
G1 X27.5 Y-25 E4.29568
G1 X27.458 Y-24.195 E4.3359
G1 X27.5 Y-23.783 E4.35656
G1 X27.5 Y-15.479 E4.77085
G1 X27.46 Y-14.69 E4.81026
G1 X27.429 Y-14.489 E4.82041
G1 X27.5 Y-13.806 E4.85467
G1 X27.5 Y-5.5 E5.26906
G1 X27.459 Y-4.704 E5.30882
G1 X27.5 Y-4.305 E5.32883
G1 X27.5 Y4 E5.74317
G1 X27.459 Y4.796 E5.78294
G1 X27.5 Y5.195 E5.80295
G1 X27.5 Y13.5 E6.21729
G1 X27.459 Y14.296 E6.25705
G1 X27.5 Y14.695 E6.27706
G1 X27.5 Y23 E6.6914
G1 X27.46 Y23.789 E6.73081
G1 X27.341 Y24.569 E6.77018
G1 X27.143 Y25.334 E6.8096
G1 X26.869 Y26.074 E6.84897
G1 X26.521 Y26.783 E6.88837
G1 X26.103 Y27.454 E6.92781
G1 X25.62 Y28.078 E6.96718
G1 X25.077 Y28.651 E7.00657
G1 X24.478 Y29.166 E7.04598
G1 X23.83 Y29.617 E7.08536
G1 X23.139 Y30.001 E7.1248
G1 X22.414 Y30.313 E7.16418
G1 X21.661 Y30.55 E7.20357
G1 X20.887 Y30.709 E7.24299
G1 X20.005 Y30.8 E7.28722
G1 X9.49 Y30.8 E7.81182
G1 X8.701 Y30.76 E7.85123
G1 X7.677 Y30.586 E7.90305
G1 X6.838 Y30.362 E7.94638
G1 X6.258 Y30.542 E7.97668
G1 X5.246 Y30.731 E8.02804
G1 X4.21 Y30.8 E8.07984
G1 X-6 Y30.8 E8.58922
G1 X-6.789 Y30.76 E8.62863
G1 X-7.569 Y30.641 E8.668
G1 X-8.334 Y30.443 E8.70742
G1 X-9.074 Y30.169 E8.74679
G1 X-9.783 Y29.821 E8.78619
G1 X-10.454 Y29.403 E8.82563
G1 X-11.078 Y28.92 E8.865
G1 X-11.651 Y28.377 E8.90438
G1 X-12.166 Y27.778 E8.94379
G1 X-12.617 Y27.13 E8.98318
G1 X-13.001 Y26.439 E9.02262
G1 X-13.313 Y25.714 E9.062
G1 X-13.55 Y24.961 E9.10138
G1 X-13.709 Y24.187 E9.14081
G1 X-13.8 Y23.305 E9.18504
G1 X-13.8 Y15 E9.59938
G1 X-13.759 Y14.204 E9.63915
G1 X-13.8 Y13.805 E9.65916
G1 X-13.8 Y5.5 E10.07349
G1 X-13.759 Y4.704 E10.11326
G1 X-13.8 Y4.305 E10.13327
G1 X-13.8 Y-4 E10.54761
G1 X-13.759 Y-4.796 E10.58737
G1 X-13.8 Y-5.195 E10.60739
G0 F3600 X-13.4 Y-5.5
G1 F1800 X-13.4 Y-13.5 E11.00651
G1 X-13.36 Y-14.268 E11.04487
G1 X-13.351 Y-14.551 E11.059
G1 X-13.4 Y-15.4 E11.10143
G1 X-13.4 Y-23.4 E11.50055
G1 X-13.354 Y-24.205 E11.54078
G1 X-13.4 Y-25 E11.58051
G1 X-13.4 Y-33 E11.97963
G1 X-13.36 Y-33.768 E12.01799
G1 X-13.241 Y-34.528 E12.05637
G1 X-13.043 Y-35.271 E12.09474
G1 X-12.769 Y-35.99 E12.13312
G1 X-12.422 Y-36.676 E12.17148
G1 X-12.006 Y-37.323 E12.20985
G1 X-11.525 Y-37.923 E12.24822
G1 X-10.984 Y-38.47 E12.2866
G1 X-10.389 Y-38.958 E12.32499
G1 X-9.747 Y-39.381 E12.36335
G1 X-9.064 Y-39.736 E12.40175
G1 X-8.349 Y-40.017 E12.44008
G1 X-7.607 Y-40.223 E12.4785
G1 X-6.849 Y-40.351 E12.51685
G1 X-6 Y-40.4 E12.55928
G1 X4.21 Y-40.4 E13.06866
G1 X4.978 Y-40.36 E13.10702
G1 X6.112 Y-40.166 E13.16442
G1 X6.863 Y-39.945 E13.20348
G1 X7.54 Y-40.154 E13.23883
G1 X8.527 Y-40.337 E13.28891
G1 X9.49 Y-40.4 E13.33705
G1 X19.7 Y-40.4 E13.84643
G1 X20.468 Y-40.36 E13.8848
G1 X21.228 Y-40.241 E13.92318
G1 X21.971 Y-40.043 E13.96154
G1 X22.69 Y-39.769 E13.99993
G1 X23.376 Y-39.422 E14.03828
G1 X24.023 Y-39.006 E14.07666
G1 X24.623 Y-38.525 E14.11502
G1 X25.17 Y-37.984 E14.15341
G1 X25.658 Y-37.389 E14.1918
G1 X26.081 Y-36.747 E14.23016
G1 X26.436 Y-36.064 E14.26856
G1 X26.717 Y-35.349 E14.30689
G1 X26.923 Y-34.607 E14.3453
G1 X27.051 Y-33.849 E14.38366
G1 X27.1 Y-33 E14.42608
G1 X27.1 Y-25 E14.82521
G1 X27.057 Y-24.216 E14.86438
G1 X27.1 Y-23.479 E14.90121
G1 X27.1 Y-15.479 E15.30033
G1 X27.06 Y-14.711 E15.3387
G1 X27.026 Y-14.496 E15.34956
G1 X27.051 Y-14.349 E15.357
G1 X27.1 Y-13.5 E15.39943
G1 X27.1 Y-5.5 E15.79855
G1 X27.058 Y-4.722 E15.83742
G1 X27.1 Y-4 E15.8735
G1 X27.1 Y4 E16.27262
G1 X27.058 Y4.778 E16.31149
G1 X27.1 Y5.5 E16.34757
G1 X27.1 Y13.5 E16.7467
G1 X27.058 Y14.278 E16.78557
G1 X27.1 Y15 E16.82165
G1 X27.1 Y23 E17.22077
G1 X27.06 Y23.768 E17.25914
G1 X26.941 Y24.528 E17.29752
G1 X26.743 Y25.271 E17.33588
G1 X26.469 Y25.99 E17.37427
G1 X26.122 Y26.676 E17.41262
G1 X25.706 Y27.323 E17.45099
G1 X25.225 Y27.923 E17.48936
G1 X24.684 Y28.47 E17.52774
G1 X24.089 Y28.958 E17.56613
G1 X23.447 Y29.381 E17.60449
G1 X22.764 Y29.736 E17.64289
G1 X22.049 Y30.017 E17.68122
G1 X21.307 Y30.223 E17.71964
G1 X20.549 Y30.351 E17.75799
G1 X19.7 Y30.4 E17.80042
G1 X9.49 Y30.4 E18.3098
G1 X8.722 Y30.36 E18.34817
G1 X7.588 Y30.166 E18.40556
G1 X6.837 Y29.945 E18.44462
G1 X6.16 Y30.154 E18.47997
G1 X5.173 Y30.337 E18.53005
G1 X4.21 Y30.4 E18.5782
G1 X-6 Y30.4 E19.08758
G1 X-6.768 Y30.36 E19.12594
G1 X-7.528 Y30.241 E19.16432
G1 X-8.271 Y30.043 E19.20268
G1 X-8.99 Y29.769 E19.24107
G1 X-9.676 Y29.422 E19.27943
G1 X-10.323 Y29.006 E19.3178
G1 X-10.923 Y28.525 E19.35617
G1 X-11.47 Y27.984 E19.39455
G1 X-11.958 Y27.389 E19.43294
G1 X-12.381 Y26.747 E19.4713
G1 X-12.736 Y26.064 E19.5097
G1 X-13.017 Y25.349 E19.54803
G1 X-13.223 Y24.607 E19.58645
G1 X-13.351 Y23.849 E19.6248
G1 X-13.4 Y23 E19.66723
G1 X-13.4 Y15 E20.06635
G1 X-13.358 Y14.222 E20.10522
G1 X-13.4 Y13.5 E20.1413
G1 X-13.4 Y5.5 E20.54042
G1 X-13.358 Y4.722 E20.57929
G1 X-13.4 Y4 E20.61537
G1 X-13.4 Y-4 E21.0145
G1 X-13.358 Y-4.778 E21.05337
G1 X-13.4 Y-5.5 E21.08945
G0 F3600 X-13 Y-5.5
G1 F1800 X-13 Y-13.5 E21.48857
G1 X-12.96 Y-14.247 E21.52589
G1 X-12.926 Y-14.456 E21.53646
G1 X-12.981 Y-14.883 E21.55794
G1 X-13 Y-15.4 E21.58375
G1 X-13 Y-23.4 E21.98287
G1 X-12.96 Y-24.147 E22.02019
G1 X-12.981 Y-24.483 E22.03698
G1 X-13 Y-25 E22.0628
G1 X-13 Y-33 E22.46192
G1 X-12.96 Y-33.747 E22.49924
G1 X-12.841 Y-34.485 E22.53653
G1 X-12.643 Y-35.207 E22.57388
G1 X-12.37 Y-35.903 E22.61118
G1 X-12.023 Y-36.566 E22.64852
G1 X-11.608 Y-37.189 E22.68586
G1 X-11.129 Y-37.763 E22.72316
G1 X-10.592 Y-38.284 E22.76049
G1 X-10.002 Y-38.743 E22.79778
G1 X-9.366 Y-39.138 E22.83513
G1 X-8.692 Y-39.462 E22.87244
G1 X-7.987 Y-39.712 E22.90976
G1 X-7.259 Y-39.886 E22.94711
G1 X-6.517 Y-39.981 E22.98443
G1 X-6 Y-40 E23.01024
G1 X4.21 Y-40 E23.51962
G1 X4.957 Y-39.96 E23.55694
G1 X6.024 Y-39.776 E23.61096
G1 X6.863 Y-39.528 E23.6546
G1 X7.638 Y-39.767 E23.69507
G1 X8.599 Y-39.943 E23.74381
G1 X9.49 Y-40 E23.78835
G1 X19.7 Y-40 E24.29773
G1 X20.447 Y-39.96 E24.33505
G1 X21.185 Y-39.841 E24.37235
G1 X21.907 Y-39.643 E24.4097
G1 X22.603 Y-39.37 E24.447
G1 X23.266 Y-39.023 E24.48433
G1 X23.889 Y-38.608 E24.52168
G1 X24.463 Y-38.129 E24.55897
G1 X24.984 Y-37.592 E24.5963
G1 X25.443 Y-37.002 E24.6336
G1 X25.838 Y-36.366 E24.67095
G1 X26.162 Y-35.692 E24.70826
G1 X26.412 Y-34.987 E24.74558
G1 X26.586 Y-34.259 E24.78292
G1 X26.681 Y-33.517 E24.82024
G1 X26.7 Y-33 E24.84605
G1 X26.7 Y-25 E25.24517
G1 X26.653 Y-24.212 E25.28456
G1 X26.681 Y-23.996 E25.29542
G1 X26.7 Y-23.479 E25.32123
G1 X26.7 Y-15.479 E25.72035
G1 X26.66 Y-14.732 E25.75768
G1 X26.621 Y-14.488 E25.77
G1 X26.681 Y-14.017 E25.79369
G1 X26.7 Y-13.5 E25.8195
G1 X26.7 Y-5.5 E26.21862
G1 X26.655 Y-4.721 E26.25755
G1 X26.681 Y-4.517 E26.26781
G1 X26.7 Y-4 E26.29362
G1 X26.7 Y4 E26.69274
G1 X26.655 Y4.779 E26.73167
G1 X26.681 Y4.983 E26.74193
G1 X26.7 Y5.5 E26.76774
G1 X26.7 Y13.5 E27.16687
G1 X26.655 Y14.279 E27.2058
G1 X26.681 Y14.483 E27.21606
G1 X26.7 Y15 E27.24187
G1 X26.7 Y23 E27.64099
G1 X26.66 Y23.747 E27.67831
G1 X26.541 Y24.485 E27.7156
G1 X26.343 Y25.207 E27.75295
G1 X26.07 Y25.903 E27.79025
G1 X25.723 Y26.566 E27.82759
G1 X25.308 Y27.189 E27.86493
G1 X24.829 Y27.763 E27.90223
G1 X24.292 Y28.284 E27.93956
G1 X23.702 Y28.743 E27.97685
G1 X23.066 Y29.138 E28.01421
G1 X22.392 Y29.462 E28.05151
G1 X21.687 Y29.712 E28.08883
G1 X20.959 Y29.886 E28.12618
G1 X20.217 Y29.981 E28.1635
G1 X19.7 Y30 E28.18931
G1 X9.49 Y30 E28.69869
G1 X8.743 Y29.96 E28.73601
G1 X7.676 Y29.776 E28.79003
G1 X6.837 Y29.528 E28.83367
G1 X6.062 Y29.767 E28.87414
G1 X5.101 Y29.943 E28.92288
G1 X4.21 Y30 E28.96742
G1 X-6 Y30 E29.4768
G1 X-6.747 Y29.96 E29.51412
G1 X-7.485 Y29.841 E29.55142
G1 X-8.207 Y29.643 E29.58877
G1 X-8.903 Y29.37 E29.62607
G1 X-9.566 Y29.023 E29.6634
G1 X-10.189 Y28.608 E29.70075
G1 X-10.763 Y28.129 E29.73804
G1 X-11.284 Y27.592 E29.77537
G1 X-11.743 Y27.002 E29.81267
G1 X-12.138 Y26.366 E29.85002
G1 X-12.462 Y25.692 E29.88733
G1 X-12.712 Y24.987 E29.92465
G1 X-12.886 Y24.259 E29.96199
G1 X-12.981 Y23.517 E29.99931
G1 X-13 Y23 E30.02512
G1 X-13 Y15 E30.42424
G1 X-12.955 Y14.221 E30.46317
G1 X-12.981 Y14.017 E30.47343
G1 X-13 Y13.5 E30.49924
G1 X-13 Y5.5 E30.89836
G1 X-12.955 Y4.721 E30.93729
G1 X-12.981 Y4.517 E30.94755
G1 X-13 Y4 E30.97336
G1 X-13 Y-4 E31.37249
G1 X-12.955 Y-4.779 E31.41141
G1 X-12.981 Y-4.983 E31.42167
G1 X-13 Y-5.5 E31.44749
G0 F3600 X-12.6 Y-5.5
G1 F1800 X-12.6 Y-13.5 E31.84661
G1 X-12.56 Y-14.225 E31.88283
G1 X-12.536 Y-14.483 E31.89576
G1 X-12.6 Y-15.4 E31.94162
G1 X-12.6 Y-23.4 E32.34074
G1 X-12.56 Y-24.125 E32.37697
G1 X-12.545 Y-24.214 E32.38147
G1 X-12.6 Y-25 E32.42078
G1 X-12.6 Y-33 E32.8199
G1 X-12.56 Y-33.725 E32.85613
G1 X-12.441 Y-34.442 E32.89239
G1 X-12.243 Y-35.141 E32.92863
G1 X-11.97 Y-35.814 E32.96487
G1 X-11.625 Y-36.453 E33.0011
G1 X-11.211 Y-37.05 E33.03734
G1 X-10.735 Y-37.598 E33.07355
G1 X-10.201 Y-38.091 E33.10981
G1 X-9.616 Y-38.521 E33.14604
G1 X-8.987 Y-38.885 E33.18229
G1 X-8.322 Y-39.178 E33.21855
G1 X-7.629 Y-39.396 E33.25479
G1 X-6.917 Y-39.536 E33.29099
G1 X-6 Y-39.6 E33.33685
G1 X4.21 Y-39.6 E33.84623
G1 X4.935 Y-39.56 E33.88246
G1 X5.94 Y-39.385 E33.93335
G1 X6.858 Y-39.11 E33.98116
G1 X7.736 Y-39.379 E34.02698
G1 X8.671 Y-39.549 E34.07439
G1 X9.49 Y-39.6 E34.11533
G1 X19.7 Y-39.6 E34.62471
G1 X20.425 Y-39.56 E34.66093
G1 X21.142 Y-39.441 E34.69719
G1 X21.841 Y-39.243 E34.73344
G1 X22.514 Y-38.97 E34.76967
G1 X23.153 Y-38.625 E34.8059
G1 X23.75 Y-38.211 E34.84215
G1 X24.298 Y-37.735 E34.87836
G1 X24.791 Y-37.201 E34.91462
G1 X25.221 Y-36.616 E34.95084
G1 X25.585 Y-35.987 E34.9871
G1 X25.878 Y-35.322 E35.02335
G1 X26.096 Y-34.629 E35.0596
G1 X26.236 Y-33.917 E35.0958
G1 X26.3 Y-33 E35.14166
G1 X26.3 Y-25 E35.54078
G1 X26.26 Y-24.275 E35.577
G1 X26.249 Y-24.209 E35.58034
G1 X26.3 Y-23.479 E35.61685
G1 X26.3 Y-15.479 E36.01597
G1 X26.26 Y-14.754 E36.0522
G1 X26.236 Y-14.417 E36.06905
G1 X26.3 Y-13.5 E36.11491
G1 X26.3 Y-5.5 E36.51404
G1 X26.26 Y-4.775 E36.55026
G1 X26.25 Y-4.715 E36.5533
G1 X26.3 Y-4 E36.58906
G1 X26.3 Y4 E36.98818
G1 X26.26 Y4.725 E37.0244
G1 X26.25 Y4.785 E37.02744
G1 X26.3 Y5.5 E37.0632
G1 X26.3 Y13.5 E37.46232
G1 X26.26 Y14.225 E37.49854
G1 X26.25 Y14.285 E37.50158
G1 X26.3 Y15 E37.53734
G1 X26.3 Y23 E37.93646
G1 X26.26 Y23.725 E37.97268
G1 X26.141 Y24.442 E38.00894
G1 X25.943 Y25.141 E38.04519
G1 X25.67 Y25.814 E38.08142
G1 X25.325 Y26.453 E38.11765
G1 X24.911 Y27.05 E38.1539
G1 X24.435 Y27.598 E38.19011
G1 X23.901 Y28.091 E38.22637
G1 X23.316 Y28.521 E38.26259
G1 X22.687 Y28.885 E38.29885
G1 X22.022 Y29.178 E38.3351
G1 X21.329 Y29.396 E38.37135
G1 X20.617 Y29.536 E38.40755
G1 X19.7 Y29.6 E38.45341
G1 X9.49 Y29.6 E38.96279
G1 X8.765 Y29.56 E38.99901
G1 X7.76 Y29.385 E39.04991
G1 X6.842 Y29.11 E39.09772
G1 X5.964 Y29.379 E39.14353
G1 X5.029 Y29.549 E39.19094
G1 X4.21 Y29.6 E39.23188
G1 X-6 Y29.6 E39.74126
G1 X-6.725 Y29.56 E39.77749
G1 X-7.442 Y29.441 E39.81375
G1 X-8.141 Y29.243 E39.84999
G1 X-8.814 Y28.97 E39.88623
G1 X-9.453 Y28.625 E39.92246
G1 X-10.05 Y28.211 E39.9587
G1 X-10.598 Y27.735 E39.99492
G1 X-11.091 Y27.201 E40.03117
G1 X-11.521 Y26.616 E40.0674
G1 X-11.885 Y25.987 E40.10365
G1 X-12.178 Y25.322 E40.13991
G1 X-12.396 Y24.629 E40.17615
G1 X-12.536 Y23.917 E40.21235
G1 X-12.6 Y23 E40.25821
G1 X-12.6 Y15 E40.65734
G1 X-12.56 Y14.275 E40.69356
G1 X-12.55 Y14.215 E40.6966
G1 X-12.6 Y13.5 E40.73235
G1 X-12.6 Y5.5 E41.13148
G1 X-12.56 Y4.775 E41.1677
G1 X-12.55 Y4.715 E41.17074
G1 X-12.6 Y4 E41.2065
G1 X-12.6 Y-4 E41.60562
G1 X-12.56 Y-4.725 E41.64184
G1 X-12.55 Y-4.785 E41.64488
G1 X-12.6 Y-5.5 E41.68064
G0 F3600 X-12.2 Y-5.5
G1 F1800 X-12.2 Y-13.5 E42.07976
G1 X-12.16 Y-14.203 E42.11489
G1 X-12.117 Y-14.453 E42.12754
G1 X-12.173 Y-14.819 E42.14601
G1 X-12.2 Y-15.4 E42.17503
G1 X-12.2 Y-23.4 E42.57415
G1 X-12.16 Y-24.103 E42.60928
G1 X-12.173 Y-24.419 E42.62506
G1 X-12.2 Y-25 E42.65408
G1 X-12.2 Y-33 E43.0532
G1 X-12.16 Y-33.703 E43.08833
G1 X-12.041 Y-34.397 E43.12346
G1 X-11.843 Y-35.072 E43.15855
G1 X-11.571 Y-35.721 E43.19366
G1 X-11.226 Y-36.335 E43.2288
G1 X-10.815 Y-36.906 E43.2639
G1 X-10.341 Y-37.427 E43.29904
G1 X-9.811 Y-37.891 E43.33418
G1 X-9.232 Y-38.291 E43.36929
G1 X-8.611 Y-38.623 E43.40442
G1 X-7.957 Y-38.883 E43.43954
G1 X-7.277 Y-39.067 E43.47468
G1 X-6.581 Y-39.173 E43.5098
G1 X-6 Y-39.2 E43.53882
G1 X4.21 Y-39.2 E44.0482
G1 X4.913 Y-39.16 E44.08333
G1 X5.851 Y-38.995 E44.13085
G1 X6.857 Y-38.693 E44.18325
G1 X7.833 Y-38.991 E44.23416
G1 X8.742 Y-39.155 E44.28024
G1 X9.49 Y-39.2 E44.31763
G1 X19.7 Y-39.2 E44.82701
G1 X20.403 Y-39.16 E44.86214
G1 X21.097 Y-39.041 E44.89727
G1 X21.772 Y-38.843 E44.93236
G1 X22.421 Y-38.571 E44.96747
G1 X23.035 Y-38.226 E45.0026
G1 X23.606 Y-37.815 E45.0377
G1 X24.127 Y-37.341 E45.07284
G1 X24.591 Y-36.811 E45.10799
G1 X24.991 Y-36.232 E45.1431
G1 X25.323 Y-35.611 E45.17823
G1 X25.583 Y-34.957 E45.21334
G1 X25.767 Y-34.277 E45.24849
G1 X25.873 Y-33.581 E45.28361
G1 X25.9 Y-33 E45.31263
G1 X25.9 Y-25 E45.71175
G1 X25.86 Y-24.297 E45.74688
G1 X25.873 Y-24.06 E45.75872
G1 X25.9 Y-23.479 E45.78774
G1 X25.9 Y-15.479 E46.18686
G1 X25.86 Y-14.776 E46.22199
G1 X25.811 Y-14.489 E46.23652
G1 X25.873 Y-14.081 E46.2571
G1 X25.9 Y-13.5 E46.28612
G1 X25.9 Y-5.5 E46.68524
G1 X25.86 Y-4.797 E46.72037
G1 X25.873 Y-4.581 E46.73117
G1 X25.9 Y-4 E46.76019
G1 X25.9 Y4 E47.15931
G1 X25.86 Y4.703 E47.19444
G1 X25.873 Y4.919 E47.20523
G1 X25.9 Y5.5 E47.23425
G1 X25.9 Y13.5 E47.63337
G1 X25.86 Y14.203 E47.6685
G1 X25.873 Y14.419 E47.6793
G1 X25.9 Y15 E47.70831
G1 X25.9 Y23 E48.10744
G1 X25.86 Y23.703 E48.14257
G1 X25.741 Y24.397 E48.1777
G1 X25.543 Y25.072 E48.21279
G1 X25.271 Y25.721 E48.2479
G1 X24.926 Y26.335 E48.28303
G1 X24.515 Y26.906 E48.31813
G1 X24.041 Y27.427 E48.35327
G1 X23.511 Y27.891 E48.38842
G1 X22.932 Y28.291 E48.42353
G1 X22.311 Y28.623 E48.45866
G1 X21.657 Y28.883 E48.49377
G1 X20.977 Y29.067 E48.52892
G1 X20.281 Y29.173 E48.56404
G1 X19.7 Y29.2 E48.59306
G1 X9.49 Y29.2 E49.10244
G1 X8.787 Y29.16 E49.13757
G1 X7.849 Y28.995 E49.18508
G1 X6.843 Y28.693 E49.23748
G1 X5.867 Y28.991 E49.2884
G1 X4.958 Y29.155 E49.33448
G1 X4.21 Y29.2 E49.37186
