;FLAVOR:Marlin
;TIME:9175
;Filament used: 7.1028m
;Layer height: 0.15
;MINX:-41.839
;MINY:-43.34
;MINZ:0.3
;MAXX:40.92
;MAXY:42.475
;MAXZ:40.95
;Generated with Cura_SteamEngine main
M140 S60
M105
M190 S60
M104 S200
M105
M109 S200
M82 ;absolute extrusion mode
G21 ;metric values
G90 ;absolute positioning
M82 ;set extruder to absolute mode
M107 ;start with the fan off
G28 ;Home all axes (max endstops)
G1 Z15.0 F9000 ;move the platform down 15mm
G92 E0 ;zero the extruded length
G1 F200 E3 ;extrude 3mm of feed stock
G92 E0 ;zero the extruded length again
G1 F9000
;Put printing message on LCD screen
M117 Printing...
G92 E0
G92 E0
G1 F1500 E-6.5
;LAYER_COUNT:272
;LAYER:0
M107
G0 F3600 X-5.139 Y22.67 Z0.3
G0 X-6.536 Y27.124
;TYPE:SKIRT
G1 F1500 E0
G1 F1800 X-7.019 Y27.748 E0.03937
G1 X-7.562 Y28.321 E0.07875
G1 X-8.161 Y28.836 E0.11816
G1 X-8.809 Y29.287 E0.15755
G1 X-9.5 Y29.671 E0.19699
G1 X-10.225 Y29.983 E0.23637
G1 X-10.978 Y30.22 E0.27575
G1 X-11.752 Y30.379 E0.31517
G1 X-12.537 Y30.46 E0.35455
G1 X-13.327 Y30.46 E0.39396
G1 X-14.113 Y30.381 E0.43337
G1 X-14.886 Y30.223 E0.47273
G1 X-15.64 Y29.987 E0.51215
G1 X-16.366 Y29.677 E0.55153
G1 X-17.057 Y29.294 E0.59095
G1 X-17.706 Y28.844 E0.63035
G1 X-18.306 Y28.33 E0.66977
G1 X-18.85 Y27.759 E0.70911
G1 X-19.335 Y27.135 E0.74854
G1 X-19.753 Y26.465 E0.78794
G1 X-20.102 Y25.757 E0.82732
G1 X-20.378 Y25.017 E0.86672
G1 X-20.577 Y24.253 E0.90611
G1 X-20.712 Y23.316 E0.95334
G1 X-20.802 Y22.229 E1.00776
G1 X-20.914 Y21.786 E1.03055
G1 X-21.091 Y21.382 E1.05256
G1 X-21.338 Y21.005 E1.07504
G1 X-21.647 Y20.669 E1.09782
G1 X-21.997 Y20.397 E1.11993
G1 X-22.392 Y20.183 E1.14235
G1 X-22.824 Y20.035 E1.16513
G1 X-23.266 Y19.961 E1.18749
G1 X-23.712 Y19.961 E1.20974
G1 X-24.154 Y20.035 E1.2321
G1 X-24.584 Y20.183 E1.25478
G1 X-24.979 Y20.396 E1.27717
G1 X-25.33 Y20.669 E1.29936
G1 X-25.639 Y21.005 E1.32213
G1 X-25.887 Y21.384 E1.34473
G1 X-26.064 Y21.789 E1.36678
G1 X-26.176 Y22.229 E1.38943
G1 X-26.266 Y23.316 E1.44385
G1 X-26.371 Y24.099 E1.48326
G1 X-26.555 Y24.867 E1.52266
G1 X-26.815 Y25.612 E1.56203
G1 X-27.15 Y26.328 E1.60147
G1 X-27.555 Y27.006 E1.64087
G1 X-28.027 Y27.639 E1.68026
G1 X-28.56 Y28.221 E1.71963
G1 X-29.149 Y28.747 E1.75903
G1 X-29.789 Y29.21 E1.79844
G1 X-30.472 Y29.606 E1.83783
G1 X-31.191 Y29.932 E1.87721
G1 X-31.94 Y30.182 E1.91661
G1 X-32.711 Y30.356 E1.95604
G1 X-33.495 Y30.451 E1.99544
G1 X-34.284 Y30.466 E2.03481
G1 X-35.071 Y30.401 E2.07421
G1 X-35.848 Y30.257 E2.11363
G1 X-36.605 Y30.036 E2.15298
G1 X-37.337 Y29.738 E2.19241
G1 X-38.035 Y29.369 E2.2318
G1 X-38.692 Y28.93 E2.27122
G1 X-39.301 Y28.428 E2.31059
G1 X-39.856 Y27.866 E2.35
G1 X-40.352 Y27.252 E2.38938
G1 X-40.783 Y26.59 E2.42879
G1 X-41.144 Y25.888 E2.46817
G1 X-41.433 Y25.153 E2.50757
G1 X-41.646 Y24.393 E2.54695
G1 X-41.782 Y23.614 E2.5864
G1 X-41.839 Y22.67 E2.63358
G1 X-41.839 Y-32.338 E5.37795
G1 X-41.799 Y-33.127 E5.41736
G1 X-41.68 Y-33.907 E5.45672
G1 X-41.482 Y-34.672 E5.49615
G1 X-41.208 Y-35.412 E5.53552
G1 X-40.86 Y-36.121 E5.57492
G1 X-40.442 Y-36.792 E5.61436
G1 X-39.959 Y-37.416 E5.65373
G1 X-39.416 Y-37.989 E5.69311
G1 X-38.817 Y-38.504 E5.73252
G1 X-38.169 Y-38.955 E5.77191
G1 X-37.478 Y-39.339 E5.81135
G1 X-36.753 Y-39.651 E5.85073
G1 X-36 Y-39.888 E5.89011
G1 X-35.226 Y-40.047 E5.92953
G1 X-34.344 Y-40.138 E5.97377
G1 X-12.939 Y-40.137 E7.04167
G1 X-12.15 Y-40.097 E7.08108
G1 X-11.369 Y-39.977 E7.12051
G1 X-10.605 Y-39.78 E7.15987
G1 X-9.864 Y-39.505 E7.1993
G1 X-9.155 Y-39.158 E7.23868
G1 X-8.485 Y-38.74 E7.27808
G1 X-7.86 Y-38.257 E7.31749
G1 X-7.288 Y-37.713 E7.35687
G1 X-6.773 Y-37.114 E7.39628
G1 X-6.322 Y-36.466 E7.43567
G1 X-5.938 Y-35.776 E7.47507
G1 X-5.626 Y-35.051 E7.51444
G1 X-5.389 Y-34.297 E7.55387
G1 X-5.23 Y-33.524 E7.59325
G1 X-5.139 Y-32.641 E7.63753
G1 X-5.139 Y22.67 E10.39701
G1 X-5.179 Y23.459 E10.43642
G1 X-5.298 Y24.239 E10.47579
G1 X-5.496 Y25.004 E10.51521
G1 X-5.77 Y25.744 E10.55458
G1 X-6.118 Y26.453 E10.59398
G1 X-6.536 Y27.124 E10.63342
G1 F1500 E4.13342
G0 F3600 X-10.982 Y28.553
G1 F1500 E10.63342
G1 F1800 X-11.662 Y28.737 E10.66857
G1 X-12.358 Y28.843 E10.70369
G1 X-13.061 Y28.869 E10.73879
G1 X-13.763 Y28.815 E10.77392
G1 X-14.454 Y28.682 E10.80902
G1 X-15.126 Y28.471 E10.84416
G1 X-15.77 Y28.186 E10.8793
G1 X-16.377 Y27.83 E10.91441
G1 X-16.94 Y27.407 E10.94954
G1 X-17.451 Y26.923 E10.98465
G1 X-17.904 Y26.384 E11.01978
G1 X-18.293 Y25.797 E11.05491
G1 X-18.613 Y25.17 E11.09003
G1 X-18.86 Y24.511 E11.12514
G1 X-19.03 Y23.827 E11.16031
G1 X-19.118 Y23.184 E11.19268
G1 X-19.22 Y21.957 E11.25411
G1 X-19.394 Y21.269 E11.28952
G1 X-19.68 Y20.617 E11.32504
G1 X-20.073 Y20.015 E11.3609
G1 X-20.555 Y19.492 E11.39639
G1 X-21.119 Y19.053 E11.43204
G1 X-21.754 Y18.71 E11.46805
G1 X-22.424 Y18.48 E11.50339
G1 X-23.133 Y18.361 E11.53926
G1 X-23.844 Y18.361 E11.57473
G1 X-24.554 Y18.48 E11.61065
G1 X-25.223 Y18.71 E11.64594
G1 X-25.858 Y19.053 E11.68195
G1 X-26.422 Y19.492 E11.71761
G1 X-26.904 Y20.015 E11.75309
G1 X-27.298 Y20.619 E11.78907
G1 X-27.583 Y21.268 E11.82443
G1 X-27.758 Y21.961 E11.86009
G1 X-27.86 Y23.184 E11.92132
G1 X-27.958 Y23.881 E11.95643
G1 X-28.135 Y24.562 E11.99154
G1 X-28.387 Y25.219 E12.02664
G1 X-28.713 Y25.844 E12.06181
G1 X-29.107 Y26.427 E12.09692
G1 X-29.565 Y26.962 E12.13205
G1 X-30.08 Y27.441 E12.16714
G1 X-30.647 Y27.86 E12.20231
G1 X-31.257 Y28.211 E12.23743
G1 X-31.903 Y28.49 E12.27253
G1 X-32.576 Y28.695 E12.30763
G1 X-33.269 Y28.822 E12.34278
G1 X-33.971 Y28.87 E12.37789
G1 X-34.674 Y28.837 E12.413
G1 X-35.369 Y28.726 E12.44811
G1 X-36.047 Y28.536 E12.48324
G1 X-36.699 Y28.27 E12.51837
G1 X-37.317 Y27.933 E12.55349
G1 X-37.893 Y27.527 E12.58865
G1 X-38.418 Y27.059 E12.62374
G1 X-38.888 Y26.534 E12.65889
G1 X-39.294 Y25.96 E12.69397
G1 X-39.633 Y25.343 E12.72909
G1 X-39.9 Y24.691 E12.76424
G1 X-40.092 Y24.014 E12.79935
G1 X-40.205 Y23.319 E12.83448
G1 X-40.239 Y22.67 E12.8669
G1 X-40.239 Y-32.338 E15.61126
G1 X-40.199 Y-33.041 E15.64639
G1 X-40.08 Y-33.735 E15.68152
G1 X-39.882 Y-34.41 E15.71661
G1 X-39.61 Y-35.059 E15.75172
G1 X-39.265 Y-35.673 E15.78686
G1 X-38.854 Y-36.244 E15.82196
G1 X-38.38 Y-36.765 E15.8571
G1 X-37.85 Y-37.229 E15.89224
G1 X-37.271 Y-37.629 E15.92735
G1 X-36.65 Y-37.961 E15.96248
G1 X-35.996 Y-38.221 E15.99759
G1 X-35.316 Y-38.405 E16.03274
G1 X-34.62 Y-38.511 E16.06786
G1 X-34.039 Y-38.538 E16.09688
G1 X-12.939 Y-38.537 E17.14956
G1 X-12.236 Y-38.497 E17.18469
G1 X-11.542 Y-38.378 E17.21982
G1 X-10.866 Y-38.18 E17.25497
G1 X-10.217 Y-37.908 E17.29007
G1 X-9.603 Y-37.563 E17.32521
G1 X-9.032 Y-37.151 E17.36034
G1 X-8.512 Y-36.677 E17.39544
G1 X-8.048 Y-36.148 E17.43055
G1 X-7.648 Y-35.569 E17.46566
G1 X-7.316 Y-34.948 E17.50079
G1 X-7.056 Y-34.294 E17.5359
G1 X-6.872 Y-33.614 E17.57105
G1 X-6.766 Y-32.918 E17.60617
G1 X-6.739 Y-32.337 E17.63519
G1 X-6.739 Y22.67 E20.3795
G1 X-6.779 Y23.373 E20.41463
G1 X-6.898 Y24.067 E20.44976
G1 X-7.096 Y24.742 E20.48485
G1 X-7.368 Y25.391 E20.51996
G1 X-7.713 Y26.005 E20.5551
G1 X-8.124 Y26.576 E20.5902
G1 X-8.598 Y27.097 E20.62534
G1 X-9.128 Y27.561 E20.66048
G1 X-9.707 Y27.961 E20.69559
G1 X-10.328 Y28.293 E20.73072
G1 X-10.982 Y28.553 E20.76583
G1 F1500 E14.26583
G0 F3600 X-15.336 Y27.952
G1 F1500 E20.76583
G1 F1800 X-15.938 Y27.634 E20.7998
G1 X-16.499 Y27.249 E20.83374
G1 X-17.012 Y26.8 E20.86776
G1 X-17.467 Y26.294 E20.90171
G1 X-17.861 Y25.738 E20.9357
G1 X-18.187 Y25.14 E20.96968
G1 X-18.44 Y24.508 E21.00365
G1 X-18.617 Y23.851 E21.03759
G1 X-18.719 Y23.151 E21.07288
G1 X-18.824 Y21.892 E21.13591
G1 X-19.013 Y21.141 E21.17455
G1 X-19.328 Y20.424 E21.21362
G1 X-19.753 Y19.774 E21.25237
G1 X-20.289 Y19.191 E21.29188
G1 X-20.897 Y18.719 E21.33028
G1 X-21.591 Y18.343 E21.36966
G1 X-22.33 Y18.089 E21.40864
G1 X-23.097 Y17.961 E21.44744
G1 X-23.874 Y17.961 E21.4862
G1 X-24.654 Y18.091 E21.52565
G1 X-25.385 Y18.343 E21.56423
G1 X-26.08 Y18.718 E21.60363
G1 X-26.688 Y19.191 E21.64206
G1 X-27.224 Y19.774 E21.68157
G1 X-27.65 Y20.425 E21.72039
G1 X-27.963 Y21.14 E21.75933
G1 X-28.155 Y21.896 E21.79824
G1 X-28.259 Y23.151 E21.86107
G1 X-28.355 Y23.825 E21.89503
G1 X-28.53 Y24.483 E21.929
G1 X-28.78 Y25.116 E21.96295
G1 X-29.103 Y25.715 E21.99691
G1 X-29.494 Y26.273 E22.0309
G1 X-29.947 Y26.781 E22.06486
G1 X-30.457 Y27.232 E22.09882
G1 X-31.017 Y27.62 E22.13281
G1 X-31.617 Y27.94 E22.16674
G1 X-32.252 Y28.188 E22.20075
G1 X-32.911 Y28.359 E22.23471
G1 X-33.585 Y28.452 E22.26866
G1 X-34.266 Y28.466 E22.30264
G1 X-34.944 Y28.399 E22.33663
G1 X-35.609 Y28.254 E22.37059
G1 X-36.252 Y28.031 E22.40454
G1 X-36.865 Y27.735 E22.4385
G1 X-37.439 Y27.369 E22.47247
G1 X-37.967 Y26.938 E22.50647
G1 X-38.44 Y26.448 E22.54045
G1 X-38.852 Y25.906 E22.57441
G1 X-39.198 Y25.32 E22.60837
G1 X-39.473 Y24.697 E22.64234
G1 X-39.673 Y24.046 E22.67632
G1 X-39.796 Y23.377 E22.71025
G1 X-39.839 Y22.67 E22.74559
G1 X-39.839 Y-32.338 E25.48995
G1 X-39.799 Y-33.018 E25.52394
G1 X-39.68 Y-33.688 E25.55789
G1 X-39.483 Y-34.34 E25.59187
G1 X-39.211 Y-34.964 E25.62583
G1 X-38.867 Y-35.552 E25.65981
G1 X-38.457 Y-36.096 E25.6938
G1 X-37.986 Y-36.587 E25.72774
G1 X-37.461 Y-37.021 E25.76173
G1 X-36.889 Y-37.39 E25.79569
G1 X-36.277 Y-37.689 E25.82967
G1 X-35.635 Y-37.914 E25.86361
G1 X-34.97 Y-38.063 E25.89761
G1 X-34.039 Y-38.138 E25.94421
G1 X-12.939 Y-38.137 E26.99689
G1 X-12.259 Y-38.097 E27.03087
G1 X-11.589 Y-37.978 E27.06482
G1 X-10.937 Y-37.781 E27.0988
G1 X-10.313 Y-37.508 E27.13278
G1 X-9.725 Y-37.165 E27.16675
G1 X-9.181 Y-36.755 E27.20073
G1 X-8.689 Y-36.284 E27.23471
G1 X-8.256 Y-35.759 E27.26866
G1 X-7.887 Y-35.187 E27.30262
G1 X-7.588 Y-34.575 E27.3366
G1 X-7.363 Y-33.932 E27.37059
G1 X-7.214 Y-33.268 E27.40454
G1 X-7.139 Y-32.337 E27.45114
G1 X-7.139 Y22.67 E30.19545
G1 X-7.179 Y23.35 E30.22944
G1 X-7.298 Y24.02 E30.26338
G1 X-7.495 Y24.672 E30.29737
G1 X-7.767 Y25.296 E30.33133
G1 X-8.111 Y25.884 E30.36531
G1 X-8.521 Y26.428 E30.3993
G1 X-8.992 Y26.919 E30.43324
G1 X-9.517 Y27.353 E30.46723
G1 X-10.089 Y27.722 E30.50119
G1 X-10.701 Y28.021 E30.53517
G1 X-11.343 Y28.246 E30.56911
G1 X-12.008 Y28.395 E30.60311
G1 X-12.685 Y28.464 E30.63706
G1 X-13.366 Y28.454 E30.67104
G1 X-14.041 Y28.364 E30.70501
G1 X-14.7 Y28.196 E30.73894
G1 X-15.336 Y27.952 E30.77292
G1 F1500 E24.27292
G0 F3600 X-19.046 Y25.172
G1 F1500 E30.77292
G1 F1800 X-19.284 Y24.486 E30.80915
G1 X-19.445 Y23.778 E30.84537
G1 X-19.516 Y23.217 E30.87359
G1 X-19.615 Y22.028 E30.93311
G1 X-19.775 Y21.395 E30.96568
G1 X-20.031 Y20.812 E30.99745
G1 X-20.389 Y20.264 E31.03011
G1 X-20.83 Y19.784 E31.06263
G1 X-21.339 Y19.388 E31.0948
G1 X-21.909 Y19.08 E31.12713
G1 X-22.53 Y18.867 E31.15988
G1 X-23.163 Y18.761 E31.1919
G1 X-23.808 Y18.761 E31.22408
G1 X-24.454 Y18.869 E31.25676
G1 X-25.065 Y19.079 E31.28899
G1 X-25.639 Y19.39 E31.32156
G1 X-26.147 Y19.784 E31.35363
G1 X-26.588 Y20.264 E31.38615
G1 X-26.944 Y20.809 E31.41863
G1 X-27.205 Y21.403 E31.451
G1 X-27.363 Y22.028 E31.48316
G1 X-27.462 Y23.217 E31.54269
G1 X-27.562 Y23.936 E31.5789
G1 X-27.74 Y24.64 E31.61513
G1 X-27.995 Y25.321 E31.65141
G1 X-28.323 Y25.969 E31.68764
G1 X-28.72 Y26.577 E31.72387
G1 X-29.181 Y27.138 E31.7601
G1 X-29.702 Y27.645 E31.79637
G1 X-30.275 Y28.091 E31.83259
G1 X-30.893 Y28.472 E31.86881
G1 X-31.55 Y28.783 E31.90508
G1 X-32.236 Y29.019 E31.94127
G1 X-32.945 Y29.179 E31.97753
G1 X-33.667 Y29.26 E32.01378
G1 X-34.393 Y29.26 E32.05
G1 X-35.115 Y29.182 E32.08623
G1 X-35.824 Y29.024 E32.12247
G1 X-36.512 Y28.789 E32.15874
G1 X-37.169 Y28.48 E32.19496
G1 X-37.789 Y28.101 E32.23122
G1 X-38.363 Y27.656 E32.26745
G1 X-38.885 Y27.151 E32.30369
G1 X-39.348 Y26.591 E32.33994
G1 X-39.746 Y25.984 E32.37615
G1 X-40.076 Y25.337 E32.41238
G1 X-40.333 Y24.658 E32.44861
G1 X-40.513 Y23.954 E32.48486
G1 X-40.615 Y23.235 E32.52109
G1 X-40.639 Y22.67 E32.5493
G1 X-40.639 Y-32.338 E35.29366
G1 X-40.599 Y-33.063 E35.32989
G1 X-40.48 Y-33.78 E35.36615
G1 X-40.282 Y-34.479 E35.40239
G1 X-40.009 Y-35.152 E35.43863
G1 X-39.664 Y-35.791 E35.47486
G1 X-39.25 Y-36.388 E35.5111
G1 X-38.774 Y-36.936 E35.54732
G1 X-38.24 Y-37.429 E35.58357
G1 X-37.655 Y-37.859 E35.6198
G1 X-37.026 Y-38.223 E35.65605
G1 X-36.361 Y-38.516 E35.69231
G1 X-35.668 Y-38.734 E35.72855
G1 X-34.956 Y-38.874 E35.76475
G1 X-34.039 Y-38.938 E35.81061
G1 X-12.939 Y-38.937 E36.8633
G1 X-12.213 Y-38.897 E36.89957
G1 X-11.497 Y-38.778 E36.93578
G1 X-10.798 Y-38.58 E36.97203
G1 X-10.125 Y-38.307 E37.00826
G1 X-9.486 Y-37.962 E37.04449
G1 X-8.889 Y-37.548 E37.08074
G1 X-8.341 Y-37.071 E37.11698
G1 X-7.848 Y-36.537 E37.15324
G1 X-7.417 Y-35.953 E37.18945
G1 X-7.054 Y-35.324 E37.22569
G1 X-6.761 Y-34.659 E37.26194
G1 X-6.543 Y-33.966 E37.29818
G1 X-6.403 Y-33.254 E37.33439
G1 X-6.339 Y-32.337 E37.38025
G1 X-6.339 Y22.67 E40.12456
G1 X-6.379 Y23.395 E40.16078
G1 X-6.498 Y24.112 E40.19704
G1 X-6.696 Y24.811 E40.23329
G1 X-6.969 Y25.484 E40.26952
G1 X-7.314 Y26.123 E40.30575
G1 X-7.728 Y26.72 E40.342
G1 X-8.204 Y27.268 E40.37821
G1 X-8.738 Y27.761 E40.41447
G1 X-9.323 Y28.191 E40.45069
G1 X-9.952 Y28.555 E40.48695
G1 X-10.617 Y28.848 E40.5232
G1 X-11.31 Y29.066 E40.55945
G1 X-12.022 Y29.206 E40.59565
G1 X-12.746 Y29.267 E40.6319
G1 X-13.472 Y29.248 E40.66813
G1 X-14.192 Y29.15 E40.70438
G1 X-14.896 Y28.973 E40.7406
G1 X-15.577 Y28.72 E40.77684
G1 X-16.226 Y28.393 E40.8131
G1 X-16.835 Y27.997 E40.84934
G1 X-17.397 Y27.537 E40.88557
G1 X-17.905 Y27.018 E40.92181
G1 X-18.352 Y26.446 E40.95802
G1 X-18.734 Y25.828 E40.99427
G1 X-19.046 Y25.172 E41.03051
G1 F1500 E34.53051
G0 F3600 X-17.495 Y20.619
G1 F1500 E41.03051
G1 F1800 X-17.916 Y19.661 E41.08272
G1 X-18.491 Y18.782 E41.13512
G1 X-19.197 Y18.014 E41.18717
G1 X-20.02 Y17.374 E41.23918
G1 X-20.946 Y16.873 E41.29171
G1 X-21.936 Y16.533 E41.34393
G1 X-22.964 Y16.361 E41.39593
G1 X-24.013 Y16.361 E41.44826
G1 X-25.043 Y16.533 E41.50036
G1 X-26.034 Y16.874 E41.55265
G1 X-26.954 Y17.372 E41.60484
G1 X-27.78 Y18.014 E41.65703
G1 X-28.486 Y18.782 E41.70908
G1 X-29.062 Y19.663 E41.76159
G1 X-29.481 Y20.618 E41.81362
G1 X-29.738 Y21.631 E41.86576
G1 X-29.853 Y23.018 E41.9352
G1 X-29.941 Y23.591 E41.96412
G1 X-30.107 Y24.146 E41.99302
G1 X-30.347 Y24.673 E42.02191
G1 X-30.658 Y25.162 E42.05082
G1 X-31.033 Y25.603 E42.0797
G1 X-31.465 Y25.989 E42.10861
G1 X-31.946 Y26.312 E42.13751
G1 X-32.467 Y26.565 E42.16641
G1 X-33.018 Y26.744 E42.19531
G1 X-33.589 Y26.846 E42.22425
G1 X-34.167 Y26.868 E42.25311
G1 X-34.744 Y26.81 E42.28204
G1 X-35.307 Y26.674 E42.31093
G1 X-35.846 Y26.461 E42.33985
G1 X-36.35 Y26.177 E42.36871
G1 X-36.811 Y25.825 E42.39765
G1 X-37.219 Y25.414 E42.42654
G1 X-37.566 Y24.95 E42.45545
G1 X-37.846 Y24.443 E42.48434
G1 X-38.054 Y23.902 E42.51326
G1 X-38.185 Y23.338 E42.54215
G1 X-38.239 Y22.67 E42.57558
G1 X-38.239 Y-32.338 E45.31994
G1 X-38.199 Y-32.916 E45.34885
G1 X-38.08 Y-33.483 E45.37775
G1 X-37.884 Y-34.028 E45.40665
G1 X-37.615 Y-34.541 E45.43555
G1 X-37.278 Y-35.012 E45.46444
G1 X-36.879 Y-35.432 E45.49334
G1 X-36.426 Y-35.794 E45.52227
G1 X-35.928 Y-36.089 E45.55115
G1 X-35.394 Y-36.314 E45.58006
G1 X-34.834 Y-36.462 E45.60896
G1 X-34.039 Y-36.538 E45.6488
G1 X-12.939 Y-36.537 E46.70148
G1 X-12.361 Y-36.497 E46.73039
G1 X-11.794 Y-36.378 E46.75929
G1 X-11.249 Y-36.182 E46.78819
G1 X-10.736 Y-35.913 E46.81709
G1 X-10.265 Y-35.576 E46.84598
G1 X-9.845 Y-35.177 E46.87488
G1 X-9.483 Y-34.724 E46.90381
G1 X-9.188 Y-34.226 E46.93269
G1 X-8.963 Y-33.692 E46.9616
G1 X-8.815 Y-33.132 E46.9905
G1 X-8.739 Y-32.337 E47.03034
G1 X-8.739 Y22.67 E49.77465
G1 X-8.779 Y23.248 E49.80356
G1 X-8.898 Y23.815 E49.83246
G1 X-9.094 Y24.36 E49.86135
G1 X-9.363 Y24.873 E49.89025
G1 X-9.7 Y25.344 E49.91915
G1 X-10.099 Y25.764 E49.94805
G1 X-10.552 Y26.126 E49.97698
G1 X-11.05 Y26.421 E50.00586
G1 X-11.584 Y26.646 E50.03477
G1 X-12.144 Y26.794 E50.06366
G1 X-12.719 Y26.864 E50.09256
G1 X-13.298 Y26.855 E50.12145
G1 X-13.871 Y26.765 E50.15039
G1 X-14.426 Y26.598 E50.17931
G1 X-14.952 Y26.356 E50.20819
G1 X-15.44 Y26.044 E50.23709
G1 X-15.88 Y25.668 E50.26596
G1 X-16.265 Y25.235 E50.29487
G1 X-16.586 Y24.753 E50.32376
G1 X-16.838 Y24.231 E50.35268
