;FLAVOR:Marlin
;TIME:1968
;Filament used: 1.52712m
;Layer height: 0.15
;MINX:-27.05
;MINY:-24.8
;MINZ:0.3
;MAXX:27.05
;MAXY:24.8
;MAXZ:15.45
;Generated with Cura_SteamEngine main
M140 S60
M105
M190 S60
M104 S200
M105
M109 S200
M82 ;absolute extrusion mode
G21 ;metric values
G90 ;absolute positioning
M82 ;set extruder to absolute mode
M107 ;start with the fan off
G28 ;Home all axes (max endstops)
G1 Z15.0 F9000 ;move the platform down 15mm
G92 E0 ;zero the extruded length
G1 F200 E3 ;extrude 3mm of feed stock
G92 E0 ;zero the extruded length again
G1 F9000
;Put printing message on LCD screen
M117 Printing...
G92 E0
G92 E0
G1 F1500 E-6.5
;LAYER_COUNT:102
;LAYER:0
M107
G0 F3600 X-19.25 Y24.8 Z0.3
G0 X-23.704 Y23.403
;TYPE:SKIRT
G1 F1500 E0
G1 F1800 X-24.328 Y22.92 E0.03937
G1 X-24.901 Y22.377 E0.07875
G1 X-25.416 Y21.778 E0.11816
G1 X-25.867 Y21.13 E0.15755
G1 X-26.251 Y20.439 E0.19699
G1 X-26.563 Y19.714 E0.23637
G1 X-26.8 Y18.961 E0.27575
G1 X-26.959 Y18.187 E0.31517
G1 X-27.05 Y17.305 E0.35941
G1 X-27.05 Y-17 E2.07089
G1 X-27.01 Y-17.789 E2.11031
G1 X-26.891 Y-18.569 E2.14967
G1 X-26.693 Y-19.334 E2.1891
G1 X-26.419 Y-20.074 E2.22846
G1 X-26.071 Y-20.783 E2.26787
G1 X-25.653 Y-21.454 E2.30731
G1 X-25.17 Y-22.078 E2.34668
G1 X-24.627 Y-22.651 E2.38606
G1 X-24.028 Y-23.166 E2.42547
G1 X-23.38 Y-23.617 E2.46486
G1 X-22.689 Y-24.001 E2.5043
G1 X-21.964 Y-24.313 E2.54368
G1 X-21.211 Y-24.55 E2.58306
G1 X-20.437 Y-24.709 E2.62248
G1 X-19.555 Y-24.8 E2.66672
G1 X19.25 Y-24.8 E4.60271
G1 X20.039 Y-24.76 E4.64212
G1 X20.819 Y-24.641 E4.68149
G1 X21.584 Y-24.443 E4.72091
G1 X22.324 Y-24.169 E4.76028
G1 X23.033 Y-23.821 E4.79968
G1 X23.704 Y-23.403 E4.83912
G1 X24.328 Y-22.92 E4.87849
G1 X24.901 Y-22.377 E4.91787
G1 X25.416 Y-21.778 E4.95729
G1 X25.867 Y-21.13 E4.99667
G1 X26.251 Y-20.439 E5.03611
G1 X26.563 Y-19.714 E5.07549
G1 X26.8 Y-18.961 E5.11488
G1 X26.959 Y-18.187 E5.1543
G1 X27.05 Y-17.305 E5.19853
G1 X27.05 Y17 E6.91002
G1 X27.01 Y17.789 E6.94943
G1 X26.891 Y18.569 E6.9888
G1 X26.693 Y19.334 E7.02822
G1 X26.419 Y20.074 E7.06759
G1 X26.071 Y20.783 E7.10699
G1 X25.653 Y21.454 E7.14643
G1 X25.17 Y22.078 E7.1858
G1 X24.627 Y22.651 E7.22518
G1 X24.028 Y23.166 E7.26459
G1 X23.38 Y23.617 E7.30398
G1 X22.689 Y24.001 E7.34342
G1 X21.964 Y24.313 E7.3828
G1 X21.211 Y24.55 E7.42218
G1 X20.437 Y24.709 E7.4616
G1 X19.555 Y24.8 E7.50584
G1 X-19.25 Y24.8 E9.44183
G1 X-20.039 Y24.76 E9.48124
G1 X-20.819 Y24.641 E9.52061
G1 X-21.584 Y24.443 E9.56003
G1 X-22.324 Y24.169 E9.5994
G1 X-23.033 Y23.821 E9.6388
G1 X-23.704 Y23.403 E9.67825
G1 F1500 E3.17825
G0 F3600 X-25.133 Y18.957
G1 F1500 E9.67825
G1 F1800 X-25.317 Y18.277 E9.71339
G1 X-25.423 Y17.581 E9.74851
G1 X-25.45 Y17 E9.77753
G1 X-25.45 Y-17 E11.4738
G1 X-25.41 Y-17.703 E11.50893
G1 X-25.291 Y-18.397 E11.54406
G1 X-25.093 Y-19.072 E11.57915
G1 X-24.821 Y-19.721 E11.61426
G1 X-24.476 Y-20.335 E11.6494
G1 X-24.065 Y-20.906 E11.6845
G1 X-23.591 Y-21.427 E11.71964
G1 X-23.061 Y-21.891 E11.75478
G1 X-22.482 Y-22.291 E11.78989
G1 X-21.861 Y-22.623 E11.82502
G1 X-21.207 Y-22.883 E11.86013
G1 X-20.527 Y-23.067 E11.89528
G1 X-19.831 Y-23.173 E11.9304
G1 X-19.25 Y-23.2 E11.95942
G1 X19.25 Y-23.2 E13.88019
G1 X19.953 Y-23.16 E13.91532
G1 X20.647 Y-23.041 E13.95045
G1 X21.322 Y-22.843 E13.98555
G1 X21.971 Y-22.571 E14.02065
G1 X22.585 Y-22.226 E14.05579
G1 X23.156 Y-21.815 E14.09089
G1 X23.677 Y-21.341 E14.12603
G1 X24.141 Y-20.811 E14.16117
G1 X24.541 Y-20.232 E14.19628
G1 X24.873 Y-19.611 E14.23141
G1 X25.133 Y-18.957 E14.26653
G1 X25.317 Y-18.277 E14.30167
G1 X25.423 Y-17.581 E14.3368
G1 X25.45 Y-17 E14.36581
G1 X25.45 Y17 E16.06208
G1 X25.41 Y17.703 E16.09721
G1 X25.291 Y18.397 E16.13234
G1 X25.093 Y19.072 E16.16743
G1 X24.821 Y19.721 E16.20254
G1 X24.476 Y20.335 E16.23768
G1 X24.065 Y20.906 E16.27278
G1 X23.591 Y21.427 E16.30792
G1 X23.061 Y21.891 E16.34306
G1 X22.482 Y22.291 E16.37817
G1 X21.861 Y22.623 E16.4133
G1 X21.207 Y22.883 E16.44841
G1 X20.527 Y23.067 E16.48356
G1 X19.831 Y23.173 E16.51868
G1 X19.25 Y23.2 E16.5477
G1 X-19.25 Y23.2 E18.46847
G1 X-19.953 Y23.16 E18.5036
G1 X-20.647 Y23.041 E18.53873
G1 X-21.322 Y22.843 E18.57383
G1 X-21.971 Y22.571 E18.60894
G1 X-22.585 Y22.226 E18.64407
G1 X-23.156 Y21.815 E18.67917
G1 X-23.677 Y21.341 E18.71431
G1 X-24.141 Y20.811 E18.74946
G1 X-24.541 Y20.232 E18.78457
G1 X-24.873 Y19.611 E18.8197
G1 X-25.133 Y18.957 E18.85481
G0 F3600 X-25.05 Y17
G1 F1800 X-25.05 Y-17 E20.55108
G1 X-25.01 Y-17.68 E20.58506
G1 X-24.891 Y-18.35 E20.61901
G1 X-24.694 Y-19.002 E20.65299
G1 X-24.422 Y-19.626 E20.68695
G1 X-24.078 Y-20.214 E20.72094
G1 X-23.668 Y-20.758 E20.75492
G1 X-23.197 Y-21.249 E20.78887
G1 X-22.672 Y-21.683 E20.82285
G1 X-22.1 Y-22.052 E20.85681
G1 X-21.488 Y-22.351 E20.89079
G1 X-20.846 Y-22.576 E20.92473
G1 X-20.181 Y-22.725 E20.95873
G1 X-19.25 Y-22.8 E21.00533
G1 X19.25 Y-22.8 E22.9261
G1 X19.93 Y-22.76 E22.96009
G1 X20.6 Y-22.641 E22.99404
G1 X21.252 Y-22.444 E23.02802
G1 X21.876 Y-22.172 E23.06198
G1 X22.464 Y-21.828 E23.09596
G1 X23.008 Y-21.418 E23.12995
G1 X23.499 Y-20.947 E23.16389
G1 X23.933 Y-20.422 E23.19788
G1 X24.302 Y-19.85 E23.23184
G1 X24.601 Y-19.238 E23.26582
G1 X24.826 Y-18.596 E23.29976
G1 X24.975 Y-17.931 E23.33376
G1 X25.05 Y-17 E23.38036
G1 X25.05 Y17 E25.07662
G1 X25.01 Y17.68 E25.11061
G1 X24.891 Y18.35 E25.14456
G1 X24.694 Y19.002 E25.17854
G1 X24.422 Y19.626 E25.2125
G1 X24.078 Y20.214 E25.24649
G1 X23.668 Y20.758 E25.28047
G1 X23.197 Y21.249 E25.31442
G1 X22.672 Y21.683 E25.3484
G1 X22.1 Y22.052 E25.38236
G1 X21.488 Y22.351 E25.41634
G1 X20.846 Y22.576 E25.45028
G1 X20.181 Y22.725 E25.48428
G1 X19.25 Y22.8 E25.53088
G1 X-19.25 Y22.8 E27.45165
G1 X-19.93 Y22.76 E27.48563
G1 X-20.6 Y22.641 E27.51958
G1 X-21.252 Y22.444 E27.55357
G1 X-21.876 Y22.172 E27.58753
G1 X-22.464 Y21.828 E27.62151
G1 X-23.008 Y21.418 E27.6555
G1 X-23.499 Y20.947 E27.68944
G1 X-23.933 Y20.422 E27.72343
G1 X-24.302 Y19.85 E27.75739
G1 X-24.601 Y19.238 E27.79137
G1 X-24.826 Y18.596 E27.82531
G1 X-24.975 Y17.931 E27.85931
G1 X-25.05 Y17 E27.90591
G0 F3600 X-24.65 Y17
G1 F1800 X-24.65 Y-17 E29.60217
G1 X-24.61 Y-17.656 E29.63496
G1 X-24.491 Y-18.302 E29.66773
G1 X-24.294 Y-18.929 E29.70052
G1 X-24.022 Y-19.527 E29.7333
G1 X-23.68 Y-20.088 E29.76608
G1 X-23.272 Y-20.603 E29.79885
G1 X-22.805 Y-21.065 E29.83163
G1 X-22.285 Y-21.466 E29.86439
G1 X-21.721 Y-21.802 E29.89714
G1 X-21.119 Y-22.066 E29.92994
G1 X-20.49 Y-22.256 E29.96272
G1 X-19.843 Y-22.367 E29.99547
G1 X-19.25 Y-22.4 E30.0251
G1 X19.25 Y-22.4 E31.94587
G1 X19.906 Y-22.36 E31.97866
G1 X20.552 Y-22.241 E32.01143
G1 X21.179 Y-22.044 E32.04422
G1 X21.777 Y-21.772 E32.077
G1 X22.338 Y-21.43 E32.10978
G1 X22.853 Y-21.022 E32.14256
G1 X23.315 Y-20.555 E32.17533
G1 X23.716 Y-20.035 E32.20809
G1 X24.052 Y-19.471 E32.24084
G1 X24.316 Y-18.869 E32.27364
G1 X24.506 Y-18.24 E32.30642
G1 X24.617 Y-17.593 E32.33917
G1 X24.65 Y-17 E32.3688
G1 X24.65 Y17 E34.06507
G1 X24.61 Y17.656 E34.09786
G1 X24.491 Y18.302 E34.13063
G1 X24.294 Y18.929 E34.16342
G1 X24.022 Y19.527 E34.19619
G1 X23.68 Y20.088 E34.22897
G1 X23.272 Y20.603 E34.26175
G1 X22.805 Y21.065 E34.29452
G1 X22.285 Y21.466 E34.32728
G1 X21.721 Y21.802 E34.36004
G1 X21.119 Y22.066 E34.39283
G1 X20.49 Y22.256 E34.42561
G1 X19.843 Y22.367 E34.45836
G1 X19.25 Y22.4 E34.488
G1 X-19.25 Y22.4 E36.40877
G1 X-19.906 Y22.36 E36.44156
G1 X-20.552 Y22.241 E36.47433
G1 X-21.179 Y22.044 E36.50712
G1 X-21.777 Y21.772 E36.53989
G1 X-22.338 Y21.43 E36.57267
G1 X-22.853 Y21.022 E36.60545
G1 X-23.315 Y20.555 E36.63822
G1 X-23.716 Y20.035 E36.67099
G1 X-24.052 Y19.471 E36.70374
G1 X-24.316 Y18.869 E36.73653
G1 X-24.506 Y18.24 E36.76931
G1 X-24.617 Y17.593 E36.80207
G1 X-24.65 Y17 E36.8317
G0 F3600 X-24.25 Y17
G1 F1800 X-24.25 Y-17 E38.52796
G1 X-24.21 Y-17.631 E38.55951
G1 X-24.091 Y-18.252 E38.59105
G1 X-23.894 Y-18.852 E38.62256
G1 X-23.623 Y-19.424 E38.65414
G1 X-23.283 Y-19.956 E38.68564
G1 X-22.877 Y-20.441 E38.71719
G1 X-22.414 Y-20.871 E38.74872
G1 X-21.9 Y-21.24 E38.78028
G1 X-21.344 Y-21.54 E38.8118
G1 X-20.755 Y-21.768 E38.84331
G1 X-20.141 Y-21.92 E38.87487
G1 X-19.25 Y-22 E38.9195
G1 X19.25 Y-22 E40.84027
G1 X19.881 Y-21.96 E40.87182
G1 X20.502 Y-21.841 E40.90336
G1 X21.102 Y-21.644 E40.93487
G1 X21.674 Y-21.373 E40.96645
G1 X22.206 Y-21.033 E40.99795
G1 X22.691 Y-20.627 E41.0295
G1 X23.121 Y-20.164 E41.06103
G1 X23.49 Y-19.65 E41.09259
G1 X23.79 Y-19.094 E41.12411
G1 X24.018 Y-18.505 E41.15562
G1 X24.17 Y-17.891 E41.18718
G1 X24.25 Y-17 E41.23181
G1 X24.25 Y17 E42.92808
G1 X24.21 Y17.631 E42.95962
G1 X24.091 Y18.252 E42.99117
G1 X23.894 Y18.852 E43.02267
G1 X23.623 Y19.424 E43.05425
G1 X23.283 Y19.956 E43.08575
G1 X22.877 Y20.441 E43.11731
G1 X22.414 Y20.871 E43.14883
G1 X21.9 Y21.24 E43.1804
G1 X21.344 Y21.54 E43.21192
G1 X20.755 Y21.768 E43.24343
G1 X20.141 Y21.92 E43.27499
G1 X19.25 Y22 E43.31962
G1 X-19.25 Y22 E45.24039
G1 X-19.881 Y21.96 E45.27193
G1 X-20.502 Y21.841 E45.30348
G1 X-21.102 Y21.644 E45.33498
G1 X-21.674 Y21.373 E45.36656
G1 X-22.206 Y21.033 E45.39806
G1 X-22.691 Y20.627 E45.42962
G1 X-23.121 Y20.164 E45.46114
G1 X-23.49 Y19.65 E45.49271
G1 X-23.79 Y19.094 E45.52423
G1 X-24.018 Y18.505 E45.55574
G1 X-24.17 Y17.891 E45.5873
G1 X-24.25 Y17 E45.63193
G0 F3600 X-23.85 Y17
G1 F1800 X-23.85 Y-17 E47.32819
G1 X-23.81 Y-17.605 E47.35844
G1 X-23.691 Y-18.199 E47.38867
G1 X-23.495 Y-18.773 E47.41893
G1 X-23.224 Y-19.316 E47.4492
G1 X-22.885 Y-19.819 E47.47947
G1 X-22.483 Y-20.272 E47.50968
G1 X-22.025 Y-20.669 E47.53992
G1 X-21.518 Y-21.002 E47.57018
G1 X-20.972 Y-21.266 E47.60044
G1 X-20.396 Y-21.455 E47.63069
G1 X-19.8 Y-21.567 E47.66094
G1 X-19.25 Y-21.6 E47.68843
G1 X19.25 Y-21.6 E49.6092
G1 X19.855 Y-21.56 E49.63945
G1 X20.449 Y-21.441 E49.66968
G1 X21.023 Y-21.245 E49.69994
G1 X21.566 Y-20.974 E49.73021
G1 X22.069 Y-20.635 E49.76047
G1 X22.522 Y-20.233 E49.79069
G1 X22.919 Y-19.775 E49.82093
G1 X23.252 Y-19.268 E49.85119
G1 X23.516 Y-18.722 E49.88145
G1 X23.705 Y-18.146 E49.91169
G1 X23.817 Y-17.55 E49.94195
G1 X23.85 Y-17 E49.96944
G1 X23.85 Y17 E51.6657
G1 X23.81 Y17.605 E51.69595
G1 X23.691 Y18.199 E51.72618
G1 X23.495 Y18.773 E51.75644
G1 X23.224 Y19.316 E51.78671
G1 X22.885 Y19.819 E51.81698
G1 X22.483 Y20.272 E51.84719
G1 X22.025 Y20.669 E51.87743
G1 X21.518 Y21.002 E51.90769
G1 X20.972 Y21.266 E51.93795
G1 X20.396 Y21.455 E51.9682
G1 X19.8 Y21.567 E51.99845
G1 X19.25 Y21.6 E52.02594
G1 X-19.25 Y21.6 E53.94671
G1 X-19.855 Y21.56 E53.97696
G1 X-20.449 Y21.441 E54.00719
G1 X-21.023 Y21.245 E54.03745
G1 X-21.566 Y20.974 E54.06772
G1 X-22.069 Y20.635 E54.09798
G1 X-22.522 Y20.233 E54.1282
G1 X-22.919 Y19.775 E54.15844
G1 X-23.252 Y19.268 E54.1887
G1 X-23.516 Y18.722 E54.21896
G1 X-23.705 Y18.146 E54.2492
G1 X-23.817 Y17.55 E54.27946
G1 X-23.85 Y17 E54.30695
G0 F3600 X-23.45 Y17
G1 F1800 X-23.45 Y-17 E56.00321
G1 X-23.41 Y-17.578 E56.03212
G1 X-23.291 Y-18.145 E56.06102
G1 X-23.095 Y-18.69 E56.08992
G1 X-22.826 Y-19.203 E56.11882
G1 X-22.489 Y-19.674 E56.14771
G1 X-22.09 Y-20.094 E56.17661
G1 X-21.637 Y-20.456 E56.20554
G1 X-21.139 Y-20.751 E56.23442
G1 X-20.605 Y-20.976 E56.26333
G1 X-20.045 Y-21.124 E56.29223
G1 X-19.25 Y-21.2 E56.33207
G1 X19.25 Y-21.2 E58.25284
G1 X19.828 Y-21.16 E58.28175
G1 X20.395 Y-21.041 E58.31065
G1 X20.94 Y-20.845 E58.33955
G1 X21.453 Y-20.576 E58.36845
G1 X21.924 Y-20.239 E58.39734
G1 X22.344 Y-19.84 E58.42624
G1 X22.706 Y-19.387 E58.45517
G1 X23.001 Y-18.889 E58.48405
G1 X23.226 Y-18.355 E58.51296
G1 X23.374 Y-17.795 E58.54186
G1 X23.45 Y-17 E58.5817
G1 X23.45 Y17 E60.27797
G1 X23.41 Y17.578 E60.30687
G1 X23.291 Y18.145 E60.33578
G1 X23.095 Y18.69 E60.36467
G1 X22.826 Y19.203 E60.39357
G1 X22.489 Y19.674 E60.42247
G1 X22.09 Y20.094 E60.45137
G1 X21.637 Y20.456 E60.4803
G1 X21.139 Y20.751 E60.50918
G1 X20.605 Y20.976 E60.53808
G1 X20.045 Y21.124 E60.56698
G1 X19.25 Y21.2 E60.60683
G1 X-19.25 Y21.2 E62.5276
G1 X-19.828 Y21.16 E62.5565
G1 X-20.395 Y21.041 E62.58541
G1 X-20.94 Y20.845 E62.6143
G1 X-21.453 Y20.576 E62.6432
G1 X-21.924 Y20.239 E62.6721
G1 X-22.344 Y19.84 E62.701
G1 X-22.706 Y19.387 E62.72993
G1 X-23.001 Y18.889 E62.75881
G1 X-23.226 Y18.355 E62.78772
G1 X-23.374 Y17.795 E62.81661
G1 X-23.45 Y17 E62.85646
G0 F3600 X-23.05 Y17
G1 F1800 X-23.05 Y-17 E64.55272
G1 X-23.01 Y-17.55 E64.58024
G1 X-22.891 Y-18.088 E64.60773
G1 X-22.695 Y-18.603 E64.63522
G1 X-22.427 Y-19.084 E64.66269
G1 X-22.093 Y-19.522 E64.69017
G1 X-21.698 Y-19.906 E64.71765
G1 X-21.252 Y-20.23 E64.74515
G1 X-20.764 Y-20.485 E64.77262
G1 X-20.244 Y-20.668 E64.80013
G1 X-19.703 Y-20.773 E64.82762
G1 X-19.25 Y-20.8 E64.85026
G1 X19.25 Y-20.8 E66.77103
G1 X19.8 Y-20.76 E66.79855
G1 X20.338 Y-20.641 E66.82604
G1 X20.853 Y-20.445 E66.85353
G1 X21.334 Y-20.177 E66.881
G1 X21.772 Y-19.843 E66.90848
G1 X22.156 Y-19.448 E66.93596
G1 X22.48 Y-19.002 E66.96346
G1 X22.735 Y-18.514 E66.99093
G1 X22.918 Y-17.994 E67.01844
G1 X23.023 Y-17.453 E67.04593
G1 X23.05 Y-17 E67.06857
G1 X23.05 Y17 E68.76484
G1 X23.01 Y17.55 E68.79235
G1 X22.891 Y18.088 E68.81984
G1 X22.695 Y18.603 E68.84733
G1 X22.427 Y19.084 E68.8748
G1 X22.093 Y19.522 E68.90228
G1 X21.698 Y19.906 E68.92977
G1 X21.252 Y20.23 E68.95727
G1 X20.764 Y20.485 E68.98474
G1 X20.244 Y20.668 E69.01224
G1 X19.703 Y20.773 E69.03974
G1 X19.25 Y20.8 E69.06238
G1 X-19.25 Y20.8 E70.98315
G1 X-19.8 Y20.76 E71.01066
G1 X-20.338 Y20.641 E71.03815
G1 X-20.853 Y20.445 E71.06564
G1 X-21.334 Y20.177 E71.09311
G1 X-21.772 Y19.843 E71.12059
G1 X-22.156 Y19.448 E71.14808
G1 X-22.48 Y19.002 E71.17558
G1 X-22.735 Y18.514 E71.20305
G1 X-22.918 Y17.994 E71.23055
G1 X-23.023 Y17.453 E71.25805
G1 X-23.05 Y17 E71.28069
G0 F3600 X-22.65 Y17
G1 F1800 X-22.65 Y-17 E72.97695
G1 X-22.61 Y-17.52 E73.00297
G1 X-22.491 Y-18.027 E73.02896
G1 X-22.296 Y-18.51 E73.05494
G1 X-22.03 Y-18.958 E73.08094
G1 X-21.698 Y-19.36 E73.10695
G1 X-21.308 Y-19.706 E73.13296
G1 X-20.87 Y-19.989 E73.15897
G1 X-20.395 Y-20.202 E73.18495
G1 X-19.892 Y-20.339 E73.21095
G1 X-19.25 Y-20.4 E73.24313
G1 X19.25 Y-20.4 E75.1639
G1 X19.77 Y-20.36 E75.18992
G1 X20.277 Y-20.241 E75.2159
G1 X20.76 Y-20.046 E75.24189
G1 X21.208 Y-19.78 E75.26788
G1 X21.61 Y-19.448 E75.29389
G1 X21.956 Y-19.058 E75.31991
G1 X22.239 Y-18.62 E75.34592
G1 X22.452 Y-18.145 E75.37189
G1 X22.589 Y-17.642 E75.3979
G1 X22.65 Y-17 E75.43008
G1 X22.65 Y17 E77.12634
G1 X22.61 Y17.52 E77.15236
G1 X22.491 Y18.027 E77.17834
G1 X22.296 Y18.51 E77.20433
G1 X22.03 Y18.958 E77.23032
G1 X21.698 Y19.36 E77.25634
G1 X21.308 Y19.706 E77.28235
G1 X20.87 Y19.989 E77.30836
G1 X20.395 Y20.202 E77.33433
G1 X19.892 Y20.339 E77.36034
G1 X19.25 Y20.4 E77.39252
G1 X-19.25 Y20.4 E79.31329
G1 X-19.77 Y20.36 E79.33931
G1 X-20.277 Y20.241 E79.36529
G1 X-20.76 Y20.046 E79.39128
G1 X-21.208 Y19.78 E79.41727
G1 X-21.61 Y19.448 E79.44328
G1 X-21.956 Y19.058 E79.46929
G1 X-22.239 Y18.62 E79.49531
G1 X-22.452 Y18.145 E79.52128
G1 X-22.589 Y17.642 E79.54729
G1 X-22.65 Y17 E79.57946
G0 F3600 X-22.25 Y17.221
G1 F1800 X-22.25 Y-17 E81.28676
G1 X-22.21 Y-17.488 E81.31118
G1 X-22.091 Y-17.963 E81.33561
G1 X-21.897 Y-18.412 E81.36002
G1 X-21.632 Y-18.824 E81.38446
G1 X-21.304 Y-19.187 E81.40886
G1 X-20.921 Y-19.492 E81.43329
G1 X-20.493 Y-19.73 E81.45772
G1 X-20.033 Y-19.896 E81.48212
G1 X-19.471 Y-20 E81.51064
G1 X19.25 Y-20 E83.44243
G1 X19.738 Y-19.96 E83.46686
G1 X20.213 Y-19.841 E83.49129
G1 X20.662 Y-19.647 E83.51569
G1 X21.074 Y-19.382 E83.54013
G1 X21.437 Y-19.054 E83.56454
G1 X21.742 Y-18.671 E83.58897
G1 X21.98 Y-18.243 E83.6134
G1 X22.146 Y-17.783 E83.6378
G1 X22.25 Y-17.221 E83.66631
G1 X22.25 Y17 E85.37361
G1 X22.21 Y17.488 E85.39803
G1 X22.091 Y17.963 E85.42246
G1 X21.897 Y18.412 E85.44687
G1 X21.632 Y18.824 E85.47131
G1 X21.304 Y19.187 E85.49571
G1 X20.921 Y19.492 E85.52014
G1 X20.493 Y19.73 E85.54457
G1 X20.033 Y19.896 E85.56897
G1 X19.471 Y20 E85.59749
G1 X-19.25 Y20 E87.52928
G1 X-19.738 Y19.96 E87.55371
G1 X-20.213 Y19.841 E87.57814
G1 X-20.662 Y19.647 E87.60255
G1 X-21.074 Y19.382 E87.62698
G1 X-21.437 Y19.054 E87.65139
G1 X-21.742 Y18.671 E87.67582
G1 X-21.98 Y18.243 E87.70025
