;FLAVOR:Marlin
;TIME:1756
;Filament used: 1.43429m
;Layer height: 0.15
;MINX:-34.9
;MINY:-23.03
;MINZ:0.3
;MAXX:34.9
;MAXY:23.03
;MAXZ:19.05
;Generated with Cura_SteamEngine main
M140 S60
M105
M190 S60
M104 S200
M105
M109 S200
M82 ;absolute extrusion mode
G21 ;metric values
G90 ;absolute positioning
M82 ;set extruder to absolute mode
M107 ;start with the fan off
G28 ;Home all axes (max endstops)
G1 Z15.0 F9000 ;move the platform down 15mm
G92 E0 ;zero the extruded length
G1 F200 E3 ;extrude 3mm of feed stock
G92 E0 ;zero the extruded length again
G1 F9000
;Put printing message on LCD screen
M117 Printing...
G92 E0
G92 E0
G1 F1500 E-6.5
;LAYER_COUNT:126
;LAYER:0
M107
G0 F3600 X5.859 Y21.147 Z0.3
G0 X1.373 Y22.958
;TYPE:SKIRT
G1 F1500 E0
G1 F1800 X0.315 Y23.03 E0.05291
G1 X-4.315 Y23.03 E0.2839
G1 X-5.104 Y22.99 E0.32331
G1 X-6.323 Y22.781 E0.38502
G1 X-7.307 Y22.49 E0.43621
G1 X-8.259 Y22.082 E0.48788
G1 X-8.82 Y21.796 E0.5193
G1 X-9.504 Y21.402 E0.55868
G1 X-10.145 Y20.941 E0.59807
G1 X-10.792 Y20.362 E0.64139
G1 X-11.234 Y19.92 E0.67257
G1 X-11.764 Y19.334 E0.71199
G1 X-12.517 Y18.269 E0.77706
G1 X-12.722 Y18.625 E0.79756
G1 X-13.182 Y19.267 E0.83696
G1 X-13.768 Y19.922 E0.88081
G1 X-14.208 Y20.362 E0.91185
G1 X-14.794 Y20.892 E0.95127
G1 X-15.43 Y21.359 E0.99064
G1 X-16.18 Y21.796 E1.03395
G1 X-16.741 Y22.082 E1.06536
G1 X-17.462 Y22.405 E1.10478
G1 X-18.621 Y22.767 E1.16535
G1 X-19.627 Y22.958 E1.21644
G1 X-20.685 Y23.03 E1.26935
G1 X-25.315 Y23.03 E1.50034
G1 X-26.104 Y22.99 E1.53975
G1 X-27.323 Y22.781 E1.60146
G1 X-28.307 Y22.49 E1.65265
G1 X-29.259 Y22.082 E1.70432
G1 X-29.82 Y21.796 E1.73574
G1 X-30.504 Y21.402 E1.77512
G1 X-31.145 Y20.941 E1.81451
G1 X-31.792 Y20.362 E1.85783
G1 X-32.232 Y19.922 E1.88887
G1 X-32.762 Y19.336 E1.92829
G1 X-33.229 Y18.7 E1.96766
G1 X-33.671 Y17.94 E2.01152
G1 X-33.956 Y17.379 E2.04291
G1 X-34.278 Y16.658 E2.08231
G1 X-34.525 Y15.908 E2.1217
G1 X-34.705 Y15.075 E2.16422
G1 X-34.803 Y14.461 E2.19524
G1 X-34.9 Y13.555 E2.2407
G1 X-34.9 Y-15.23 E3.67679
G1 X-34.86 Y-16.019 E3.7162
G1 X-34.741 Y-16.799 E3.75557
G1 X-34.543 Y-17.564 E3.79499
G1 X-34.269 Y-18.304 E3.83436
G1 X-33.921 Y-19.013 E3.87376
G1 X-33.503 Y-19.684 E3.9132
G1 X-33.02 Y-20.308 E3.95257
G1 X-32.477 Y-20.881 E3.99195
G1 X-31.878 Y-21.396 E4.03137
G1 X-31.23 Y-21.847 E4.07075
G1 X-30.539 Y-22.231 E4.11019
G1 X-29.814 Y-22.543 E4.14957
G1 X-29.061 Y-22.78 E4.18896
G1 X-28.287 Y-22.939 E4.22838
G1 X-27.405 Y-23.03 E4.27261
G1 X11.32 Y-23.03 E6.20461
G1 X12.109 Y-22.99 E6.24403
G1 X12.889 Y-22.871 E6.28339
G1 X13.654 Y-22.673 E6.32281
G1 X14.394 Y-22.399 E6.36218
G1 X15.103 Y-22.051 E6.40159
G1 X15.774 Y-21.633 E6.44103
G1 X16.398 Y-21.15 E6.48039
G1 X16.971 Y-20.607 E6.51978
G1 X17.486 Y-20.008 E6.55919
G1 X17.937 Y-19.36 E6.59858
G1 X18.321 Y-18.669 E6.63802
G1 X18.633 Y-17.944 E6.67739
G1 X18.87 Y-17.191 E6.71678
G1 X19.029 Y-16.417 E6.7562
G1 X19.12 Y-15.535 E6.80044
G1 X19.12 Y-12.677 E6.94302
G1 X23.099 Y-12.677 E7.14154
G1 X23.706 Y-12.653 E7.17184
G1 X24.334 Y-12.604 E7.20327
G1 X25.235 Y-12.488 E7.24859
G1 X26.166 Y-12.263 E7.29638
G1 X27.031 Y-12.007 E7.34138
G1 X27.891 Y-11.652 E7.3878
G1 X28.714 Y-11.262 E7.43324
G1 X29.527 Y-10.764 E7.4808
G1 X30.276 Y-10.25 E7.52612
G1 X30.997 Y-9.633 E7.57346
G1 X31.654 Y-9.01 E7.61864
G1 X32.263 Y-8.299 E7.66534
G1 X32.815 Y-7.584 E7.71041
G1 X33.312 Y-6.773 E7.75786
G1 X33.744 Y-5.984 E7.80274
G1 X34.111 Y-5.096 E7.85068
G1 X34.413 Y-4.248 E7.89559
G1 X34.634 Y-3.331 E7.94264
G1 X34.801 Y-2.442 E7.98777
G1 X34.876 Y-1.487 E8.03556
G1 X34.9 Y-.878 E8.06597
G1 X34.9 Y8.229 E8.52032
G1 X34.861 Y9.139 E8.56576
G1 X34.727 Y10.13 E8.61565
G1 X34.557 Y10.898 E8.6549
G1 X34.269 Y11.826 E8.70337
G1 X33.963 Y12.576 E8.74379
G1 X33.523 Y13.441 E8.7922
G1 X33.099 Y14.125 E8.83235
G1 X32.516 Y14.908 E8.88106
G1 X31.988 Y15.505 E8.92082
G1 X31.285 Y16.179 E8.96941
G1 X30.678 Y16.67 E9.00836
G1 X29.879 Y17.215 E9.05661
G1 X29.141 Y17.675 E9.09999
G1 X28.446 Y18.05 E9.13939
G1 X27.863 Y18.3 E9.17104
G1 X27.723 Y18.454 E9.18142
G1 X27.162 Y19.009 E9.22079
G1 X26.608 Y19.472 E9.25682
G1 X25.855 Y20.001 E9.30273
G1 X25.139 Y20.408 E9.34382
G1 X24.427 Y20.75 E9.38322
G1 X23.674 Y21.029 E9.42329
G1 X22.916 Y21.252 E9.46271
G1 X22.14 Y21.396 E9.50208
G1 X21.353 Y21.462 E9.54148
G1 X20.563 Y21.447 E9.5809
G1 X19.779 Y21.353 E9.6203
G1 X19.008 Y21.18 E9.65972
G1 X18.336 Y20.969 E9.69486
G1 X17.486 Y20.623 E9.74064
G1 X16.769 Y20.249 E9.78099
G1 X16.095 Y19.837 E9.8204
G1 X15.439 Y19.344 E9.86134
G1 X14.842 Y18.827 E9.90074
G1 X14.598 Y18.578 E9.91813
G1 X14.162 Y19.009 E9.94872
G1 X13.608 Y19.472 E9.98474
G1 X12.855 Y20.001 E10.03065
G1 X12.139 Y20.408 E10.07174
G1 X11.427 Y20.75 E10.11115
G1 X10.674 Y21.029 E10.15121
G1 X9.916 Y21.252 E10.19063
G1 X9.14 Y21.396 E10.23001
G1 X8.353 Y21.462 E10.26941
G1 X7.563 Y21.447 E10.30883
G1 X6.779 Y21.353 E10.34822
G1 X5.859 Y21.147 E10.39526
G1 X5.57 Y21.359 E10.41314
G1 X4.82 Y21.796 E10.45645
G1 X4.259 Y22.082 E10.48786
G1 X3.538 Y22.405 E10.52728
G1 X2.379 Y22.767 E10.58785
G1 X1.373 Y22.958 E10.63894
G0 F3600 X0.315 Y22.63
G1 F1800 X-4.315 Y22.63 E10.86993
G1 X-5.083 Y22.59 E10.9083
G1 X-6.234 Y22.392 E10.96657
G1 X-7.193 Y22.106 E11.01649
G1 X-8.077 Y21.726 E11.0645
G1 X-8.638 Y21.44 E11.09591
G1 X-9.304 Y21.055 E11.13429
G1 X-9.927 Y20.604 E11.17266
G1 X-10.51 Y20.08 E11.21177
G1 X-10.952 Y19.638 E11.24296
G1 X-11.466 Y19.066 E11.28132
G1 X-12.117 Y18.144 E11.33763
G1 X-12.5 Y17.435 E11.37784
G1 X-13.069 Y18.425 E11.4348
G1 X-13.52 Y19.049 E11.47322
G1 X-14.05 Y19.64 E11.51282
G1 X-14.49 Y20.08 E11.54387
G1 X-15.062 Y20.594 E11.58223
G1 X-15.684 Y21.047 E11.62062
G1 X-16.362 Y21.44 E11.65972
G1 X-16.923 Y21.726 E11.69113
G1 X-17.625 Y22.039 E11.72948
G1 X-18.721 Y22.381 E11.78676
G1 X-19.701 Y22.564 E11.8365
G1 X-20.685 Y22.63 E11.8857
G1 X-25.315 Y22.63 E12.11669
G1 X-26.083 Y22.59 E12.15506
G1 X-27.234 Y22.392 E12.21333
G1 X-28.193 Y22.106 E12.26325
G1 X-29.077 Y21.726 E12.31126
G1 X-29.638 Y21.44 E12.34267
G1 X-30.304 Y21.055 E12.38105
G1 X-30.927 Y20.604 E12.41942
G1 X-31.51 Y20.08 E12.45853
G1 X-31.95 Y19.64 E12.48958
G1 X-32.464 Y19.068 E12.52794
G1 X-32.917 Y18.446 E12.56633
G1 X-33.314 Y17.759 E12.60592
G1 X-33.599 Y17.198 E12.63731
G1 X-33.912 Y16.495 E12.6757
G1 X-34.149 Y15.763 E12.71409
G1 X-34.31 Y15.012 E12.75241
G1 X-34.408 Y14.398 E12.78343
G1 X-34.5 Y13.53 E12.82698
G1 X-34.5 Y-15.23 E14.26182
G1 X-34.46 Y-15.998 E14.30019
G1 X-34.341 Y-16.758 E14.33856
G1 X-34.143 Y-17.501 E14.37693
G1 X-33.869 Y-18.22 E14.41531
G1 X-33.522 Y-18.906 E14.45367
G1 X-33.106 Y-19.553 E14.49204
G1 X-32.625 Y-20.153 E14.53041
G1 X-32.084 Y-20.7 E14.56879
G1 X-31.489 Y-21.188 E14.60718
G1 X-30.847 Y-21.611 E14.64554
G1 X-30.164 Y-21.966 E14.68394
G1 X-29.449 Y-22.247 E14.72227
G1 X-28.707 Y-22.453 E14.76069
G1 X-27.949 Y-22.581 E14.79904
G1 X-27.1 Y-22.63 E14.84147
G1 X11.32 Y-22.63 E16.75825
G1 X12.088 Y-22.59 E16.79662
G1 X12.848 Y-22.471 E16.835
G1 X13.591 Y-22.273 E16.87336
G1 X14.31 Y-21.999 E16.91175
G1 X14.996 Y-21.652 E16.9501
G1 X15.643 Y-21.236 E16.98848
G1 X16.243 Y-20.755 E17.02684
G1 X16.79 Y-20.214 E17.06522
G1 X17.278 Y-19.619 E17.10362
G1 X17.701 Y-18.977 E17.14197
G1 X18.056 Y-18.294 E17.18038
G1 X18.337 Y-17.579 E17.2187
G1 X18.543 Y-16.837 E17.25712
G1 X18.671 Y-16.079 E17.29547
G1 X18.72 Y-15.23 E17.3379
G1 X18.72 Y-12.277 E17.48523
G1 X23.099 Y-12.277 E17.7037
G1 X23.675 Y-12.255 E17.73245
G1 X24.303 Y-12.206 E17.76388
G1 X25.165 Y-12.093 E17.80725
G1 X26.072 Y-11.874 E17.8538
G1 X27.159 Y-11.521 E17.91082
G1 X27.738 Y-11.282 E17.94207
G1 X28.531 Y-10.905 E17.98588
G1 X29.318 Y-10.423 E18.03192
G1 X30.032 Y-9.932 E18.07515
G1 X30.737 Y-9.329 E18.12144
G1 X31.549 Y-8.518 E18.17869
G1 X31.959 Y-8.039 E18.21015
G1 X32.494 Y-7.343 E18.25394
G1 X32.972 Y-6.564 E18.29954
G1 X33.389 Y-5.795 E18.34319
G1 X33.742 Y-4.943 E18.3892
G1 X34.098 Y-3.848 E18.44664
G1 X34.245 Y-3.238 E18.47794
G1 X34.404 Y-2.384 E18.52128
G1 X34.477 Y-1.455 E18.56777
G1 X34.5 Y-.878 E18.59658
G1 X34.5 Y8.229 E19.05093
G1 X34.463 Y9.108 E19.09483
G1 X34.33 Y10.075 E19.14352
G1 X34.116 Y10.972 E19.18953
G1 X33.886 Y11.707 E19.22795
G1 X33.516 Y12.574 E19.27498
G1 X33.166 Y13.259 E19.31336
G1 X32.655 Y14.052 E19.36043
G1 X32.195 Y14.669 E19.39882
G1 X31.564 Y15.359 E19.44547
G1 X31.008 Y15.89 E19.48383
G1 X30.29 Y16.452 E19.52932
G1 X29.654 Y16.884 E19.56767
G1 X28.916 Y17.343 E19.61103
G1 X28.238 Y17.707 E19.64943
G1 X27.627 Y17.965 E19.68251
G1 X27.427 Y18.184 E19.69731
G1 X26.88 Y18.724 E19.73566
G1 X26.255 Y19.232 E19.77584
G1 X25.625 Y19.673 E19.81421
G1 X24.948 Y20.057 E19.85304
G1 X24.254 Y20.389 E19.89142
G1 X23.542 Y20.652 E19.92929
G1 X22.803 Y20.867 E19.96769
G1 X22.047 Y21.005 E20.00603
G1 X21.28 Y21.064 E20.0444
G1 X20.511 Y21.043 E20.08278
G1 X19.748 Y20.942 E20.12118
G1 X18.527 Y20.617 E20.18422
G1 X17.638 Y20.252 E20.23216
G1 X16.96 Y19.898 E20.27032
G1 X16.305 Y19.496 E20.30866
G1 X15.685 Y19.029 E20.34739
G1 X15.104 Y18.525 E20.38576
G1 X14.609 Y18.004 E20.42162
G1 X13.88 Y18.724 E20.47273
G1 X13.255 Y19.232 E20.51292
G1 X12.625 Y19.673 E20.55128
G1 X11.948 Y20.057 E20.59011
G1 X11.254 Y20.389 E20.6285
G1 X10.542 Y20.652 E20.66636
G1 X9.803 Y20.867 E20.70476
G1 X9.047 Y21.005 E20.7431
G1 X8.28 Y21.064 E20.78148
G1 X7.511 Y21.043 E20.81986
G1 X6.748 Y20.942 E20.85826
G1 X5.805 Y20.691 E20.90694
G1 X5.316 Y21.047 E20.93712
G1 X4.638 Y21.44 E20.97622
G1 X4.077 Y21.726 E21.00763
G1 X3.375 Y22.039 E21.04598
G1 X2.279 Y22.381 E21.10326
G1 X1.299 Y22.564 E21.153
G1 X0.315 Y22.63 E21.2022
G1 F1500 E14.7022
G0 F3600 X-4.315 Y22.23
G1 F1500 E21.2022
G1 F1800 X-5.062 Y22.19 E21.23952
G1 X-6.146 Y22.002 E21.29441
G1 X-7.078 Y21.722 E21.34296
G1 X-7.895 Y21.369 E21.38736
G1 X-8.456 Y21.083 E21.41878
G1 X-9.104 Y20.708 E21.45613
G1 X-9.707 Y20.267 E21.4934
G1 X-10.227 Y19.797 E21.52837
G1 X-10.669 Y19.355 E21.55955
G1 X-11.169 Y18.798 E21.5969
G1 X-11.796 Y17.906 E21.65129
G1 X-12.359 Y16.791 E21.71361
G1 X-12.499 Y16.44 E21.73246
G1 X-12.757 Y17.016 E21.76395
G1 X-13.042 Y17.577 E21.79534
G1 X-13.416 Y18.225 E21.83267
G1 X-13.857 Y18.83 E21.87002
G1 X-14.333 Y19.357 E21.90545
G1 X-14.773 Y19.797 E21.9365
G1 X-15.33 Y20.297 E21.97384
G1 X-15.936 Y20.734 E22.01111
G1 X-16.544 Y21.083 E22.04609
G1 X-17.105 Y21.369 E22.0775
G1 X-17.788 Y21.673 E22.1148
G1 X-18.818 Y21.993 E22.16861
G1 X-19.775 Y22.171 E22.21717
G1 X-20.685 Y22.23 E22.26267
G1 X-25.315 Y22.23 E22.49366
G1 X-26.062 Y22.19 E22.53098
G1 X-27.146 Y22.002 E22.58587
G1 X-28.078 Y21.722 E22.63442
G1 X-28.895 Y21.369 E22.67882
G1 X-29.456 Y21.083 E22.71024
G1 X-30.104 Y20.708 E22.74759
G1 X-30.707 Y20.267 E22.78486
G1 X-31.227 Y19.797 E22.81983
G1 X-31.667 Y19.357 E22.85088
G1 X-32.167 Y18.8 E22.88822
G1 X-32.604 Y18.194 E22.92549
G1 X-32.958 Y17.577 E22.96098
G1 X-33.243 Y17.016 E22.99238
G1 X-33.546 Y16.332 E23.0297
G1 X-33.774 Y15.62 E23.067
G1 X-33.915 Y14.949 E23.10121
G1 X-34.013 Y14.335 E23.13223
G1 X-34.1 Y13.232 E23.18743
G1 X-34.1 Y-15.23 E24.6074
G1 X-34.06 Y-15.977 E24.64472
G1 X-33.941 Y-16.715 E24.68202
G1 X-33.743 Y-17.437 E24.71937
G1 X-33.47 Y-18.133 E24.75667
G1 X-33.123 Y-18.796 E24.794
G1 X-32.708 Y-19.419 E24.83135
G1 X-32.229 Y-19.993 E24.86864
G1 X-31.692 Y-20.514 E24.90597
G1 X-31.102 Y-20.973 E24.94327
G1 X-30.466 Y-21.368 E24.98062
G1 X-29.792 Y-21.692 E25.01793
G1 X-29.087 Y-21.942 E25.05525
G1 X-28.359 Y-22.116 E25.09259
G1 X-27.617 Y-22.211 E25.12991
G1 X-27.1 Y-22.23 E25.15572
G1 X11.32 Y-22.23 E27.0725
G1 X12.067 Y-22.19 E27.10982
G1 X12.805 Y-22.071 E27.14712
G1 X13.527 Y-21.873 E27.18447
G1 X14.223 Y-21.6 E27.22177
G1 X14.886 Y-21.253 E27.2591
G1 X15.509 Y-20.838 E27.29645
G1 X16.083 Y-20.359 E27.33375
G1 X16.604 Y-19.822 E27.37107
G1 X17.063 Y-19.232 E27.40837
G1 X17.458 Y-18.596 E27.44572
G1 X17.782 Y-17.922 E27.48303
G1 X18.032 Y-17.217 E27.52035
G1 X18.206 Y-16.489 E27.55769
G1 X18.301 Y-15.747 E27.59501
G1 X18.32 Y-15.23 E27.62082
G1 X18.32 Y-11.877 E27.7881
G1 X23.099 Y-11.877 E28.02653
G1 X23.644 Y-11.856 E28.05374
G1 X24.272 Y-11.807 E28.08517
G1 X25.369 Y-11.633 E28.14058
G1 X25.978 Y-11.486 E28.17184
G1 X27.007 Y-11.151 E28.22582
G1 X27.586 Y-10.912 E28.25708
G1 X28.574 Y-10.41 E28.31236
G1 X29.109 Y-10.082 E28.34367
G1 X30 Y-9.434 E28.39864
G1 X30.477 Y-9.026 E28.42995
G1 X31.245 Y-8.258 E28.48414
G1 X31.655 Y-7.779 E28.5156
G1 X32.304 Y-6.888 E28.57059
G1 X32.631 Y-6.355 E28.60179
G1 X33.132 Y-5.37 E28.65692
G1 X33.372 Y-4.79 E28.68824
G1 X33.709 Y-3.754 E28.74259
G1 X33.856 Y-3.144 E28.77389
G1 X34.03 Y-2.05 E28.82916
G1 X34.079 Y-1.424 E28.86049
G1 X34.1 Y-.878 E28.88775
G1 X34.1 Y8.229 E29.3421
G1 X34.064 Y9.076 E29.38439
G1 X33.934 Y10.021 E29.43198
G1 X33.728 Y10.873 E29.47571
G1 X33.504 Y11.587 E29.51305
G1 X33.151 Y12.411 E29.55777
G1 X32.81 Y13.077 E29.5951
G1 X32.323 Y13.83 E29.63984
G1 X31.874 Y14.429 E29.67718
G1 X31.273 Y15.084 E29.72153
G1 X30.732 Y15.6 E29.75883
G1 X30.048 Y16.133 E29.8021
G1 X29.429 Y16.552 E29.83939
G1 X28.692 Y17.012 E29.88273
G1 X28.031 Y17.362 E29.92005
G1 X27.385 Y17.63 E29.95494
G1 X27.132 Y17.914 E29.97391
G1 X26.599 Y18.439 E30.01124
G1 X26.009 Y18.916 E30.04909
G1 X25.395 Y19.345 E30.08646
G1 X24.757 Y19.706 E30.12303
G1 X24.081 Y20.028 E30.16039
G1 X23.41 Y20.274 E30.19604
G1 X22.691 Y20.483 E30.2334
G1 X21.955 Y20.614 E30.2707
G1 X21.208 Y20.665 E30.30805
G1 X20.461 Y20.637 E30.34534
G1 X19.721 Y20.529 E30.38265
G1 X18.652 Y20.236 E30.43795
G1 X17.789 Y19.882 E30.48449
G1 X17.151 Y19.547 E30.52044
G1 X16.515 Y19.154 E30.55774
G1 X15.931 Y18.713 E30.59425
G1 X15.367 Y18.222 E30.63156
G1 X14.849 Y17.674 E30.66918
G1 X14.6 Y17.353 E30.68945
G1 X14.271 Y17.777 E30.71622
G1 X13.599 Y18.439 E30.76328
G1 X13.009 Y18.916 E30.80113
G1 X12.395 Y19.345 E30.8385
G1 X11.757 Y19.706 E30.87508
G1 X11.081 Y20.028 E30.91243
G1 X10.41 Y20.274 E30.94809
G1 X9.691 Y20.483 E30.98544
G1 X8.955 Y20.614 E31.02274
G1 X8.208 Y20.665 E31.06009
G1 X7.461 Y20.637 E31.09739
G1 X6.721 Y20.529 E31.1347
G1 X5.731 Y20.253 E31.18597
G1 X5.064 Y20.734 E31.227
G1 X4.456 Y21.083 E31.26198
G1 X3.895 Y21.369 E31.29339
G1 X3.212 Y21.673 E31.33069
G1 X2.182 Y21.993 E31.3845
G1 X1.225 Y22.171 E31.43306
G1 X0.315 Y22.23 E31.47856
G1 X-4.315 Y22.23 E31.70955
G1 F1500 E25.20955
G0 F3600 X-8.499 Y19.67
G1 F1500 E31.70955
G1 F1800 X-9.145 Y19.181 E31.74997
G1 X-9.82 Y18.506 E31.7976
G1 X-10.273 Y17.997 E31.83159
G1 X-10.774 Y17.276 E31.87539
G1 X-11.311 Y16.212 E31.93485
G1 X-11.591 Y15.394 E31.97799
G1 X-11.731 Y14.753 E32.01072
G1 X-11.828 Y14.144 E32.04149
G1 X-11.9 Y13.232 E32.08713
G1 X-11.9 Y-3.342 E32.91401
G1 X-13.1 Y-3.342 E32.97388
G1 X-13.1 Y13.229 E33.80061
G1 X-13.172 Y14.139 E33.84615
G1 X-13.27 Y14.756 E33.87732
G1 X-13.416 Y15.421 E33.91129
G1 X-13.682 Y16.187 E33.95174
G1 X-14.112 Y17.034 E33.99913
G1 X-14.456 Y17.622 E34.03312
G1 X-14.949 Y18.275 E34.07394
G1 X-15.622 Y18.948 E34.12142
G1 X-16.131 Y19.401 E34.15542
G1 X-16.796 Y19.865 E34.19587
G1 X-17.65 Y20.3 E34.24369
G1 X-18.273 Y20.573 E34.27762
G1 X-19.118 Y20.83 E34.32169
G1 X-19.991 Y20.988 E34.36595
G1 X-20.685 Y21.03 E34.40063
G1 X-25.315 Y21.03 E34.63163
G1 X-25.995 Y20.99 E34.66561
G1 X-26.88 Y20.831 E34.71047
G1 X-27.731 Y20.572 E34.75485
G1 X-28.35 Y20.3 E34.78858
G1 X-28.911 Y20.014 E34.82
G1 X-29.499 Y19.67 E34.85398
G1 X-30.145 Y19.181 E34.8944
G1 X-30.818 Y18.508 E34.94189
G1 X-31.271 Y17.999 E34.97588
G1 X-31.738 Y17.329 E35.01663
G1 X-32.173 Y16.473 E35.06453
G1 X-32.445 Y15.849 E35.09849
G1 X-32.681 Y15.069 E35.13915
G1 X-32.828 Y14.146 E35.18578
G1 X-32.9 Y13.232 E35.23152
G1 X-32.9 Y-15.23 E36.65149
G1 X-32.86 Y-15.91 E36.68548
G1 X-32.741 Y-16.58 E36.71943
G1 X-32.544 Y-17.232 E36.75341
G1 X-32.272 Y-17.856 E36.78737
G1 X-31.928 Y-18.444 E36.82136
G1 X-31.518 Y-18.988 E36.85534
G1 X-31.047 Y-19.479 E36.88929
G1 X-30.522 Y-19.913 E36.92327
G1 X-29.95 Y-20.282 E36.95723
G1 X-29.338 Y-20.581 E36.99121
G1 X-28.696 Y-20.806 E37.02515
G1 X-28.031 Y-20.955 E37.05915
G1 X-27.1 Y-21.03 E37.10575
G1 X11.32 Y-21.03 E39.02253
G1 X12 Y-20.99 E39.05651
