;Generated with Cura_SteamEngine 15.01
; Default start code
G28 ; Home extruder
G29;
G1 Z15 F100
G90 ; Absolute positioning
M82 ; Extruder in absolute mode
M190 S60
; Activate all used extruder
M104 T0 S210
G92 E0 ; Reset extruder position
; Wait for all used extruders to reach temperature
M109 T0 S210
;Layer count: 45
;LAYER:0
M107
G0 F10020 X0.000 Y-30.968 Z0.300
G0 X-0.199 Y-31.293
;TYPE:SKIRT
G1 F2940 X0.000 Y-30.968 E0.02377
G1 X0.998 Y-32.597 E0.14290
G1 X1.244 Y-32.999 E0.17229
G1 X2.545 Y-34.523 E0.29726
G1 X2.853 Y-34.884 E0.32685
G1 X4.374 Y-36.182 E0.45155
G1 X4.732 Y-36.488 E0.48092
G1 X6.510 Y-37.578 E0.61098
G1 X6.958 Y-37.831 E0.64306
G1 X9.065 Y-38.703 E0.78527
G1 X11.031 Y-39.183 E0.91148
G1 X11.511 Y-39.303 E0.94233
G1 X13.518 Y-39.461 E1.06788
G1 X13.518 Y-39.462 E1.06794
G1 X13.996 Y-39.500 E1.09785
G1 X15.999 Y-39.342 E1.22315
G1 X16.469 Y-39.304 E1.25255
G1 X18.432 Y-38.834 E1.37843
G1 X18.892 Y-38.719 E1.40800
G1 X20.718 Y-37.963 E1.53125
G1 X20.718 Y-37.962 E1.53131
G1 X21.154 Y-37.783 E1.56070
G1 X22.859 Y-36.738 E1.68542
G1 X23.264 Y-36.490 E1.71503
G1 X24.788 Y-35.189 E1.83999
G1 X25.149 Y-34.881 E1.86959
G1 X26.444 Y-33.363 E1.99402
G1 X26.753 Y-33.002 E2.02365
G1 X27.800 Y-31.293 E2.14864
G1 X28.047 Y-30.889 E2.17817
G1 X28.812 Y-29.041 E2.30290
G1 X28.994 Y-28.603 E2.33248
G1 X29.448 Y-26.703 E2.45431
G1 X29.568 Y-26.224 E2.48510
G1 X29.750 Y-23.922 E2.62911
G1 X29.750 Y39.485 E6.58335
G1 X-29.750 Y39.485 E10.29393
G1 X-29.750 Y-23.921 E14.24810
G1 X-29.608 Y-25.732 E14.36139
G1 X-29.566 Y-26.218 E14.39181
G1 X-29.099 Y-28.167 E14.51679
G1 X-28.984 Y-28.627 E14.54636
G1 X-28.228 Y-30.453 E14.66961
G1 X-28.227 Y-30.453 E14.66967
G1 X-28.048 Y-30.889 E14.69907
G1 X-27.001 Y-32.597 E14.82400
G1 X-26.755 Y-32.999 E14.85339
G1 X-25.454 Y-34.523 E14.97836
G1 X-25.146 Y-34.884 E15.00795
G1 X-23.625 Y-36.182 E15.13265
G1 X-23.267 Y-36.488 E15.16202
G1 X-21.489 Y-37.578 E15.29208
G1 X-21.041 Y-37.831 E15.32416
G1 X-18.934 Y-38.703 E15.46637
G1 X-16.968 Y-39.183 E15.59257
G1 X-16.488 Y-39.303 E15.62343
G1 X-14.482 Y-39.461 E15.74892
G1 X-14.482 Y-39.462 E15.74898
G1 X-14.004 Y-39.500 E15.77888
G1 X-12.000 Y-39.342 E15.90425
G1 X-11.530 Y-39.304 E15.93365
G1 X-9.567 Y-38.834 E16.05953
G1 X-9.107 Y-38.719 E16.08910
G1 X-7.281 Y-37.963 E16.21235
G1 X-7.281 Y-37.962 E16.21241
G1 X-6.845 Y-37.783 E16.24180
G1 X-5.140 Y-36.738 E16.36651
G1 X-4.735 Y-36.490 E16.39613
G1 X-3.211 Y-35.189 E16.52109
G1 X-2.850 Y-34.881 E16.55068
G1 X-1.555 Y-33.363 E16.67512
G1 X-1.246 Y-33.002 E16.70475
G1 X-0.199 Y-31.293 E16.82974
G0 F10020 X0.234 Y-30.262
G1 F2940 X0.398 Y-30.662 E16.85670
G1 X1.424 Y-32.336 E16.97915
G1 X1.425 Y-32.336 E16.97921
G1 X1.650 Y-32.704 E17.00611
G1 X2.925 Y-34.198 E17.12859
G1 X3.208 Y-34.529 E17.15575
G1 X4.696 Y-35.799 E17.27775
G1 X5.027 Y-36.082 E17.30491
G1 X6.764 Y-37.147 E17.43197
G1 X7.177 Y-37.380 E17.46154
G1 X9.221 Y-38.226 E17.59950
G1 X11.174 Y-38.704 E17.72489
G1 X11.592 Y-38.808 E17.75175
G1 X13.567 Y-38.964 E17.87530
G1 X13.996 Y-38.999 E17.90215
G1 X15.959 Y-38.844 E18.02494
G1 X16.390 Y-38.809 E18.05191
G1 X18.313 Y-38.348 E18.17523
G1 X18.735 Y-38.243 E18.20235
G1 X20.527 Y-37.501 E18.32331
G1 X20.527 Y-37.500 E18.32337
G1 X20.927 Y-37.336 E18.35033
G1 X22.601 Y-36.310 E18.47277
G1 X22.601 Y-36.309 E18.47284
G1 X22.969 Y-36.084 E18.49973
G1 X24.463 Y-34.809 E18.62222
G1 X24.794 Y-34.526 E18.64938
G1 X26.064 Y-33.038 E18.77138
G1 X26.347 Y-32.707 E18.79854
G1 X27.374 Y-31.032 E18.92107
G1 X27.600 Y-30.662 E18.94810
G1 X28.350 Y-28.850 E19.07040
G1 X28.516 Y-28.448 E19.09753
G1 X28.963 Y-26.582 E19.21719
G1 X29.073 Y-26.143 E19.24541
G1 X29.250 Y-23.903 E19.38554
G1 X29.250 Y38.985 E23.30741
G1 X-29.250 Y38.985 E26.95563
G1 X-29.250 Y-23.902 E30.87743
G1 X-29.110 Y-25.690 E30.98928
G1 X-29.071 Y-26.138 E31.01732
G1 X-28.613 Y-28.048 E31.13981
G1 X-28.508 Y-28.470 E31.16693
G1 X-27.766 Y-30.262 E31.28789
G1 X-27.765 Y-30.262 E31.28795
G1 X-27.601 Y-30.662 E31.31491
G1 X-26.575 Y-32.336 E31.43735
G1 X-26.574 Y-32.336 E31.43742
G1 X-26.349 Y-32.704 E31.46432
G1 X-25.074 Y-34.198 E31.58680
G1 X-24.791 Y-34.529 E31.61396
G1 X-23.303 Y-35.799 E31.73596
G1 X-22.972 Y-36.082 E31.76312
G1 X-21.235 Y-37.147 E31.89018
G1 X-20.822 Y-37.380 E31.91975
G1 X-18.778 Y-38.226 E32.05771
G1 X-16.825 Y-38.704 E32.18310
G1 X-16.407 Y-38.808 E32.20996
G1 X-14.434 Y-38.964 E32.33339
G1 X-14.004 Y-38.999 E32.36029
G1 X-12.040 Y-38.844 E32.48315
G1 X-11.609 Y-38.809 E32.51012
G1 X-9.686 Y-38.348 E32.63344
G1 X-9.264 Y-38.243 E32.66056
G1 X-7.472 Y-37.501 E32.78152
G1 X-7.472 Y-37.500 E32.78158
G1 X-7.072 Y-37.336 E32.80854
G1 X-5.398 Y-36.310 E32.93098
G1 X-5.398 Y-36.309 E32.93105
G1 X-5.030 Y-36.084 E32.95794
G1 X-3.536 Y-34.809 E33.08043
G1 X-3.205 Y-34.526 E33.10759
G1 X-1.935 Y-33.038 E33.22959
G1 X-1.652 Y-32.707 E33.25675
G1 X-0.625 Y-31.032 E33.37928
G1 X-0.399 Y-30.662 E33.40631
G1 X0.000 Y-29.699 E33.47132
G1 X0.233 Y-30.262 E33.50932
G1 X0.234 Y-30.262 E33.50938
G0 F10020 X0.695 Y-30.071
G1 F2940 X0.845 Y-30.434 E33.53387
G1 X1.850 Y-32.072 E33.65372
G1 X1.849 Y-32.072 E33.65378
G1 X2.056 Y-32.410 E33.67850
G1 X3.305 Y-33.873 E33.79846
G1 X3.562 Y-34.174 E33.82314
G1 X5.023 Y-35.421 E33.94293
G1 X5.322 Y-35.676 E33.96744
G1 X7.018 Y-36.716 E34.09151
G1 X7.397 Y-36.930 E34.11865
G1 X9.377 Y-37.750 E34.25230
G1 X11.293 Y-38.218 E34.37530
G1 X11.673 Y-38.313 E34.39973
G1 X13.599 Y-38.464 E34.52021
G1 X13.599 Y-38.465 E34.52027
G1 X13.997 Y-38.497 E34.54517
G1 X15.920 Y-38.345 E34.66547
G1 X16.311 Y-38.313 E34.68993
G1 X18.194 Y-37.863 E34.81067
G1 X18.578 Y-37.767 E34.83535
G1 X20.336 Y-37.039 E34.95401
G1 X20.699 Y-36.889 E34.97851
G1 X22.337 Y-35.884 E35.09835
G1 X22.337 Y-35.885 E35.09842
G1 X22.675 Y-35.678 E35.12313
G1 X24.138 Y-34.429 E35.24310
G1 X24.439 Y-34.172 E35.26778
G1 X25.684 Y-32.713 E35.38739
G1 X25.941 Y-32.412 E35.41207
G1 X26.947 Y-30.771 E35.53211
G1 X27.153 Y-30.434 E35.55674
G1 X27.888 Y-28.659 E35.67655
G1 X28.039 Y-28.293 E35.70124
G1 X28.478 Y-26.461 E35.81872
G1 X28.578 Y-26.062 E35.84438
G1 X28.750 Y-23.883 E35.98069
G1 X28.750 Y38.485 E39.87013
G1 X-28.750 Y38.485 E43.45599
G1 X-28.750 Y-23.882 E47.34536
G1 X-28.611 Y-25.649 E47.45590
G1 X-28.576 Y-26.057 E47.48144
G1 X-28.128 Y-27.929 E47.60148
G1 X-28.032 Y-28.313 E47.62616
G1 X-27.304 Y-30.071 E47.74482
G1 X-27.154 Y-30.434 E47.76932
G1 X-26.149 Y-32.072 E47.88916
G1 X-26.150 Y-32.072 E47.88922
G1 X-25.943 Y-32.410 E47.91394
G1 X-24.694 Y-33.873 E48.03390
G1 X-24.437 Y-34.174 E48.05859
G1 X-22.976 Y-35.421 E48.17837
G1 X-22.677 Y-35.676 E48.20288
G1 X-20.981 Y-36.716 E48.32695
G1 X-20.602 Y-36.930 E48.35409
G1 X-18.622 Y-37.750 E48.48774
G1 X-16.706 Y-38.218 E48.61074
G1 X-16.327 Y-38.313 E48.63511
G1 X-14.401 Y-38.464 E48.75559
G1 X-14.401 Y-38.465 E48.75565
G1 X-14.004 Y-38.497 E48.78049
G1 X-12.079 Y-38.345 E48.90091
G1 X-11.688 Y-38.313 E48.92538
G1 X-9.805 Y-37.863 E49.04611
G1 X-9.421 Y-37.767 E49.07080
G1 X-7.663 Y-37.039 E49.18946
G1 X-7.300 Y-36.889 E49.21395
G1 X-5.662 Y-35.884 E49.33380
G1 X-5.662 Y-35.885 E49.33386
G1 X-5.324 Y-35.678 E49.35858
G1 X-3.861 Y-34.429 E49.47854
G1 X-3.560 Y-34.172 E49.50322
G1 X-2.315 Y-32.713 E49.62283
G1 X-2.058 Y-32.412 E49.64752
G1 X-1.052 Y-30.771 E49.76755
G1 X-0.846 Y-30.434 E49.79219
G1 X-0.111 Y-28.659 E49.91199
G1 X-0.001 Y-28.391 E49.93006
G1 X0.695 Y-30.071 E50.04346
G0 F10020 X1.157 Y-29.879
G1 F2940 X1.292 Y-30.207 E50.06558
G1 X2.277 Y-31.813 E50.18308
G1 X2.462 Y-32.115 E50.20516
G1 X3.685 Y-33.548 E50.32265
G1 X3.917 Y-33.819 E50.34490
G1 X5.348 Y-35.041 E50.46225
G1 X5.617 Y-35.271 E50.48432
G1 X7.271 Y-36.285 E50.60531
G1 X7.616 Y-36.480 E50.63002
G1 X9.533 Y-37.273 E50.75940
G1 X11.395 Y-37.728 E50.87893
G1 X11.753 Y-37.818 E50.90195
G1 X13.645 Y-37.967 E51.02031
G1 X13.645 Y-37.966 E51.02037
G1 X13.997 Y-37.995 E51.04240
G1 X15.880 Y-37.847 E51.16019
G1 X16.232 Y-37.818 E51.18222
G1 X18.076 Y-37.377 E51.30046
G1 X18.420 Y-37.291 E51.32257
G1 X20.142 Y-36.578 E51.43880
G1 X20.472 Y-36.442 E51.46106
G1 X22.076 Y-35.458 E51.57841
G1 X22.380 Y-35.272 E51.60064
G1 X23.813 Y-34.049 E51.71812
G1 X24.084 Y-33.817 E51.74037
G1 X25.304 Y-32.388 E51.85755
G1 X25.536 Y-32.117 E51.87979
G1 X26.521 Y-30.510 E51.99734
G1 X26.706 Y-30.207 E52.01948
G1 X27.426 Y-28.468 E52.13686
G1 X27.562 Y-28.139 E52.15906
G1 X28.001 Y-26.308 E52.27648
G1 X28.083 Y-25.981 E52.29750
G1 X28.250 Y-23.863 E52.43000
G1 X28.250 Y37.985 E56.28701
G1 X-28.250 Y37.985 E59.81050
G1 X-28.250 Y-23.862 E63.66745
G1 X-28.113 Y-25.608 E63.77667
G1 X-28.081 Y-25.977 E63.79977
G1 X-27.642 Y-27.811 E63.91738
G1 X-27.556 Y-28.155 E63.93949
G1 X-26.842 Y-29.879 E64.05586
G1 X-26.707 Y-30.207 E64.07798
G1 X-25.722 Y-31.813 E64.19547
G1 X-25.537 Y-32.115 E64.21756
G1 X-24.314 Y-33.548 E64.33504
G1 X-24.082 Y-33.819 E64.35729
G1 X-22.651 Y-35.041 E64.47464
G1 X-22.382 Y-35.271 E64.49671
G1 X-20.728 Y-36.285 E64.61770
G1 X-20.383 Y-36.480 E64.64242
G1 X-18.466 Y-37.273 E64.77179
G1 X-16.604 Y-37.728 E64.89133
G1 X-16.246 Y-37.818 E64.91435
G1 X-14.355 Y-37.967 E65.03264
G1 X-14.355 Y-37.966 E65.03270
G1 X-14.003 Y-37.995 E65.05473
G1 X-12.119 Y-37.847 E65.17258
G1 X-11.767 Y-37.818 E65.19461
G1 X-9.923 Y-37.377 E65.31285
G1 X-9.579 Y-37.291 E65.33496
G1 X-7.857 Y-36.578 E65.45119
G1 X-7.527 Y-36.442 E65.47345
G1 X-5.923 Y-35.458 E65.59080
G1 X-5.619 Y-35.272 E65.61303
G1 X-4.186 Y-34.049 E65.73052
G1 X-3.915 Y-33.817 E65.75276
G1 X-2.695 Y-32.388 E65.86994
G1 X-2.463 Y-32.117 E65.89219
G1 X-1.478 Y-30.510 E66.00973
G1 X-1.293 Y-30.207 E66.03187
G1 X-0.573 Y-28.468 E66.14925
G1 X-0.437 Y-28.139 E66.17145
G1 X0.000 Y-26.318 E66.28824
G1 X0.357 Y-27.811 E66.38397
G1 X0.443 Y-28.155 E66.40608
G1 X1.157 Y-29.879 E66.52245
G0 F10020 X1.619 Y-29.688
G1 F2940 X1.739 Y-29.979 E66.54208
G1 X2.703 Y-31.552 E66.65713
G1 X2.867 Y-31.820 E66.67673
G1 X4.065 Y-33.223 E66.79178
G1 X4.271 Y-33.464 E66.81155
G1 X5.673 Y-34.661 E66.92652
G1 X5.912 Y-34.865 E66.94611
G1 X7.525 Y-35.854 E67.06411
G1 X7.836 Y-36.030 E67.08639
G1 X9.689 Y-36.796 E67.21143
G1 X11.516 Y-37.243 E67.32873
G1 X11.834 Y-37.322 E67.34917
G1 X13.679 Y-37.468 E67.46458
G1 X13.997 Y-37.494 E67.48448
G1 X15.840 Y-37.348 E67.59978
G1 X16.153 Y-37.323 E67.61936
G1 X17.957 Y-36.891 E67.73504
G1 X18.263 Y-36.815 E67.75470
G1 X19.951 Y-36.116 E67.86864
G1 X20.244 Y-35.995 E67.88841
G1 X21.815 Y-35.032 E68.00332
G1 X22.085 Y-34.867 E68.02306
G1 X23.488 Y-33.669 E68.13811
G1 X23.729 Y-33.463 E68.15788
G1 X24.924 Y-32.063 E68.27267
G1 X25.130 Y-31.822 E68.29244
G1 X26.094 Y-30.249 E68.40749
G1 X26.259 Y-29.979 E68.42723
G1 X26.964 Y-28.277 E68.54211
G1 X27.085 Y-27.984 E68.56188
G1 X27.508 Y-26.218 E68.67513
G1 X27.587 Y-25.900 E68.69557
G1 X27.750 Y-23.844 E68.82419
G1 X27.750 Y37.485 E72.64883
G1 X0.250 Y37.485 E74.36381
G1 X0.250 Y-23.843 E78.18839
G1 X0.410 Y-25.885 E78.31612
G1 X0.843 Y-27.692 E78.43200
G1 X0.919 Y-27.998 E78.45167
G1 X1.619 Y-29.688 E78.56574
G0 F10020 X2.081 Y-29.497
G1 F2940 X2.186 Y-29.752 E78.58294
G1 X3.130 Y-31.291 E78.69553
G1 X3.273 Y-31.526 E78.71269
G1 X4.445 Y-32.899 E78.82527
G1 X4.626 Y-33.110 E78.84260
G1 X5.997 Y-34.280 E78.95500
G1 X6.207 Y-34.459 E78.97221
G1 X7.779 Y-35.423 E79.08721
G1 X8.055 Y-35.579 E79.10698
G1 X9.845 Y-36.320 E79.22780
G1 X11.649 Y-36.761 E79.34361
G1 X11.915 Y-36.827 E79.36070
G1 X13.720 Y-36.970 E79.47362
G1 X13.998 Y-36.992 E79.49101
G1 X15.800 Y-36.850 E79.60374
G1 X16.075 Y-36.828 E79.62094
G1 X17.838 Y-36.406 E79.73400
G1 X18.106 Y-36.338 E79.75124
G1 X19.760 Y-35.654 E79.86286
G1 X20.017 Y-35.548 E79.88019
G1 X21.554 Y-34.605 E79.99265
G1 X21.791 Y-34.461 E80.00994
G1 X23.164 Y-33.289 E80.12252
G1 X23.375 Y-33.108 E80.13986
G1 X24.544 Y-31.738 E80.25217
G1 X24.724 Y-31.527 E80.26947
G1 X25.668 Y-29.988 E80.38206
G1 X25.812 Y-29.752 E80.39930
G1 X26.502 Y-28.086 E80.51175
G1 X26.608 Y-27.830 E80.52903
G1 X27.023 Y-26.097 E80.64016
G1 X27.092 Y-25.819 E80.65803
G1 X27.250 Y-23.824 E80.78283
G1 X27.250 Y36.985 E84.57505
G1 X0.750 Y36.985 E86.22766
G1 X0.750 Y-23.823 E90.01981
G1 X0.906 Y-25.807 E90.14392
G1 X1.328 Y-27.573 E90.25716
G1 X1.396 Y-27.841 E90.27440
G1 X2.081 Y-29.497 E90.38616
G0 F10020 X2.544 Y-29.306
G1 F2940 X2.633 Y-29.524 E90.40084
G1 X3.556 Y-31.029 E90.51094
G1 X3.679 Y-31.231 E90.52569
G1 X4.826 Y-32.574 E90.63583
G1 X4.980 Y-32.755 E90.65065
G1 X6.322 Y-33.900 E90.76067
G1 X6.502 Y-34.054 E90.77544
G1 X8.033 Y-34.992 E90.88741
G1 X8.275 Y-35.129 E90.90476
G1 X10.001 Y-35.843 E91.02124
G1 X11.759 Y-36.273 E91.13411
G1 X11.996 Y-36.332 E91.14934
G1 X13.763 Y-36.472 E91.25988
G1 X13.763 Y-36.471 E91.25994
G1 X13.998 Y-36.491 E91.27465
G1 X15.760 Y-36.351 E91.38488
G1 X15.996 Y-36.332 E91.39964
G1 X17.719 Y-35.920 E91.51012
G1 X17.949 Y-35.862 E91.52491
G1 X19.571 Y-35.191 E91.63438
G1 X19.571 Y-35.190 E91.63444
G1 X19.789 Y-35.101 E91.64913
G1 X21.293 Y-34.179 E91.75914
G1 X21.496 Y-34.055 E91.77398
G1 X22.839 Y-32.908 E91.88412
G1 X23.020 Y-32.754 E91.89894
G1 X24.164 Y-31.413 E92.00886
G1 X24.319 Y-31.232 E92.02373
G1 X25.241 Y-29.727 E92.13379
G1 X25.365 Y-29.524 E92.14863
G1 X26.040 Y-27.895 E92.25859
G1 X26.131 Y-27.675 E92.27344
G1 X26.538 Y-25.975 E92.38245
G1 X26.597 Y-25.738 E92.39768
G1 X26.750 Y-23.804 E92.51867
G1 X26.750 Y36.485 E96.27846
G1 X1.250 Y36.485 E97.86871
G1 X1.250 Y-23.804 E101.62850
G1 X1.401 Y-25.729 E101.74891
G1 X1.814 Y-27.454 E101.85953
G1 X1.872 Y-27.684 E101.87432
G1 X2.543 Y-29.306 E101.98379
G1 X2.544 Y-29.306 E101.98385
G0 F10020 X3.005 Y-29.114
G1 F2940 X3.080 Y-29.297 E101.99618
G1 X4.086 Y-30.937 E102.11617
G1 X5.206 Y-32.249 E102.22375
G1 X5.335 Y-32.400 E102.23613
G1 X6.646 Y-33.520 E102.34366
G1 X6.646 Y-33.519 E102.34372
G1 X6.797 Y-33.648 E102.35611
G1 X8.287 Y-34.561 E102.46509
G1 X8.494 Y-34.679 E102.47995
G1 X10.156 Y-35.367 E102.59212
G1 X11.880 Y-35.788 E102.70280
G1 X12.077 Y-35.837 E102.71545
G1 X13.800 Y-35.973 E102.82324
G1 X13.999 Y-35.989 E102.83569
G1 X15.721 Y-35.853 E102.94341
G1 X15.917 Y-35.837 E102.95568
G1 X17.600 Y-35.434 E103.06360
G1 X17.792 Y-35.386 E103.07594
G1 X19.379 Y-34.729 E103.18306
G1 X19.562 Y-34.654 E103.19539
G1 X21.202 Y-33.648 E103.31538
G1 X22.514 Y-32.528 E103.42295
G1 X22.665 Y-32.399 E103.43534
G1 X23.785 Y-31.088 E103.54287
G1 X23.784 Y-31.088 E103.54293
G1 X23.913 Y-30.937 E103.55532
G1 X24.918 Y-29.297 E103.67527
G1 X25.578 Y-27.704 E103.78280
G1 X25.654 Y-27.520 E103.79522
G1 X26.053 Y-25.854 E103.90205
G1 X26.102 Y-25.657 E103.91471
G1 X26.250 Y-23.784 E104.03188
G1 X26.250 Y35.985 E107.75924
G1 X1.750 Y35.985 E109.28713
G1 X1.750 Y-23.784 E113.01449
G1 X1.897 Y-25.651 E113.13128
G1 X2.300 Y-27.335 E113.23926
G1 X2.348 Y-27.527 E113.25160
G1 X3.005 Y-29.114 E113.35872
G0 F10020 X3.528 Y-29.070
G1 F2940 X4.491 Y-30.642 E113.47369
G1 X5.689 Y-32.045 E113.58874
G1 X7.092 Y-33.243 E113.70379
G1 X8.540 Y-34.130 E113.80969
G1 X8.714 Y-34.228 E113.82214
G1 X10.312 Y-34.890 E113.93001
G1 X12.005 Y-35.304 E114.03870
G1 X12.158 Y-35.342 E114.04853
G1 X13.841 Y-35.475 E114.15382
G1 X13.999 Y-35.487 E114.16370
G1 X15.681 Y-35.355 E114.26891
G1 X15.838 Y-35.342 E114.27874
G1 X17.481 Y-34.949 E114.38409
G1 X17.635 Y-34.910 E114.39400
G1 X19.335 Y-34.206 E114.50875
G1 X20.907 Y-33.243 E114.62371
G1 X22.310 Y-32.045 E114.73877
G1 X23.508 Y-30.642 E114.85382
G1 X24.471 Y-29.070 E114.96878
G1 X25.177 Y-27.366 E115.08381
G1 X25.567 Y-25.733 E115.18851
G1 X25.568 Y-25.733 E115.18858
G1 X25.607 Y-25.576 E115.19866
G1 X25.750 Y-23.765 E115.31195
G1 X25.750 Y35.485 E119.00695
G1 X2.250 Y35.485 E120.47247
G1 X2.250 Y-23.764 E124.16740
G1 X2.392 Y-25.572 E124.28050
G1 X2.785 Y-27.216 E124.38591
G1 X2.824 Y-27.370 E124.39582
G1 X3.528 Y-29.070 E124.51057
G0 F10020 X3.975 Y-28.842
G1 F2940 X4.897 Y-30.347 E124.62064
G1 X6.044 Y-31.690 E124.73078
G1 X7.387 Y-32.837 E124.84092
G1 X8.794 Y-33.699 E124.94382
G1 X8.933 Y-33.778 E124.95379
G1 X10.468 Y-34.413 E125.05739
G1 X12.122 Y-34.818 E125.16358
G1 X12.239 Y-34.847 E125.17110
G1 X14.000 Y-34.986 E125.28126
G1 X15.759 Y-34.847 E125.39130
