;Generated with Cura_SteamEngine 15.01
; Default start code
G28 ; Home extruder
G29;
G1 Z15 F100
G90 ; Absolute positioning
M82 ; Extruder in absolute mode
M190 S60
; Activate all used extruder
M104 T0 S210
G92 E0 ; Reset extruder position
; Wait for all used extruders to reach temperature
M109 T0 S210
;Layer count: 180
;LAYER:0
M107
G0 F10020 X42.711 Y1.250 Z0.300
;TYPE:SKIRT
G1 F2940 X42.712 Y30.250 E1.80852
G1 X-42.711 Y30.250 E7.13573
G1 X-42.712 Y-1.250 E9.10016
G1 X-42.711 Y-1.250 E9.10022
G1 X-42.712 Y-30.250 E10.90874
G1 X42.711 Y-30.250 E16.23596
G1 X42.712 Y1.250 E18.20038
G1 X42.711 Y1.250 E18.20044
G0 F10020 X42.211 Y0.750
G1 F2940 X42.212 Y29.750 E20.00896
G1 X-42.211 Y29.750 E25.27382
G1 X-42.212 Y-0.750 E27.17588
G1 X-42.211 Y-0.750 E27.17594
G1 X-42.212 Y-29.750 E28.98446
G1 X42.211 Y-29.750 E34.24931
G1 X42.212 Y0.750 E36.15138
G1 X42.211 Y0.750 E36.15144
G0 F10020 X41.711 Y0.250
G1 F2940 X41.712 Y29.250 E37.95996
G1 X-41.711 Y29.250 E43.16245
G1 X-41.712 Y-0.250 E45.00215
G1 X-41.711 Y-0.250 E45.00221
G1 X-41.712 Y-29.250 E46.81073
G1 X41.711 Y-29.250 E52.01322
G1 X41.712 Y0.250 E53.85292
G1 X41.711 Y0.250 E53.85298
G0 F10020 X41.211 Y0.250
G1 F2940 X41.212 Y28.750 E55.63032
G1 X-41.211 Y28.750 E60.77045
G1 X-41.212 Y0.250 E62.54778
G1 X41.211 Y0.250 E67.68791
G0 F10020 X41.212 Y-0.250
G1 F2940 X-41.211 Y-0.250 E72.82803
G1 X-41.212 Y-28.750 E74.60537
G1 X41.211 Y-28.750 E79.74550
G1 X41.212 Y-0.250 E81.52284
G0 F10020 X40.712 Y-0.750
G1 F2940 X-40.711 Y-0.750 E86.60060
G1 X-40.712 Y-28.250 E88.31557
G1 X40.711 Y-28.250 E93.39334
G1 X40.712 Y-0.750 E95.10831
G0 F10020 X40.212 Y-1.250
G1 F2940 X-40.211 Y-1.250 E100.12371
G1 X-40.212 Y-27.750 E101.77633
G1 X40.211 Y-27.750 E106.79172
G1 X40.212 Y-1.250 E108.44434
G0 F10020 X39.712 Y-1.750
G1 F2940 X-39.711 Y-1.750 E113.39737
G1 X-39.712 Y-27.250 E114.98762
G1 X39.711 Y-27.250 E119.94066
G1 X39.712 Y-1.750 E121.53091
G0 F10020 X39.212 Y-2.250
G1 F2940 X-39.211 Y-2.250 E126.42159
G1 X-39.212 Y-26.750 E127.94947
G1 X39.211 Y-26.750 E132.84015
G1 X39.212 Y-2.250 E134.36804
G0 F10020 X38.712 Y-2.750
G1 F2940 X-38.711 Y-2.750 E139.19635
G1 X-38.712 Y-26.250 E140.66187
G1 X38.711 Y-26.250 E145.49018
G1 X38.712 Y-2.750 E146.95571
G0 F10020 X38.212 Y-3.250
G1 F2940 X-38.211 Y-3.250 E151.72166
G1 X-38.212 Y-25.750 E153.12482
G1 X38.211 Y-25.750 E157.89077
G1 X38.212 Y-3.250 E159.29393
G0 F10020 X40.711 Y0.750
G1 F2940 X40.712 Y28.250 E161.00890
G1 X-40.711 Y28.250 E166.08667
G1 X-40.712 Y0.750 E167.80164
G1 X40.711 Y0.750 E172.87941
G0 F10020 X40.211 Y1.250
G1 F2940 X40.212 Y27.750 E174.53202
G1 X-40.211 Y27.750 E179.54742
G1 X-40.212 Y1.250 E181.20003
G1 X40.211 Y1.250 E186.21543
G0 F10020 X39.711 Y1.750
G1 F2940 X39.712 Y27.250 E187.80568
G1 X-39.711 Y27.250 E192.75872
G1 X-39.712 Y1.750 E194.34897
G1 X39.711 Y1.750 E199.30200
G0 F10020 X39.211 Y2.250
G1 F2940 X39.212 Y26.750 E200.82989
G1 X-39.211 Y26.750 E205.72057
G1 X-39.212 Y2.250 E207.24845
G1 X39.211 Y2.250 E212.13913
G0 F10020 X38.711 Y2.750
G1 F2940 X38.712 Y26.250 E213.60465
G1 X-38.711 Y26.250 E218.43296
G1 X-38.712 Y2.750 E219.89849
G1 X38.711 Y2.750 E224.72680
G0 F10020 X38.211 Y3.250
G1 F2940 X38.212 Y25.750 E226.12996
G1 X-38.211 Y25.750 E230.89591
G1 X-38.212 Y3.250 E232.29907
G1 X38.211 Y3.250 E237.06502
G0 F10020 X31.536 Y10.551
G1 F2940 X31.209 Y10.273 E237.09179
G1 X30.847 Y10.052 E237.11824
G1 X30.449 Y9.888 E237.14508
G1 X30.106 Y9.800 E237.16717
G1 X29.694 Y9.908 E237.19373
G1 X29.263 Y10.104 E237.22325
G1 X28.878 Y10.365 E237.25226
G1 X28.540 Y10.693 E237.28163
G1 X28.260 Y11.075 E237.31117
G1 X28.053 Y11.491 E237.34015
G1 X27.918 Y11.946 E237.36974
G1 X27.864 Y12.401 E237.39832
G1 X27.890 Y12.900 E237.42948
G1 X27.889 Y12.900 E237.42954
G1 X27.991 Y14.375 E237.52175
G1 X28.001 Y14.499 E237.52951
G1 X27.897 Y15.994 E237.62296
G1 X27.898 Y15.994 E237.62303
G1 X27.864 Y16.594 E237.66050
G1 X27.918 Y17.053 E237.68933
G1 X28.053 Y17.508 E237.71892
G1 X28.260 Y17.924 E237.74790
G1 X28.540 Y18.306 E237.77744
G1 X28.878 Y18.634 E237.80681
G1 X29.263 Y18.895 E237.83582
G1 X29.694 Y19.091 E237.86534
G1 X30.104 Y19.198 E237.89177
G1 X30.506 Y19.092 E237.91769
G1 X30.891 Y18.923 E237.94392
G1 X31.257 Y18.690 E237.97097
G1 X31.575 Y18.409 E237.99744
G1 X31.846 Y18.080 E238.02402
G1 X32.054 Y17.737 E238.04904
G1 X32.223 Y17.313 E238.07750
G1 X32.316 Y16.926 E238.10232
G1 X32.349 Y16.500 E238.12897
G1 X32.349 Y12.767 E238.36177
G1 X32.347 Y12.480 E238.37967
G1 X32.309 Y12.043 E238.40702
G1 X32.216 Y11.657 E238.43178
G1 X32.040 Y11.238 E238.46012
G1 X31.814 Y10.873 E238.48690
G1 X31.536 Y10.551 E238.51343
G0 F10020 X30.104 Y-9.801
G1 F2940 X30.506 Y-9.907 E238.53935
G1 X30.891 Y-10.076 E238.56557
G1 X31.257 Y-10.309 E238.59263
G1 X31.575 Y-10.590 E238.61910
G1 X31.846 Y-10.919 E238.64568
G1 X32.054 Y-11.262 E238.67069
G1 X32.223 Y-11.686 E238.69916
G1 X32.316 Y-12.073 E238.72398
G1 X32.349 Y-12.500 E238.75069
G1 X32.349 Y-16.233 E238.98349
G1 X32.347 Y-16.520 E239.00139
G1 X32.309 Y-16.956 E239.02868
G1 X32.216 Y-17.342 E239.05344
G1 X32.040 Y-17.761 E239.08178
G1 X31.814 Y-18.126 E239.10856
G1 X31.536 Y-18.448 E239.13508
G1 X31.209 Y-18.726 E239.16185
G1 X30.847 Y-18.947 E239.18830
G1 X30.449 Y-19.111 E239.21515
G1 X30.106 Y-19.199 E239.23723
G1 X29.694 Y-19.091 E239.26379
G1 X29.263 Y-18.895 E239.29332
G1 X28.878 Y-18.634 E239.32232
G1 X28.540 Y-18.306 E239.35170
G1 X28.260 Y-17.924 E239.38123
G1 X28.053 Y-17.508 E239.41021
G1 X27.918 Y-17.053 E239.43981
G1 X27.864 Y-16.598 E239.46838
G1 X27.890 Y-16.099 E239.49954
G1 X27.889 Y-16.099 E239.49961
G1 X27.991 Y-14.625 E239.59175
G1 X28.001 Y-14.501 E239.59951
G1 X27.897 Y-13.005 E239.69303
G1 X27.898 Y-13.005 E239.69309
G1 X27.864 Y-12.405 E239.73057
G1 X27.918 Y-11.946 E239.75939
G1 X28.053 Y-11.491 E239.78899
G1 X28.260 Y-11.075 E239.81796
G1 X28.540 Y-10.693 E239.84750
G1 X28.878 Y-10.365 E239.87687
G1 X29.263 Y-10.104 E239.90588
G1 X29.694 Y-9.908 E239.93541
G1 X30.104 Y-9.801 E239.96183
G0 F10020 X4.609 Y-12.899
G1 F2940 X4.610 Y-12.899 E239.96189
G1 X4.509 Y-14.377 E240.05428
G1 X4.499 Y-14.499 E240.06191
G1 X4.602 Y-15.995 E240.15543
G1 X4.601 Y-15.995 E240.15549
G1 X4.636 Y-16.593 E240.19285
G1 X4.581 Y-17.052 E240.22168
G1 X4.446 Y-17.507 E240.25128
G1 X4.240 Y-17.924 E240.28028
G1 X3.961 Y-18.304 E240.30968
G1 X3.621 Y-18.633 E240.33918
G1 X3.242 Y-18.893 E240.36785
G1 X2.807 Y-19.090 E240.39763
G1 X2.354 Y-19.209 E240.42684
G1 X1.879 Y-19.250 E240.45657
G1 X-29.588 Y-19.250 E242.41894
G1 X-30.060 Y-19.209 E242.44848
G1 X-30.472 Y-19.104 E242.47500
G1 X-30.869 Y-18.935 E242.50191
G1 X-31.237 Y-18.705 E242.52897
G1 X-31.563 Y-18.421 E242.55593
G1 X-31.841 Y-18.089 E242.58294
G1 X-32.059 Y-17.725 E242.60940
G1 X-32.221 Y-17.322 E242.63648
G1 X-32.316 Y-16.929 E242.66170
G1 X-32.349 Y-16.500 E242.68853
G1 X-32.349 Y-12.767 E242.92133
G1 X-32.347 Y-12.480 E242.93923
G1 X-32.309 Y-12.039 E242.96683
G1 X-32.204 Y-11.627 E242.99335
G1 X-32.035 Y-11.230 E243.02026
G1 X-31.805 Y-10.862 E243.04732
G1 X-31.521 Y-10.536 E243.07428
G1 X-31.189 Y-10.258 E243.10129
G1 X-30.825 Y-10.040 E243.12775
G1 X-30.420 Y-9.877 E243.15497
G1 X-30.029 Y-9.783 E243.18005
G1 X-29.593 Y-9.750 E243.20732
G1 X1.879 Y-9.750 E245.17000
G1 X2.354 Y-9.790 E245.19973
G1 X2.807 Y-9.909 E245.22893
G1 X3.242 Y-10.106 E245.25871
G1 X3.621 Y-10.366 E245.28738
G1 X3.961 Y-10.695 E245.31688
G1 X4.240 Y-11.075 E245.34628
G1 X4.446 Y-11.492 E245.37529
G1 X4.581 Y-11.947 E245.40488
G1 X4.636 Y-12.407 E245.43378
G1 X4.609 Y-12.899 E245.46450
G0 F10020 X4.110 Y-12.872
G1 F2940 X4.010 Y-14.343 E245.55645
G1 X3.998 Y-14.497 E245.56608
G1 X4.103 Y-16.024 E245.66154
G1 X4.102 Y-16.024 E245.66160
G1 X4.134 Y-16.578 E245.69621
G1 X4.089 Y-16.954 E245.71982
G1 X3.978 Y-17.325 E245.74397
G1 X3.811 Y-17.664 E245.76754
G1 X3.583 Y-17.976 E245.79164
G1 X3.308 Y-18.242 E245.81550
G1 X2.994 Y-18.456 E245.83919
G1 X2.636 Y-18.619 E245.86373
G1 X2.271 Y-18.714 E245.88725
G1 X1.859 Y-18.750 E245.91304
G1 X-29.567 Y-18.750 E247.87285
G1 X-29.975 Y-18.714 E247.89839
G1 X-30.313 Y-18.629 E247.92013
G1 X-30.637 Y-18.491 E247.94209
G1 X-30.940 Y-18.301 E247.96439
G1 X-31.205 Y-18.070 E247.98632
G1 X-31.431 Y-17.800 E248.00828
G1 X-31.610 Y-17.501 E248.03001
G1 X-31.744 Y-17.168 E248.05239
G1 X-31.819 Y-16.855 E248.07246
G1 X-31.849 Y-16.469 E248.09661
G1 X-31.849 Y-12.767 E248.32748
G1 X-31.847 Y-12.502 E248.34400
G1 X-31.814 Y-12.124 E248.36767
G1 X-31.729 Y-11.786 E248.38940
G1 X-31.591 Y-11.462 E248.41136
G1 X-31.401 Y-11.159 E248.43367
G1 X-31.170 Y-10.894 E248.45559
G1 X-30.900 Y-10.668 E248.47755
G1 X-30.601 Y-10.489 E248.49928
G1 X-30.268 Y-10.355 E248.52167
G1 X-29.955 Y-10.280 E248.54174
G1 X-29.568 Y-10.250 E248.56594
G1 X1.861 Y-10.250 E250.52594
G1 X2.272 Y-10.285 E250.55167
G1 X2.636 Y-10.380 E250.57513
G1 X2.994 Y-10.543 E250.59966
G1 X3.308 Y-10.757 E250.62336
G1 X3.583 Y-11.023 E250.64722
G1 X3.811 Y-11.335 E250.67131
G1 X3.978 Y-11.674 E250.69488
G1 X4.089 Y-12.045 E250.71903
G1 X4.134 Y-12.427 E250.74302
G1 X4.110 Y-12.872 E250.77081
G0 F10020 X3.611 Y-12.845
G1 F2940 X3.511 Y-14.309 E250.86232
G1 X3.497 Y-14.495 E250.87395
G1 X3.604 Y-16.065 E250.97209
G1 X3.633 Y-16.560 E251.00301
G1 X3.598 Y-16.852 E251.02135
G1 X3.512 Y-17.140 E251.04010
G1 X3.382 Y-17.403 E251.05839
G1 X3.203 Y-17.647 E251.07727
G1 X2.991 Y-17.852 E251.09566
G1 X2.747 Y-18.019 E251.11410
G1 X2.471 Y-18.145 E251.13302
G1 X2.183 Y-18.220 E251.15158
G1 X1.839 Y-18.250 E251.17311
G1 X-29.546 Y-18.250 E253.13037
G1 X-29.889 Y-18.220 E253.15184
G1 X-30.155 Y-18.153 E253.16894
G1 X-30.407 Y-18.045 E253.18604
G1 X-30.637 Y-17.901 E253.20296
G1 X-30.846 Y-17.719 E253.22025
G1 X-31.024 Y-17.507 E253.23751
G1 X-31.160 Y-17.279 E253.25407
G1 X-31.267 Y-17.013 E253.27195
G1 X-31.325 Y-16.774 E253.28728
G1 X-31.349 Y-16.456 E253.30717
G1 X-31.349 Y-12.767 E253.53723
G1 X-31.347 Y-12.524 E253.55238
G1 X-31.320 Y-12.210 E253.57204
G1 X-31.253 Y-11.944 E253.58914
G1 X-31.145 Y-11.692 E253.60624
G1 X-31.001 Y-11.462 E253.62316
G1 X-30.819 Y-11.253 E253.64045
G1 X-30.607 Y-11.075 E253.65771
G1 X-30.379 Y-10.939 E253.67427
G1 X-30.113 Y-10.832 E253.69215
G1 X-29.874 Y-10.774 E253.70748
G1 X-29.556 Y-10.750 E253.72737
G1 X1.830 Y-10.750 E255.68469
G1 X2.189 Y-10.780 E255.70716
G1 X2.471 Y-10.854 E255.72534
G1 X2.747 Y-10.980 E255.74426
G1 X2.993 Y-11.148 E255.76284
G1 X3.203 Y-11.352 E255.78109
G1 X3.382 Y-11.596 E255.79997
G1 X3.512 Y-11.859 E255.81826
G1 X3.598 Y-12.147 E255.83701
G1 X3.633 Y-12.443 E255.85559
G1 X3.611 Y-12.845 E255.88070
G0 F10020 X3.113 Y-12.794
G1 F2940 X3.012 Y-14.275 E255.97328
G1 X2.995 Y-14.494 E255.98697
G1 X3.105 Y-16.099 E256.08730
G1 X3.131 Y-16.541 E256.11491
G1 X3.105 Y-16.754 E256.12829
G1 X3.047 Y-16.951 E256.14110
G1 X2.951 Y-17.145 E256.15460
G1 X2.826 Y-17.315 E256.16776
G1 X2.671 Y-17.465 E256.18121
G1 X2.499 Y-17.583 E256.19422
G1 X2.306 Y-17.671 E256.20745
G1 X2.100 Y-17.725 E256.22073
G1 X1.808 Y-17.750 E256.23900
G1 X-29.526 Y-17.750 E258.19308
G1 X-29.804 Y-17.726 E258.21048
G1 X-29.995 Y-17.677 E258.22278
G1 X-30.175 Y-17.601 E258.23496
G1 X-30.340 Y-17.497 E258.24712
G1 X-30.488 Y-17.368 E258.25937
G1 X-30.614 Y-17.218 E258.27159
G1 X-30.712 Y-17.055 E258.28345
G1 X-30.790 Y-16.860 E258.29654
G1 X-30.828 Y-16.700 E258.30680
G1 X-30.849 Y-16.431 E258.32363
G1 X-30.849 Y-12.767 E258.55212
G1 X-30.847 Y-12.546 E258.56591
G1 X-30.826 Y-12.295 E258.58161
G1 X-30.777 Y-12.104 E258.59391
G1 X-30.701 Y-11.924 E258.60610
G1 X-30.597 Y-11.759 E258.61826
G1 X-30.468 Y-11.611 E258.63050
G1 X-30.318 Y-11.485 E258.64272
G1 X-30.155 Y-11.387 E258.65458
G1 X-29.960 Y-11.309 E258.66768
G1 X-29.800 Y-11.271 E258.67793
G1 X-29.530 Y-11.250 E258.69482
G1 X1.812 Y-11.250 E260.64940
G1 X2.100 Y-11.274 E260.66742
G1 X2.306 Y-11.328 E260.68070
G1 X2.499 Y-11.416 E260.69393
G1 X2.671 Y-11.534 E260.70693
G1 X2.826 Y-11.684 E260.72039
G1 X2.951 Y-11.854 E260.73355
G1 X3.047 Y-12.048 E260.74704
G1 X3.105 Y-12.245 E260.75985
G1 X3.131 Y-12.463 E260.77354
G1 X3.113 Y-12.794 E260.79421
G0 F10020 X2.612 Y-12.790
G1 F2940 X2.513 Y-14.241 E260.88491
G1 X2.494 Y-14.492 E260.90061
G1 X2.606 Y-16.133 E261.00319
G1 X2.629 Y-16.527 E261.02780
G1 X2.615 Y-16.647 E261.03533
G1 X2.577 Y-16.773 E261.04354
G1 X2.522 Y-16.886 E261.05138
G1 X2.448 Y-16.986 E261.05914
G1 X2.358 Y-17.074 E261.06699
G1 X2.252 Y-17.146 E261.07498
G1 X2.134 Y-17.200 E261.08307
G1 X2.018 Y-17.230 E261.09054
G1 X1.788 Y-17.250 E261.10494
G1 X-29.504 Y-17.250 E263.05640
G1 X-29.719 Y-17.231 E263.06986
G1 X-29.836 Y-17.202 E263.07737
G1 X-29.940 Y-17.157 E263.08444
G1 X-30.046 Y-17.091 E263.09223
G1 X-30.127 Y-17.021 E263.09890
G1 X-30.206 Y-16.926 E263.10661
G1 X-30.263 Y-16.831 E263.11352
G1 X-30.309 Y-16.716 E263.12124
G1 X-30.334 Y-16.613 E263.12785
G1 X-30.349 Y-16.419 E263.13999
G1 X-30.349 Y-12.767 E263.36773
G1 X-30.348 Y-12.569 E263.38008
G1 X-30.331 Y-12.380 E263.39192
G1 X-30.302 Y-12.263 E263.39943
G1 X-30.257 Y-12.159 E263.40650
G1 X-30.191 Y-12.053 E263.41429
G1 X-30.121 Y-11.972 E263.42096
G1 X-30.026 Y-11.893 E263.42867
G1 X-29.931 Y-11.836 E263.43558
G1 X-29.814 Y-11.789 E263.44344
G1 X-29.713 Y-11.765 E263.44992
G1 X-29.518 Y-11.750 E263.46211
G1 X1.794 Y-11.750 E265.41481
G1 X2.019 Y-11.769 E265.42890
G1 X2.134 Y-11.799 E265.43631
G1 X2.252 Y-11.853 E265.44440
G1 X2.358 Y-11.925 E265.45239
G1 X2.448 Y-12.013 E265.46024
G1 X2.522 Y-12.113 E265.46800
G1 X2.577 Y-12.226 E265.47584
G1 X2.615 Y-12.352 E265.48404
G1 X2.629 Y-12.473 E265.49164
G1 X2.612 Y-12.790 E265.51144
G0 F10020 X2.115 Y-12.726
G1 F2940 X2.014 Y-14.207 E265.60401
G1 X1.993 Y-14.490 E265.62171
G1 X2.107 Y-16.167 E265.72653
G1 X2.108 Y-16.167 E265.72660
G1 X2.128 Y-16.514 E265.74827
G1 X2.124 Y-16.543 E265.75010
G1 X2.111 Y-16.589 E265.75308
G1 X2.093 Y-16.624 E265.75553
G1 X2.071 Y-16.654 E265.75785
G1 X2.038 Y-16.687 E265.76076
G1 X2.004 Y-16.710 E265.76332
G1 X1.968 Y-16.726 E265.76578
G1 X1.930 Y-16.736 E265.76823
G1 X1.768 Y-16.750 E265.77837
G1 X-29.483 Y-16.750 E267.72727
G1 X-29.635 Y-16.737 E267.73678
G1 X-29.676 Y-16.726 E267.73943
G1 X-29.713 Y-16.711 E267.74192
G1 X-29.741 Y-16.693 E267.74400
G1 X-29.771 Y-16.667 E267.74647
G1 X-29.796 Y-16.637 E267.74891
G1 X-29.812 Y-16.611 E267.75081
G1 X-29.832 Y-16.562 E267.75411
G1 X-29.838 Y-16.538 E267.75565
G1 X-29.849 Y-16.394 E267.76466
G1 X-29.849 Y-12.767 E267.99085
G1 X-29.848 Y-12.602 E268.00114
G1 X-29.835 Y-12.459 E268.01009
G1 X-29.827 Y-12.425 E268.01227
G1 X-29.811 Y-12.386 E268.01490
G1 X-29.793 Y-12.358 E268.01698
G1 X-29.766 Y-12.328 E268.01949
G1 X-29.737 Y-12.303 E268.02188
G1 X-29.707 Y-12.285 E268.02406
G1 X-29.662 Y-12.267 E268.02709
G1 X-29.638 Y-12.261 E268.02863
G1 X-29.493 Y-12.250 E268.03770
G1 X1.776 Y-12.250 E269.98772
G1 X1.930 Y-12.263 E269.99736
G1 X1.968 Y-12.273 E269.99981
G1 X2.004 Y-12.289 E270.00226
G1 X2.038 Y-12.312 E270.00482
G1 X2.071 Y-12.345 E270.00773
G1 X2.093 Y-12.375 E270.01005
G1 X2.111 Y-12.410 E270.01251
G1 X2.124 Y-12.456 E270.01549
G1 X2.128 Y-12.488 E270.01750
G1 X2.115 Y-12.726 E270.03237
G0 F10020 X1.517 Y-14.149
G1 F2940 X1.492 Y-14.488 E270.05356
G1 X1.609 Y-16.201 E270.16064
G1 X1.612 Y-16.250 E270.16370
G1 X-29.349 Y-16.250 E272.09451
G1 X-29.349 Y-12.750 E272.31278
G1 X1.613 Y-12.750 E274.24366
G1 X1.518 Y-14.149 E274.33111
G1 X1.517 Y-14.149 E274.33117
G0 F10020 X0.990 Y-14.486
G1 F2940 X1.077 Y-15.750 E274.41018
G1 X-28.849 Y-15.750 E276.27645
G1 X-28.849 Y-13.250 E276.43236
G1 X1.078 Y-13.250 E278.29869
G1 X1.017 Y-14.139 E278.35426
G1 X0.990 Y-14.486 E278.37596
G0 F10020 X0.489 Y-14.485
G1 F2940 X0.541 Y-15.250 E278.42378
G1 X-28.349 Y-15.250 E280.22544
G1 X-28.349 Y-13.750 E280.31898
G1 X0.542 Y-13.750 E282.12071
G1 X0.518 Y-14.105 E282.14290
G1 X0.489 Y-14.485 E282.16666
G0 F10020 X1.879 Y9.750
G1 F2940 X-29.590 Y9.750 E284.12916
G1 X-30.059 Y9.790 E284.15851
G1 X-30.472 Y9.895 E284.18509
G1 X-30.869 Y10.064 E284.21199
G1 X-31.237 Y10.294 E284.23906
G1 X-31.563 Y10.578 E284.26602
G1 X-31.841 Y10.910 E284.29302
G1 X-32.059 Y11.274 E284.31948
