;Generated with Cura_SteamEngine 15.01
; Default start code
G28 ; Home extruder
G29;
G1 Z15 F100
G90 ; Absolute positioning
M82 ; Extruder in absolute mode
M190 S60
; Activate all used extruder
M104 T0 S210
G92 E0 ; Reset extruder position
; Wait for all used extruders to reach temperature
M109 T0 S210
;Layer count: 45
;LAYER:0
M107
G0 F10020 X0.000 Y30.909 Z0.300
;TYPE:SKIRT
G1 F2940 X-1.245 Y32.940 E0.14856
G1 X-2.563 Y34.485 E0.27521
G1 X-2.855 Y34.825 E0.30316
G1 X-4.394 Y36.139 E0.42936
G1 X-4.394 Y36.138 E0.42942
G1 X-4.730 Y36.427 E0.45706
G1 X-6.843 Y37.721 E0.61158
G1 X-8.719 Y38.498 E0.73821
G1 X-9.133 Y38.669 E0.76614
G1 X-11.101 Y39.141 E0.89235
G1 X-11.536 Y39.245 E0.92024
G1 X-13.556 Y39.404 E1.04661
G1 X-13.556 Y39.403 E1.04667
G1 X-13.991 Y39.439 E1.07389
G1 X-16.027 Y39.280 E1.20125
G1 X-16.473 Y39.243 E1.22916
G1 X-18.437 Y38.772 E1.35511
G1 X-18.437 Y38.771 E1.35517
G1 X-18.870 Y38.668 E1.38293
G1 X-20.743 Y37.893 E1.50934
G1 X-20.743 Y37.892 E1.50940
G1 X-21.152 Y37.724 E1.53697
G1 X-23.265 Y36.429 E1.69153
G1 X-24.810 Y35.111 E1.81817
G1 X-25.150 Y34.819 E1.84612
G1 X-26.464 Y33.280 E1.97232
G1 X-26.463 Y33.280 E1.97238
G1 X-26.752 Y32.944 E2.00002
G1 X-28.046 Y30.831 E2.15454
G1 X-28.823 Y28.955 E2.28117
G1 X-28.994 Y28.541 E2.30911
G1 X-29.466 Y26.573 E2.43532
G1 X-29.570 Y26.139 E2.46315
G1 X-29.744 Y23.939 E2.60077
G1 X-29.750 Y20.144 E2.83744
G1 X-29.750 Y-39.424 E6.55227
G1 X29.750 Y-39.424 E10.26285
G1 X29.750 Y23.862 E14.20954
G1 X29.570 Y26.141 E14.35211
G1 X28.993 Y28.546 E14.50634
G1 X28.047 Y30.831 E14.66057
G1 X26.754 Y32.940 E14.81485
G1 X25.147 Y34.822 E14.96918
G1 X23.265 Y36.429 E15.12351
G1 X21.156 Y37.722 E15.27778
G1 X18.871 Y38.668 E15.43201
G1 X16.465 Y39.245 E15.58631
G1 X14.000 Y39.439 E15.74051
G1 X11.534 Y39.245 E15.89477
G1 X9.128 Y38.668 E16.04907
G1 X6.843 Y37.722 E16.20330
G1 X4.734 Y36.429 E16.35757
G1 X2.852 Y34.822 E16.51191
G1 X1.245 Y32.940 E16.66624
G1 X0.000 Y30.909 E16.81480
G0 F10020 X-0.243 Y30.226
G1 F2940 X-0.397 Y30.600 E16.84002
G1 X-1.651 Y32.645 E16.98962
G1 X-2.943 Y34.160 E17.11379
G1 X-3.210 Y34.470 E17.13931
G1 X-4.712 Y35.752 E17.26246
G1 X-4.712 Y35.753 E17.26252
G1 X-5.025 Y36.021 E17.28822
G1 X-7.071 Y37.275 E17.43787
G1 X-8.910 Y38.036 E17.56199
G1 X-9.287 Y38.192 E17.58743
G1 X-11.217 Y38.655 E17.71121
G1 X-11.614 Y38.750 E17.73666
G1 X-13.579 Y38.904 E17.85958
G1 X-13.992 Y38.938 E17.88542
G1 X-15.987 Y38.781 E18.01022
G1 X-16.394 Y38.748 E18.03569
G1 X-18.320 Y38.286 E18.15920
G1 X-18.715 Y38.191 E18.18454
G1 X-20.551 Y37.431 E18.30846
G1 X-20.925 Y37.277 E18.33368
G1 X-22.970 Y36.023 E18.48328
G1 X-24.485 Y34.731 E18.60745
G1 X-24.795 Y34.464 E18.63297
G1 X-26.077 Y32.962 E18.75612
G1 X-26.078 Y32.962 E18.75618
G1 X-26.346 Y32.649 E18.78188
G1 X-27.600 Y30.603 E18.93153
G1 X-28.361 Y28.764 E19.05565
G1 X-28.517 Y28.387 E19.08109
G1 X-28.980 Y26.457 E19.20487
G1 X-29.075 Y26.061 E19.23026
G1 X-29.244 Y23.919 E19.36426
G1 X-29.250 Y20.144 E19.59968
G1 X-29.250 Y-38.924 E23.28332
G1 X29.250 Y-38.924 E26.93154
G1 X29.250 Y23.843 E30.84587
G1 X29.074 Y26.063 E30.98475
G1 X28.516 Y28.391 E31.13404
G1 X27.600 Y30.603 E31.28334
G1 X26.348 Y32.645 E31.43272
G1 X24.793 Y34.468 E31.58215
G1 X22.970 Y36.023 E31.73158
G1 X20.928 Y37.275 E31.88095
G1 X18.716 Y38.191 E32.03026
G1 X16.386 Y38.750 E32.17969
G1 X14.000 Y38.937 E32.32894
G1 X11.613 Y38.750 E32.47826
G1 X9.283 Y38.191 E32.62768
G1 X7.071 Y37.275 E32.77699
G1 X5.029 Y36.023 E32.92636
G1 X3.206 Y34.468 E33.07579
G1 X1.651 Y32.645 E33.22522
G1 X0.399 Y30.603 E33.37460
G1 X0.000 Y29.639 E33.43966
G1 X-0.243 Y30.226 E33.47928
G0 F10020 X-0.705 Y30.035
G1 F2940 X-0.844 Y30.372 E33.50201
G1 X-2.057 Y32.351 E33.64677
G1 X-3.323 Y33.835 E33.76842
G1 X-3.564 Y34.115 E33.79145
G1 X-5.043 Y35.378 E33.91274
G1 X-5.320 Y35.615 E33.93548
G1 X-7.298 Y36.828 E34.08018
G1 X-9.101 Y37.574 E34.20186
G1 X-9.441 Y37.714 E34.22479
G1 X-11.334 Y38.169 E34.34621
G1 X-11.692 Y38.255 E34.36917
G1 X-13.634 Y38.407 E34.49065
G1 X-13.634 Y38.406 E34.49071
G1 X-13.993 Y38.436 E34.51318
G1 X-15.947 Y38.283 E34.63541
G1 X-16.315 Y38.253 E34.65843
G1 X-18.201 Y37.800 E34.77939
G1 X-18.560 Y37.714 E34.80242
G1 X-20.360 Y36.969 E34.92390
G1 X-20.697 Y36.830 E34.94664
G1 X-22.676 Y35.617 E35.09139
G1 X-24.160 Y34.351 E35.21304
G1 X-24.440 Y34.110 E35.23608
G1 X-25.703 Y32.631 E35.35737
G1 X-25.940 Y32.354 E35.38010
G1 X-27.153 Y30.376 E35.52480
G1 X-27.899 Y28.573 E35.64649
G1 X-28.039 Y28.233 E35.66942
G1 X-28.494 Y26.340 E35.79083
G1 X-28.579 Y25.983 E35.81372
G1 X-28.744 Y23.899 E35.94409
G1 X-28.750 Y20.143 E36.17832
G1 X-28.750 Y-38.424 E39.83072
G1 X28.750 Y-38.424 E43.41658
G1 X28.750 Y23.823 E47.29848
G1 X28.579 Y25.984 E47.43366
G1 X28.039 Y28.236 E47.57808
G1 X27.153 Y30.375 E47.72247
G1 X25.942 Y32.351 E47.86700
G1 X24.438 Y34.113 E48.01147
G1 X22.676 Y35.617 E48.15594
G1 X20.700 Y36.828 E48.30047
G1 X18.561 Y37.714 E48.44485
G1 X16.308 Y38.254 E48.58934
G1 X14.000 Y38.436 E48.73372
G1 X11.691 Y38.254 E48.87816
G1 X9.438 Y37.714 E49.02264
G1 X7.299 Y36.828 E49.16702
G1 X5.323 Y35.617 E49.31155
G1 X3.561 Y34.113 E49.45602
G1 X2.057 Y32.351 E49.60049
G1 X0.846 Y30.375 E49.74502
G1 X0.000 Y28.332 E49.88292
G1 X-0.705 Y30.035 E49.99787
G0 F10020 X-1.168 Y29.844
G1 F2940 X-1.291 Y30.145 E50.01814
G1 X-2.462 Y32.056 E50.15791
G1 X-3.703 Y33.510 E50.27713
G1 X-3.918 Y33.760 E50.29769
G1 X-5.368 Y34.998 E50.41659
G1 X-5.615 Y35.210 E50.43689
G1 X-7.526 Y36.381 E50.57666
G1 X-9.291 Y37.112 E50.69580
G1 X-9.596 Y37.237 E50.71635
G1 X-11.450 Y37.682 E50.83526
G1 X-11.771 Y37.759 E50.85584
G1 X-13.673 Y37.908 E50.97482
G1 X-13.994 Y37.934 E50.99491
G1 X-15.907 Y37.785 E51.11457
G1 X-16.235 Y37.758 E51.13509
G1 X-18.085 Y37.314 E51.25374
G1 X-18.405 Y37.237 E51.27426
G1 X-20.169 Y36.507 E51.39332
G1 X-20.169 Y36.506 E51.39338
G1 X-20.470 Y36.383 E51.41366
G1 X-22.381 Y35.212 E51.55343
G1 X-23.835 Y33.971 E51.67264
G1 X-24.085 Y33.756 E51.69321
G1 X-25.323 Y32.306 E51.81211
G1 X-25.535 Y32.059 E51.83241
G1 X-26.706 Y30.148 E51.97218
G1 X-27.437 Y28.383 E52.09131
G1 X-27.562 Y28.078 E52.11187
G1 X-28.007 Y26.224 E52.23077
G1 X-28.084 Y25.904 E52.25130
G1 X-28.244 Y23.879 E52.37798
G1 X-28.250 Y20.143 E52.61097
G1 X-28.250 Y-37.924 E56.23218
G1 X28.250 Y-37.924 E59.75568
G1 X28.250 Y23.803 E63.60514
G1 X28.084 Y25.905 E63.73664
G1 X27.562 Y28.081 E63.87619
G1 X26.706 Y30.148 E64.01571
G1 X25.537 Y32.056 E64.15526
G1 X24.083 Y33.758 E64.29486
G1 X22.381 Y35.212 E64.43445
G1 X20.473 Y36.381 E64.57400
G1 X18.406 Y37.237 E64.71352
G1 X16.230 Y37.759 E64.85307
G1 X14.000 Y37.934 E64.99257
G1 X11.770 Y37.759 E65.13206
G1 X9.593 Y37.237 E65.27168
G1 X7.526 Y36.381 E65.41120
G1 X5.618 Y35.212 E65.55074
G1 X3.916 Y33.758 E65.69034
G1 X2.462 Y32.056 E65.82994
G1 X1.293 Y30.148 E65.96949
G1 X0.437 Y28.081 E66.10901
G1 X0.000 Y26.259 E66.22585
G1 X-0.360 Y27.760 E66.32212
G1 X-0.437 Y28.080 E66.34264
G1 X-1.167 Y29.844 E66.46170
G1 X-1.168 Y29.844 E66.46176
G0 F10020 X-1.629 Y29.652
G1 F2940 X-1.739 Y29.918 E66.47971
G1 X-2.868 Y31.761 E66.61450
G1 X-4.083 Y33.185 E66.73123
G1 X-4.273 Y33.405 E66.74936
G1 X-5.693 Y34.618 E66.86583
G1 X-5.911 Y34.804 E66.88370
G1 X-7.754 Y35.934 E67.01852
G1 X-9.482 Y36.650 E67.13516
G1 X-9.750 Y36.760 E67.15323
G1 X-11.567 Y37.196 E67.26976
G1 X-11.849 Y37.264 E67.28785
G1 X-13.712 Y37.410 E67.40439
G1 X-13.995 Y37.433 E67.42209
G1 X-15.867 Y37.286 E67.53920
G1 X-16.156 Y37.262 E67.55728
G1 X-17.970 Y36.827 E67.67361
G1 X-18.251 Y36.760 E67.69163
G1 X-19.977 Y36.045 E67.80814
G1 X-20.243 Y35.935 E67.82609
G1 X-22.086 Y34.806 E67.96087
G1 X-23.510 Y33.591 E68.07761
G1 X-23.730 Y33.401 E68.09574
G1 X-24.943 Y31.981 E68.21221
G1 X-25.129 Y31.763 E68.23008
G1 X-26.259 Y29.920 E68.36490
G1 X-26.975 Y28.192 E68.48154
G1 X-27.085 Y27.924 E68.49961
G1 X-27.521 Y26.107 E68.61614
G1 X-27.589 Y25.826 E68.63417
G1 X-27.744 Y23.859 E68.75722
G1 X-27.750 Y20.142 E68.98902
G1 X-27.750 Y-37.424 E72.57899
G1 X-0.250 Y-37.424 E74.29397
G1 X-0.250 Y23.783 E78.11101
G1 X-0.410 Y25.826 E78.23880
G1 X-0.847 Y27.645 E78.35547
G1 X-0.914 Y27.926 E78.37348
G1 X-1.629 Y29.652 E78.48999
G0 F10020 X-2.091 Y29.461
G1 F2940 X-2.186 Y29.691 E78.50551
G1 X-3.274 Y31.466 E78.63534
G1 X-4.463 Y32.860 E78.74961
G1 X-4.627 Y33.050 E78.76526
G1 X-6.017 Y34.237 E78.87925
G1 X-6.206 Y34.399 E78.89477
G1 X-7.981 Y35.487 E79.02461
G1 X-9.673 Y36.188 E79.13882
G1 X-9.905 Y36.283 E79.15446
G1 X-11.683 Y36.710 E79.26849
G1 X-11.927 Y36.768 E79.28413
G1 X-13.751 Y36.911 E79.39823
G1 X-13.996 Y36.931 E79.41356
G1 X-15.827 Y36.788 E79.52809
G1 X-16.077 Y36.767 E79.54374
G1 X-17.853 Y36.341 E79.65764
G1 X-18.096 Y36.283 E79.67322
G1 X-19.782 Y35.585 E79.78701
G1 X-20.016 Y35.488 E79.80281
G1 X-21.791 Y34.400 E79.93264
G1 X-23.185 Y33.211 E80.04691
G1 X-23.375 Y33.047 E80.06256
G1 X-24.562 Y31.657 E80.17655
G1 X-24.724 Y31.468 E80.19207
G1 X-25.812 Y29.693 E80.32191
G1 X-26.513 Y28.001 E80.43612
G1 X-26.608 Y27.769 E80.45175
G1 X-27.035 Y25.991 E80.56579
G1 X-27.093 Y25.748 E80.58137
G1 X-27.244 Y23.839 E80.70079
G1 X-27.250 Y20.142 E80.93135
G1 X-27.250 Y-36.924 E84.49014
G1 X-0.750 Y-36.924 E86.14275
G1 X-0.750 Y23.763 E89.92736
G1 X-0.906 Y25.748 E90.05153
G1 X-1.333 Y27.528 E90.16569
G1 X-1.391 Y27.771 E90.18127
G1 X-2.091 Y29.461 E90.29534
G0 F10020 X-2.554 Y29.270
G1 F2940 X-2.633 Y29.463 E90.30835
G1 X-3.680 Y31.172 E90.43334
G1 X-4.843 Y32.535 E90.54508
G1 X-4.981 Y32.695 E90.55825
G1 X-6.339 Y33.855 E90.66963
G1 X-6.501 Y33.993 E90.68290
G1 X-8.209 Y35.040 E90.80784
G1 X-9.864 Y35.726 E90.91956
G1 X-10.059 Y35.806 E90.93271
G1 X-11.800 Y36.224 E91.04437
G1 X-12.005 Y36.273 E91.05751
G1 X-13.790 Y36.413 E91.16917
G1 X-13.997 Y36.430 E91.18212
G1 X-15.787 Y36.289 E91.29410
G1 X-15.998 Y36.272 E91.30730
G1 X-17.736 Y35.855 E91.41876
G1 X-17.941 Y35.806 E91.43191
G1 X-19.595 Y35.121 E91.54355
G1 X-19.595 Y35.120 E91.54361
G1 X-19.788 Y35.041 E91.55662
G1 X-21.497 Y33.994 E91.68161
G1 X-22.860 Y32.831 E91.79334
G1 X-23.020 Y32.693 E91.80652
G1 X-24.180 Y31.335 E91.91790
G1 X-24.318 Y31.173 E91.93117
G1 X-25.365 Y29.465 E92.05611
G1 X-26.051 Y27.810 E92.16783
G1 X-26.131 Y27.615 E92.18098
G1 X-26.549 Y25.874 E92.29264
G1 X-26.598 Y25.669 E92.30578
G1 X-26.744 Y23.818 E92.42157
G1 X-26.750 Y20.141 E92.65088
G1 X-26.750 Y-36.424 E96.17843
G1 X-1.250 Y-36.424 E97.76868
G1 X-1.250 Y23.744 E101.52092
G1 X-1.401 Y25.669 E101.64134
G1 X-1.819 Y27.411 E101.75306
G1 X-1.868 Y27.616 E101.76620
G1 X-2.553 Y29.270 E101.87785
G1 X-2.554 Y29.270 E101.87791
G0 F10020 X-3.015 Y29.078
G1 F2940 X-3.080 Y29.236 E101.88856
G1 X-4.086 Y30.877 E102.00860
G1 X-5.223 Y32.210 E102.11786
G1 X-5.335 Y32.340 E102.12856
G1 X-6.666 Y33.477 E102.23773
G1 X-6.667 Y33.476 E102.23782
G1 X-6.796 Y33.588 E102.24847
G1 X-8.437 Y34.593 E102.36848
G1 X-10.055 Y35.263 E102.47769
G1 X-10.214 Y35.329 E102.48843
G1 X-12.083 Y35.777 E102.60828
G1 X-13.825 Y35.914 E102.71726
G1 X-13.998 Y35.928 E102.72808
G1 X-15.747 Y35.791 E102.83749
G1 X-15.918 Y35.777 E102.84819
G1 X-17.786 Y35.329 E102.96798
G1 X-19.403 Y34.659 E103.07714
G1 X-19.561 Y34.594 E103.08779
G1 X-21.202 Y33.588 E103.20783
G1 X-22.535 Y32.451 E103.31709
G1 X-22.665 Y32.339 E103.32779
G1 X-23.802 Y31.008 E103.43696
G1 X-23.801 Y31.007 E103.43705
G1 X-23.913 Y30.878 E103.44770
G1 X-24.918 Y29.237 E103.56770
G1 X-25.588 Y27.619 E103.67692
G1 X-25.654 Y27.460 E103.68765
G1 X-26.102 Y25.591 E103.80751
G1 X-26.244 Y23.798 E103.91968
G1 X-26.250 Y20.141 E104.14774
G1 X-26.250 Y-35.924 E107.64411
G1 X-1.750 Y-35.924 E109.17199
G1 X-1.750 Y23.724 E112.89181
G1 X-1.897 Y25.591 E113.00860
G1 X-2.345 Y27.461 E113.12852
G1 X-3.015 Y29.078 E113.23767
G0 F10020 X-3.527 Y29.009
G1 F2940 X-4.491 Y30.582 E113.35272
G1 X-5.603 Y31.885 E113.45955
G1 X-5.690 Y31.985 E113.46782
G1 X-6.991 Y33.096 E113.57451
G1 X-7.091 Y33.182 E113.58273
G1 X-8.664 Y34.146 E113.69779
G1 X-10.246 Y34.801 E113.80457
G1 X-10.368 Y34.852 E113.81281
G1 X-12.161 Y35.282 E113.92780
G1 X-13.868 Y35.416 E114.03458
G1 X-13.868 Y35.415 E114.03464
G1 X-13.999 Y35.426 E114.04284
G1 X-15.707 Y35.293 E114.14968
G1 X-15.839 Y35.282 E114.15794
G1 X-17.631 Y34.852 E114.27286
G1 X-19.211 Y34.197 E114.37953
G1 X-19.211 Y34.198 E114.37959
G1 X-19.334 Y34.147 E114.38790
G1 X-20.907 Y33.183 E114.50295
G1 X-22.210 Y32.071 E114.60978
G1 X-22.310 Y31.984 E114.61804
G1 X-23.421 Y30.683 E114.72473
G1 X-23.507 Y30.583 E114.73296
G1 X-24.471 Y29.010 E114.84801
G1 X-25.126 Y27.428 E114.95479
G1 X-25.177 Y27.306 E114.96304
G1 X-25.607 Y25.513 E115.07802
G1 X-25.744 Y23.778 E115.18656
G1 X-25.750 Y20.141 E115.41337
G1 X-25.750 Y-35.424 E118.87856
G1 X-2.250 Y-35.424 E120.34408
G1 X-2.250 Y23.704 E124.03147
G1 X-2.392 Y25.513 E124.14463
G1 X-2.822 Y27.306 E124.25962
G1 X-3.477 Y28.886 E124.36628
G1 X-3.476 Y28.886 E124.36634
G1 X-3.527 Y29.009 E124.37465
G0 F10020 X-3.975 Y28.782
G1 F2940 X-4.897 Y30.287 E124.48472
G1 X-6.044 Y31.630 E124.59486
G1 X-7.387 Y32.777 E124.70500
G1 X-8.892 Y33.699 E124.81507
G1 X-10.523 Y34.375 E124.92517
G1 X-12.240 Y34.787 E125.03529
G1 X-14.000 Y34.925 E125.14538
G1 X-15.759 Y34.787 E125.25542
G1 X-17.476 Y34.375 E125.36553
G1 X-19.107 Y33.699 E125.47564
G1 X-20.612 Y32.777 E125.58571
G1 X-21.955 Y31.630 E125.69585
G1 X-23.102 Y30.287 E125.80599
G1 X-24.024 Y28.782 E125.91606
G1 X-24.700 Y27.151 E126.02616
G1 X-25.112 Y25.434 E126.13628
G1 X-25.244 Y23.758 E126.24112
G1 X-25.250 Y-34.924 E129.90069
G1 X-2.750 Y-34.924 E131.30385
G1 X-2.750 Y23.685 E134.95887
G1 X-2.887 Y25.434 E135.06828
G1 X-3.299 Y27.151 E135.17840
G1 X-3.975 Y28.782 E135.28850
G0 F10020 X0.914 Y27.926
G1 F2940 X0.410 Y25.826 E135.42318
G1 X0.250 Y23.783 E135.55098
G1 X0.250 Y-37.424 E139.36801
G1 X27.750 Y-37.424 E141.08299
G1 X27.750 Y23.784 E144.90009
G1 X27.588 Y25.827 E145.02790
G1 X27.085 Y27.926 E145.16250
G1 X26.259 Y29.920 E145.29710
G1 X25.131 Y31.761 E145.43175
G1 X23.729 Y33.404 E145.56644
G1 X22.086 Y34.806 E145.70114
G1 X20.245 Y35.934 E145.83578
G1 X18.251 Y36.760 E145.97038
G1 X16.151 Y37.264 E146.10506
G1 X14.000 Y37.432 E146.23961
G1 X11.848 Y37.264 E146.37423
G1 X9.748 Y36.760 E146.50891
G1 X7.754 Y35.934 E146.64351
G1 X5.913 Y34.806 E146.77815
G1 X4.270 Y33.404 E146.91285
G1 X2.868 Y31.761 E147.04754
G1 X1.740 Y29.920 E147.18219
G1 X0.914 Y27.926 E147.31679
G0 F10020 X1.391 Y27.771
G1 F2940 X0.906 Y25.748 E147.44652
G1 X0.750 Y23.763 E147.57070
G1 X0.750 Y-36.924 E151.35530
G1 X27.250 Y-36.924 E153.00792
G1 X27.250 Y23.764 E156.79259
G1 X27.093 Y25.748 E156.91670
G1 X26.608 Y27.771 E157.04644
G1 X25.812 Y29.692 E157.17611
G1 X24.725 Y31.466 E157.30586
G1 X23.374 Y33.049 E157.43565
G1 X21.791 Y34.400 E157.56543
G1 X20.017 Y35.487 E157.69518
G1 X18.096 Y36.283 E157.82486
G1 X16.073 Y36.768 E157.95459
G1 X14.000 Y36.931 E158.08427
G1 X11.926 Y36.768 E158.21401
G1 X9.903 Y36.283 E158.34374
G1 X7.982 Y35.487 E158.47342
G1 X6.208 Y34.400 E158.60317
G1 X4.625 Y33.049 E158.73295
G1 X3.274 Y31.466 E158.86274
G1 X2.187 Y29.692 E158.99248
G1 X1.391 Y27.771 E159.12216
G0 F10020 X1.868 Y27.616
G1 F2940 X1.401 Y25.669 E159.24703
G1 X1.250 Y23.744 E159.36744
G1 X1.250 Y-36.424 E163.11968
G1 X26.750 Y-36.424 E164.70993
G1 X26.750 Y23.744 E168.46218
G1 X26.598 Y25.670 E168.58266
G1 X26.131 Y27.616 E168.70746
G1 X25.365 Y29.465 E168.83228
G1 X24.319 Y31.172 E168.95713
G1 X23.019 Y32.694 E169.08195
G1 X21.497 Y33.994 E169.20678
G1 X19.790 Y35.040 E169.33163
G1 X17.941 Y35.806 E169.45644
G1 X15.994 Y36.273 E169.58131
G1 X14.000 Y36.429 E169.70604
G1 X12.005 Y36.273 E169.83083
G1 X10.058 Y35.806 E169.95569
G1 X8.209 Y35.040 E170.08051
G1 X6.502 Y33.994 E170.20536
G1 X4.980 Y32.694 E170.33018
G1 X3.680 Y31.172 E170.45501
G1 X2.634 Y29.465 E170.57986
G1 X1.868 Y27.616 E170.70467
G0 F10020 X2.345 Y27.461
G1 F2940 X1.897 Y25.591 E170.82459
G1 X1.750 Y23.724 E170.94138
G1 X1.750 Y-35.924 E174.66119
G1 X26.250 Y-35.924 E176.18908
G1 X26.250 Y23.724 E179.90889
G1 X26.102 Y25.591 E180.02569
G1 X25.654 Y27.461 E180.14561
G1 X24.918 Y29.237 E180.26550
G1 X23.913 Y30.877 E180.38545
