;Generated with Cura_SteamEngine 15.01
; Default start code
G28 ; Home extruder
G29;
G1 Z15 F100
G90 ; Absolute positioning
M82 ; Extruder in absolute mode
M190 S60
; Activate all used extruder
M104 T0 S210
G92 E0 ; Reset extruder position
; Wait for all used extruders to reach temperature
M109 T0 S210
;Layer count: 46
;LAYER:0
M107
G0 F10020 X-13.299 Y-28.250 Z0.300
;TYPE:SKIRT
G1 F2940 X-13.299 Y-29.748 E0.09342
G1 X-14.294 Y-29.750 E0.15547
G1 X-35.197 Y-29.750 E1.45904
G1 X-35.199 Y-28.252 E1.55246
G1 X-34.205 Y-28.250 E1.61445
G1 X-13.299 Y-28.250 E2.91820
G0 F10020 X-12.799 Y-27.750
G1 F2940 X-12.799 Y-30.247 E3.07392
G1 X-14.293 Y-30.250 E3.16709
G1 X-35.696 Y-30.250 E4.50184
G1 X-35.700 Y-27.753 E4.65756
G1 X-34.206 Y-27.750 E4.75073
G1 X-12.799 Y-27.750 E6.08573
G0 F10020 X-12.699 Y-27.250
G1 F2940 X-12.506 Y-27.265 E6.09780
G1 X-12.478 Y-27.272 E6.09960
G1 X-12.461 Y-27.279 E6.10075
G1 X-12.395 Y-27.318 E6.10553
G1 X-12.382 Y-27.329 E6.10659
G1 X-12.356 Y-27.359 E6.10907
G1 X-12.336 Y-27.392 E6.11148
G1 X-12.324 Y-27.422 E6.11349
G1 X-12.314 Y-27.464 E6.11618
G1 X-12.299 Y-27.651 E6.12788
G1 X-12.299 Y-30.359 E6.29676
G1 X-12.312 Y-30.526 E6.30721
G1 X-12.324 Y-30.577 E6.31047
G1 X-12.337 Y-30.608 E6.31257
G1 X-12.355 Y-30.638 E6.31475
G1 X-12.381 Y-30.668 E6.31723
G1 X-12.409 Y-30.693 E6.31957
G1 X-12.439 Y-30.711 E6.32175
G1 X-12.452 Y-30.716 E6.32262
G1 X-12.534 Y-30.737 E6.32790
G1 X-12.653 Y-30.746 E6.33534
G1 X-14.291 Y-30.750 E6.43749
G1 X-35.803 Y-30.750 E7.77904
G1 X-35.987 Y-30.735 E7.79055
G1 X-36.021 Y-30.727 E7.79273
G1 X-36.038 Y-30.720 E7.79388
G1 X-36.104 Y-30.681 E7.79866
G1 X-36.117 Y-30.670 E7.79972
G1 X-36.143 Y-30.640 E7.80220
G1 X-36.161 Y-30.610 E7.80438
G1 X-36.166 Y-30.597 E7.80525
G1 X-36.187 Y-30.515 E7.81052
G1 X-36.196 Y-30.404 E7.81747
G1 X-36.200 Y-27.646 E7.98947
G1 X-36.185 Y-27.462 E8.00098
G1 X-36.177 Y-27.428 E8.00316
G1 X-36.170 Y-27.411 E8.00430
G1 X-36.131 Y-27.345 E8.00908
G1 X-36.120 Y-27.332 E8.01015
G1 X-36.090 Y-27.306 E8.01262
G1 X-36.060 Y-27.288 E8.01480
G1 X-36.047 Y-27.283 E8.01567
G1 X-35.971 Y-27.264 E8.02056
G1 X-35.843 Y-27.254 E8.02856
G1 X-34.208 Y-27.250 E8.13053
G1 X-12.699 Y-27.250 E9.47189
G0 F10020 X-12.673 Y-26.750
G1 F2940 X-12.434 Y-26.769 E9.48684
G1 X-12.322 Y-26.795 E9.49401
G1 X-12.233 Y-26.832 E9.50002
G1 X-12.104 Y-26.909 E9.50939
G1 X-12.027 Y-26.975 E9.51572
G1 X-11.950 Y-27.066 E9.52315
G1 X-11.888 Y-27.166 E9.53049
G1 X-11.846 Y-27.269 E9.53742
G1 X-11.819 Y-27.383 E9.54473
G1 X-11.799 Y-27.636 E9.56056
G1 X-11.799 Y-30.378 E9.73156
G1 X-11.818 Y-30.609 E9.74601
G1 X-11.845 Y-30.727 E9.75356
G1 X-11.890 Y-30.835 E9.76086
G1 X-11.949 Y-30.933 E9.76799
G1 X-12.025 Y-31.022 E9.77529
G1 X-12.116 Y-31.099 E9.78272
G1 X-12.211 Y-31.157 E9.78966
G1 X-12.296 Y-31.193 E9.79542
G1 X-12.450 Y-31.231 E9.80531
G1 X-12.638 Y-31.246 E9.81707
G1 X-14.290 Y-31.250 E9.92010
G1 X-35.818 Y-31.250 E11.26264
G1 X-36.066 Y-31.230 E11.27816
G1 X-36.177 Y-31.204 E11.28527
G1 X-36.266 Y-31.167 E11.29128
G1 X-36.395 Y-31.090 E11.30065
G1 X-36.472 Y-31.024 E11.30697
G1 X-36.549 Y-30.933 E11.31441
G1 X-36.607 Y-30.838 E11.32135
G1 X-36.643 Y-30.753 E11.32710
G1 X-36.681 Y-30.599 E11.33700
G1 X-36.696 Y-30.415 E11.34851
G1 X-36.700 Y-27.629 E11.52225
G1 X-36.680 Y-27.383 E11.53764
G1 X-36.654 Y-27.272 E11.54475
G1 X-36.617 Y-27.183 E11.55076
G1 X-36.540 Y-27.054 E11.56013
G1 X-36.474 Y-26.977 E11.56646
G1 X-36.383 Y-26.900 E11.57389
G1 X-36.288 Y-26.842 E11.58083
G1 X-36.203 Y-26.806 E11.58659
G1 X-36.049 Y-26.768 E11.59648
G1 X-35.870 Y-26.754 E11.60768
G1 X-34.209 Y-26.750 E11.71126
G1 X-12.673 Y-26.750 E13.05431
G0 F10020 X-12.634 Y-25.750
G1 F2940 X-12.276 Y-25.778 E13.07670
G1 X-12.013 Y-25.841 E13.09357
G1 X-11.785 Y-25.935 E13.10895
G1 X-11.519 Y-26.094 E13.12827
G1 X-11.318 Y-26.265 E13.14473
G1 X-11.139 Y-26.475 E13.16194
G1 X-10.997 Y-26.707 E13.17890
G1 X-10.892 Y-26.962 E13.19610
G1 X-10.828 Y-27.230 E13.21328
G1 X-10.799 Y-27.593 E13.23599
G1 X-10.799 Y-30.413 E13.41185
G1 X-10.827 Y-30.765 E13.43388
G1 X-10.889 Y-31.032 E13.45097
G1 X-10.995 Y-31.288 E13.46825
G1 X-11.136 Y-31.521 E13.48523
G1 X-11.314 Y-31.729 E13.50231
G1 X-11.525 Y-31.910 E13.51964
G1 X-11.759 Y-32.053 E13.53674
G1 X-11.980 Y-32.145 E13.55167
G1 X-12.286 Y-32.222 E13.57135
G1 X-12.596 Y-32.246 E13.59074
G1 X-14.288 Y-32.250 E13.69626
G1 X-35.859 Y-32.250 E15.04149
G1 X-36.224 Y-32.221 E15.06432
G1 X-36.486 Y-32.158 E15.08113
G1 X-36.714 Y-32.064 E15.09651
G1 X-36.980 Y-31.905 E15.11583
G1 X-37.181 Y-31.734 E15.13229
G1 X-37.360 Y-31.524 E15.14950
G1 X-37.503 Y-31.290 E15.16660
G1 X-37.595 Y-31.069 E15.18153
G1 X-37.672 Y-30.763 E15.20121
G1 X-37.696 Y-30.454 E15.22053
G1 X-37.700 Y-27.588 E15.39927
G1 X-37.671 Y-27.226 E15.42191
G1 X-37.608 Y-26.963 E15.43878
G1 X-37.514 Y-26.735 E15.45416
G1 X-37.355 Y-26.469 E15.47348
G1 X-37.184 Y-26.268 E15.48994
G1 X-36.974 Y-26.089 E15.50715
G1 X-36.740 Y-25.946 E15.52425
G1 X-36.519 Y-25.854 E15.53918
G1 X-36.213 Y-25.777 E15.55886
G1 X-35.910 Y-25.754 E15.57781
G1 X-34.211 Y-25.750 E15.68376
G1 X-12.634 Y-25.750 E17.02936
G0 F10020 X-12.595 Y-24.750
G1 F2940 X-12.123 Y-24.787 E17.05889
G1 X-11.699 Y-24.888 E17.08607
G1 X-11.340 Y-25.037 E17.11031
G1 X-10.931 Y-25.280 E17.13998
G1 X-10.609 Y-25.556 E17.16643
G1 X-10.328 Y-25.885 E17.19341
G1 X-10.103 Y-26.252 E17.22026
G1 X-9.937 Y-26.652 E17.24726
G1 X-9.837 Y-27.070 E17.27407
G1 X-9.799 Y-27.550 E17.30410
G1 X-9.799 Y-30.453 E17.48513
G1 X-9.835 Y-30.916 E17.51410
G1 X-9.935 Y-31.341 E17.54132
G1 X-10.100 Y-31.742 E17.56837
G1 X-10.321 Y-32.105 E17.59487
G1 X-10.605 Y-32.440 E17.62226
G1 X-10.935 Y-32.721 E17.64929
G1 X-11.304 Y-32.947 E17.67627
G1 X-11.665 Y-33.097 E17.70065
G1 X-12.123 Y-33.212 E17.73010
G1 X-12.552 Y-33.246 E17.75694
G1 X-14.286 Y-33.250 E17.86507
G1 X-35.901 Y-33.250 E19.21305
G1 X-36.376 Y-33.212 E19.24276
G1 X-36.800 Y-33.111 E19.26994
G1 X-37.159 Y-32.962 E19.29418
G1 X-37.568 Y-32.719 E19.32385
G1 X-37.890 Y-32.443 E19.35030
G1 X-38.171 Y-32.114 E19.37728
G1 X-38.397 Y-31.745 E19.40427
G1 X-38.547 Y-31.384 E19.42865
G1 X-38.662 Y-30.926 E19.45810
G1 X-38.696 Y-30.500 E19.48475
G1 X-38.700 Y-27.548 E19.66884
G1 X-38.662 Y-27.073 E19.69856
G1 X-38.561 Y-26.649 E19.72574
G1 X-38.412 Y-26.290 E19.74998
G1 X-38.169 Y-25.881 E19.77965
G1 X-37.893 Y-25.559 E19.80610
G1 X-37.564 Y-25.278 E19.83308
G1 X-37.195 Y-25.052 E19.86006
G1 X-36.834 Y-24.902 E19.88444
G1 X-36.376 Y-24.787 E19.91389
G1 X-35.950 Y-24.754 E19.94054
G1 X-34.213 Y-24.750 E20.04886
G1 X-12.595 Y-24.750 E21.39702
G0 F10020 X-12.581 Y-24.250
G1 F2940 X-12.038 Y-24.292 E21.43098
G1 X-11.549 Y-24.409 E21.46234
G1 X-11.112 Y-24.590 E21.49184
G1 X-10.641 Y-24.871 E21.52604
G1 X-10.253 Y-25.202 E21.55785
G1 X-9.923 Y-25.589 E21.58956
G1 X-9.655 Y-26.027 E21.62159
G1 X-9.462 Y-26.493 E21.65304
G1 X-9.342 Y-26.995 E21.68523
G1 X-9.299 Y-27.535 E21.71901
G1 X-9.299 Y-30.466 E21.90180
G1 X-9.341 Y-30.997 E21.93502
G1 X-9.457 Y-31.493 E21.96678
G1 X-9.653 Y-31.968 E21.99883
G1 X-9.915 Y-32.400 E22.03033
G1 X-10.250 Y-32.794 E22.06259
G1 X-10.639 Y-33.126 E22.09448
G1 X-11.077 Y-33.394 E22.12650
G1 X-11.509 Y-33.573 E22.15566
G1 X-12.038 Y-33.706 E22.18968
G1 X-12.538 Y-33.746 E22.22096
G1 X-14.285 Y-33.750 E22.32991
G1 X-35.915 Y-33.750 E23.67882
G1 X-36.462 Y-33.707 E23.71303
G1 X-36.950 Y-33.590 E23.74433
G1 X-37.387 Y-33.409 E23.77383
G1 X-37.858 Y-33.128 E23.80803
G1 X-38.246 Y-32.797 E23.83984
G1 X-38.576 Y-32.410 E23.87155
G1 X-38.844 Y-31.972 E23.90358
G1 X-39.023 Y-31.540 E23.93274
G1 X-39.156 Y-31.011 E23.96675
G1 X-39.196 Y-30.512 E23.99797
G1 X-39.200 Y-27.533 E24.18375
G1 X-39.157 Y-26.988 E24.21784
G1 X-39.040 Y-26.499 E24.24920
G1 X-38.859 Y-26.062 E24.27870
G1 X-38.578 Y-25.591 E24.31290
G1 X-38.247 Y-25.203 E24.34471
G1 X-37.860 Y-24.873 E24.37642
G1 X-37.422 Y-24.605 E24.40845
G1 X-36.990 Y-24.426 E24.43761
G1 X-36.460 Y-24.293 E24.47169
G1 X-35.964 Y-24.254 E24.50271
G1 X-34.214 Y-24.250 E24.61185
G1 X-12.581 Y-24.250 E25.96094
G0 F10020 X-11.992 Y-23.794
G1 F2940 X-11.963 Y-23.796 E25.96275
G1 X-11.392 Y-23.933 E25.99937
G1 X-10.890 Y-24.141 E26.03326
G1 X-10.366 Y-24.453 E26.07129
G1 X-10.346 Y-24.465 E26.07275
G1 X-9.898 Y-24.848 E26.10950
G1 X-9.515 Y-25.296 E26.14626
G1 X-9.223 Y-25.775 E26.18125
G1 X-9.209 Y-25.797 E26.18287
G1 X-8.983 Y-26.342 E26.21967
G1 X-8.852 Y-26.893 E26.25499
G1 X-8.846 Y-26.918 E26.25659
G1 X-8.799 Y-27.507 E26.29344
G1 X-8.799 Y-30.493 E26.47965
G1 X-8.845 Y-31.074 E26.51600
G1 X-8.979 Y-31.646 E26.55264
G1 X-9.202 Y-32.188 E26.58919
G1 X-9.511 Y-32.697 E26.62632
G1 X-9.894 Y-33.148 E26.66322
G1 X-10.346 Y-33.534 E26.70029
G1 X-10.825 Y-33.826 E26.73527
G1 X-10.847 Y-33.840 E26.73690
G1 X-11.353 Y-34.049 E26.77104
G1 X-11.936 Y-34.196 E26.80853
G1 X-11.963 Y-34.203 E26.81027
G1 X-12.509 Y-34.246 E26.84443
G1 X-35.943 Y-34.250 E28.30584
G1 X-36.507 Y-34.205 E28.34112
G1 X-36.536 Y-34.203 E28.34294
G1 X-37.107 Y-34.066 E28.37955
G1 X-37.609 Y-33.858 E28.41344
G1 X-38.133 Y-33.546 E28.45147
G1 X-38.153 Y-33.534 E28.45293
G1 X-38.600 Y-33.152 E28.48960
G1 X-38.984 Y-32.703 E28.52644
G1 X-39.276 Y-32.224 E28.56143
G1 X-39.290 Y-32.202 E28.56305
G1 X-39.499 Y-31.696 E28.59719
G1 X-39.646 Y-31.113 E28.63469
G1 X-39.647 Y-31.110 E28.63489
G1 X-39.653 Y-31.086 E28.63643
G1 X-39.696 Y-30.539 E28.67065
G1 X-39.700 Y-27.507 E28.85973
G1 X-39.655 Y-26.942 E28.89508
G1 X-39.653 Y-26.913 E28.89689
G1 X-39.516 Y-26.342 E28.93351
G1 X-39.308 Y-25.840 E28.96740
G1 X-38.996 Y-25.316 E29.00543
G1 X-38.984 Y-25.296 E29.00688
G1 X-38.601 Y-24.848 E29.04364
G1 X-38.153 Y-24.465 E29.08040
G1 X-37.674 Y-24.173 E29.11538
G1 X-37.652 Y-24.159 E29.11701
G1 X-37.146 Y-23.950 E29.15115
G1 X-36.563 Y-23.803 E29.18864
G1 X-36.535 Y-23.796 E29.19044
G1 X-35.991 Y-23.754 E29.22447
G1 X-12.555 Y-23.750 E30.68600
G1 X-11.992 Y-23.794 E30.72122
G0 F10020 X-12.659 Y-26.250
G1 F2940 X-12.355 Y-26.274 E30.74024
G1 X-12.163 Y-26.319 E30.75254
G1 X-12.013 Y-26.382 E30.76268
G1 X-11.809 Y-26.503 E30.77747
G1 X-11.673 Y-26.620 E30.78866
G1 X-11.546 Y-26.769 E30.80087
G1 X-11.440 Y-26.942 E30.81352
G1 X-11.370 Y-27.111 E30.82493
G1 X-11.322 Y-27.315 E30.83800
G1 X-11.299 Y-27.608 E30.85633
G1 X-11.299 Y-30.387 E31.02964
G1 X-11.323 Y-30.690 E31.04859
G1 X-11.368 Y-30.882 E31.06089
G1 X-11.441 Y-31.060 E31.07289
G1 X-11.542 Y-31.226 E31.08501
G1 X-11.669 Y-31.376 E31.09726
G1 X-11.819 Y-31.503 E31.10952
G1 X-11.987 Y-31.606 E31.12181
G1 X-12.137 Y-31.668 E31.13193
G1 X-12.371 Y-31.727 E31.14698
G1 X-12.610 Y-31.746 E31.16193
G1 X-14.289 Y-31.750 E31.26664
G1 X-35.845 Y-31.750 E32.61093
G1 X-36.138 Y-31.727 E32.62926
G1 X-36.336 Y-31.680 E32.64195
G1 X-36.486 Y-31.617 E32.65210
G1 X-36.690 Y-31.496 E32.66689
G1 X-36.826 Y-31.379 E32.67808
G1 X-36.953 Y-31.230 E32.69028
G1 X-37.056 Y-31.062 E32.70257
G1 X-37.118 Y-30.912 E32.71270
G1 X-37.177 Y-30.678 E32.72775
G1 X-37.196 Y-30.440 E32.74264
G1 X-37.200 Y-27.603 E32.91956
G1 X-37.177 Y-27.311 E32.93783
G1 X-37.130 Y-27.113 E32.95052
G1 X-37.067 Y-26.963 E32.96066
G1 X-36.947 Y-26.761 E32.97531
G1 X-36.829 Y-26.623 E32.98664
G1 X-36.680 Y-26.496 E32.99885
G1 X-36.512 Y-26.393 E33.01114
G1 X-36.362 Y-26.331 E33.02126
G1 X-36.134 Y-26.273 E33.03593
G1 X-35.884 Y-26.254 E33.05157
G1 X-34.210 Y-26.250 E33.15596
G1 X-12.659 Y-26.250 E34.49994
G0 F10020 X-12.621 Y-25.250
G1 F2940 X-12.197 Y-25.283 E34.52646
G1 X-11.857 Y-25.364 E34.54826
G1 X-11.563 Y-25.486 E34.56811
G1 X-11.224 Y-25.688 E34.59272
G1 X-10.963 Y-25.911 E34.61413
G1 X-10.732 Y-26.182 E34.63634
G1 X-10.549 Y-26.482 E34.65825
G1 X-10.414 Y-26.808 E34.68025
G1 X-10.332 Y-27.153 E34.70237
G1 X-10.299 Y-27.565 E34.72814
G1 X-10.299 Y-30.427 E34.90663
G1 X-10.332 Y-30.841 E34.93253
G1 X-10.414 Y-31.191 E34.95495
G1 X-10.544 Y-31.508 E34.97631
G1 X-10.730 Y-31.814 E34.99864
G1 X-10.961 Y-32.086 E35.02090
G1 X-11.232 Y-32.317 E35.04310
G1 X-11.532 Y-32.500 E35.06502
G1 X-11.824 Y-32.621 E35.08473
G1 X-12.208 Y-32.718 E35.10943
G1 X-12.567 Y-32.746 E35.13189
G1 X-14.287 Y-32.750 E35.23915
G1 X-35.886 Y-32.750 E36.58612
G1 X-36.296 Y-32.717 E36.61178
G1 X-36.642 Y-32.635 E36.63395
G1 X-36.936 Y-32.513 E36.65380
G1 X-37.275 Y-32.311 E36.67841
G1 X-37.536 Y-32.088 E36.69982
G1 X-37.767 Y-31.817 E36.72203
G1 X-37.950 Y-31.517 E36.74394
G1 X-38.071 Y-31.225 E36.76365
G1 X-38.168 Y-30.841 E36.78835
G1 X-38.196 Y-30.482 E36.81081
G1 X-38.200 Y-27.575 E36.99210
G1 X-38.166 Y-27.147 E37.01887
G1 X-38.085 Y-26.807 E37.04067
G1 X-37.963 Y-26.513 E37.06052
G1 X-37.761 Y-26.174 E37.08513
G1 X-37.538 Y-25.913 E37.10654
G1 X-37.267 Y-25.682 E37.12875
G1 X-36.967 Y-25.499 E37.15066
G1 X-36.675 Y-25.378 E37.17037
G1 X-36.297 Y-25.283 E37.19468
G1 X-35.923 Y-25.254 E37.21807
G1 X-34.212 Y-25.250 E37.32477
G1 X-12.621 Y-25.250 E38.67125
G0 F10020 X-5.245 Y-17.250
G1 F2940 X-46.200 Y-17.250 E41.22532
G1 X-46.200 Y-40.750 E42.69084
G1 X-5.378 Y-40.750 E45.23661
G1 X-4.702 Y-40.724 E45.27880
G1 X-4.337 Y-40.634 E45.30224
G1 X-4.013 Y-40.497 E45.32418
G1 X-3.727 Y-40.321 E45.34512
G1 X-3.458 Y-40.091 E45.36720
G1 X-3.228 Y-39.822 E45.38927
G1 X-3.044 Y-39.521 E45.41127
G1 X-2.908 Y-39.195 E45.43330
G1 X-2.826 Y-38.851 E45.45535
G1 X-2.799 Y-38.510 E45.47668
G1 X-2.799 Y-19.489 E46.66289
G1 X-2.830 Y-19.130 E46.68536
G1 X-2.915 Y-18.787 E46.70739
G1 X-3.052 Y-18.463 E46.72933
G1 X-3.228 Y-18.177 E46.75027
G1 X-3.458 Y-17.908 E46.77235
G1 X-3.727 Y-17.678 E46.79442
G1 X-4.028 Y-17.494 E46.81642
G1 X-4.354 Y-17.358 E46.83845
G1 X-4.702 Y-17.275 E46.86076
G1 X-5.245 Y-17.250 E46.89466
G0 F10020 X-5.233 Y-16.750
G1 F2940 X-46.700 Y-16.750 E49.48065
G1 X-46.700 Y-41.250 E51.00854
G1 X-5.368 Y-41.250 E53.58612
G1 X-4.632 Y-41.221 E53.63205
G1 X-4.179 Y-41.110 E53.66114
G1 X-3.784 Y-40.943 E53.68788
G1 X-3.432 Y-40.726 E53.71367
G1 X-3.103 Y-40.446 E53.74061
G1 X-2.822 Y-40.117 E53.76759
G1 X-2.597 Y-39.749 E53.79449
G1 X-2.431 Y-39.350 E53.82144
G1 X-2.331 Y-38.930 E53.84837
G1 X-2.299 Y-38.530 E53.87339
G1 X-2.299 Y-19.468 E55.06215
G1 X-2.335 Y-19.048 E55.08844
G1 X-2.439 Y-18.628 E55.11542
G1 X-2.606 Y-18.234 E55.14211
G1 X-2.823 Y-17.882 E55.16790
G1 X-3.103 Y-17.553 E55.19484
G1 X-3.432 Y-17.272 E55.22182
G1 X-3.800 Y-17.047 E55.24872
G1 X-4.199 Y-16.881 E55.27567
G1 X-4.632 Y-16.778 E55.30343
G1 X-5.233 Y-16.750 E55.34095
G0 F10020 X-5.222 Y-16.250
G1 F2940 X-47.200 Y-16.250 E57.95881
G1 X-47.200 Y-41.750 E59.54906
G1 X-5.359 Y-41.750 E62.15838
G1 X-4.562 Y-41.719 E62.20812
G1 X-4.020 Y-41.586 E62.24293
G1 X-3.554 Y-41.388 E62.27450
G1 X-3.137 Y-41.132 E62.30502
G1 X-2.748 Y-40.801 E62.33687
G1 X-2.416 Y-40.412 E62.36876
G1 X-2.150 Y-39.976 E62.40061
G1 X-1.954 Y-39.505 E62.43243
G1 X-1.836 Y-39.008 E62.46429
G1 X-1.799 Y-38.550 E62.49294
G1 X-1.799 Y-19.447 E63.68426
G1 X-1.840 Y-18.966 E63.71436
G1 X-1.964 Y-18.469 E63.74631
G1 X-2.161 Y-18.004 E63.77780
G1 X-2.417 Y-17.587 E63.80831
G1 X-2.748 Y-17.198 E63.84017
G1 X-3.137 Y-16.866 E63.87206
G1 X-3.573 Y-16.600 E63.90391
G1 X-4.044 Y-16.404 E63.93573
G1 X-4.561 Y-16.281 E63.96887
G1 X-5.222 Y-16.250 E64.01013
G0 F10020 X-5.210 Y-15.750
G1 F2940 X-47.700 Y-15.750 E66.65993
G1 X-47.700 Y-42.250 E68.31254
G1 X-5.349 Y-42.250 E70.95367
G1 X-4.492 Y-42.217 E71.00715
G1 X-3.862 Y-42.062 E71.04761
G1 X-3.324 Y-41.834 E71.08405
G1 X-2.842 Y-41.538 E71.11932
G1 X-2.394 Y-41.155 E71.15608
G1 X-2.010 Y-40.706 E71.19293
G1 X-1.703 Y-40.204 E71.22962
G1 X-1.477 Y-39.660 E71.26636
G1 X-1.340 Y-39.087 E71.30310
G1 X-1.299 Y-38.570 E71.33544
G1 X-1.299 Y-19.426 E72.52931
G1 X-1.345 Y-18.883 E72.56330
G1 X-1.488 Y-18.310 E72.60013
G1 X-1.715 Y-17.774 E72.63643
G1 X-2.011 Y-17.292 E72.67170
G1 X-2.394 Y-16.844 E72.70846
G1 X-2.843 Y-16.460 E72.74530
G1 X-3.345 Y-16.153 E72.78200
G1 X-3.889 Y-15.927 E72.81874
G1 X-4.491 Y-15.784 E72.85732
G1 X-5.210 Y-15.750 E72.90221
G0 F10020 X-5.330 Y-14.250
G1 F2940 X-4.351 Y-14.212 E72.96331
G1 X-3.546 Y-14.014 E73.01501
G1 X-2.865 Y-13.726 E73.06112
G1 X-2.252 Y-13.349 E73.10600
G1 X-1.684 Y-12.865 E73.15254
G1 X-1.199 Y-12.295 E73.19921
