;Generated with Cura_SteamEngine 15.01
; Default start code
G28 ; Home extruder
G29;
G1 Z15 F100
G90 ; Absolute positioning
M82 ; Extruder in absolute mode
M190 S60
; Activate all used extruder
M104 T0 S210
G92 E0 ; Reset extruder position
; Wait for all used extruders to reach temperature
M109 T0 S210
;Layer count: 225
;LAYER:0
M107
G0 F10020 X-11.250 Y0.651 Z0.300
;TYPE:SKIRT
G1 F2940 X-11.250 Y4.149 E0.21814
G1 X11.250 Y4.149 E1.62131
G1 X11.250 Y0.651 E1.83945
G1 X-11.250 Y0.651 E3.24261
G0 F10020 X-11.750 Y0.473
G1 F2940 X-11.750 Y4.649 E3.50304
G1 X11.750 Y4.649 E4.96857
G1 X11.750 Y0.483 E5.22837
G1 X18.066 Y0.483 E5.62225
G1 X22.250 Y0.473 E5.88318
G1 X22.250 Y10.062 E6.48117
G1 X22.228 Y11.037 E6.54199
G1 X22.029 Y11.873 E6.59559
G1 X21.741 Y12.563 E6.64221
G1 X21.355 Y13.193 E6.68829
G1 X20.867 Y13.767 E6.73527
G1 X20.293 Y14.255 E6.78226
G1 X19.663 Y14.641 E6.82834
G1 X18.967 Y14.931 E6.87536
G1 X18.134 Y15.127 E6.92872
G1 X17.175 Y15.149 E6.98855
G1 X-17.143 Y15.149 E9.12871
G1 X-18.132 Y15.129 E9.19040
G1 X-18.973 Y14.929 E9.24431
G1 X-19.663 Y14.641 E9.29094
G1 X-20.293 Y14.255 E9.33701
G1 X-20.867 Y13.767 E9.38400
G1 X-21.355 Y13.193 E9.43098
G1 X-21.741 Y12.563 E9.47706
G1 X-22.031 Y11.867 E9.52408
G1 X-22.226 Y11.038 E9.57719
G1 X-22.250 Y10.095 E9.63602
G1 X-22.250 Y0.483 E10.23545
G1 X-15.934 Y0.483 E10.62933
G1 X-11.750 Y0.473 E10.89026
G0 F10020 X-12.250 Y0.974
G1 F2940 X-12.250 Y5.149 E11.15062
G1 X12.250 Y5.149 E12.67851
G1 X12.250 Y0.983 E12.93831
G1 X18.067 Y0.983 E13.30108
G1 X21.750 Y0.974 E13.53076
G1 X21.750 Y10.057 E14.09720
G1 X21.729 Y10.972 E14.15428
G1 X21.552 Y11.718 E14.20209
G1 X21.294 Y12.335 E14.24380
G1 X20.949 Y12.899 E14.28503
G1 X20.513 Y13.413 E14.32706
G1 X19.999 Y13.849 E14.36910
G1 X19.435 Y14.194 E14.41033
G1 X18.813 Y14.454 E14.45237
G1 X18.070 Y14.628 E14.49996
G1 X17.169 Y14.649 E14.55616
G1 X-17.138 Y14.649 E16.69564
G1 X-18.069 Y14.630 E16.75371
G1 X-18.818 Y14.452 E16.80172
G1 X-19.435 Y14.194 E16.84343
G1 X-19.999 Y13.849 E16.88466
G1 X-20.513 Y13.413 E16.92670
G1 X-20.949 Y12.899 E16.96873
G1 X-21.294 Y12.335 E17.00996
G1 X-21.554 Y11.713 E17.05200
G1 X-21.727 Y10.974 E17.09933
G1 X-21.750 Y10.088 E17.15461
G1 X-21.750 Y0.983 E17.72242
G1 X-15.933 Y0.983 E18.08518
G1 X-12.250 Y0.974 E18.31487
G0 F10020 X-17.150 Y0.151
G1 F2940 X-18.135 Y0.128 E18.37631
G1 X-18.967 Y-0.068 E18.42962
G1 X-19.663 Y-0.358 E18.47664
G1 X-20.293 Y-0.744 E18.52271
G1 X-20.867 Y-1.232 E18.56970
G1 X-21.355 Y-1.806 E18.61668
G1 X-21.741 Y-2.436 E18.66276
G1 X-22.031 Y-3.132 E18.70978
G1 X-22.226 Y-3.963 E18.76301
G1 X-22.250 Y-4.931 E18.82340
G1 X-22.250 Y-14.507 E19.42058
G1 X-18.079 Y-14.517 E19.68070
G1 X-11.750 Y-14.515 E20.07539
G1 X-11.750 Y-10.361 E20.33445
G1 X11.750 Y-10.350 E21.79997
G1 X11.750 Y-14.507 E22.05922
G1 X15.921 Y-14.517 E22.31933
G1 X22.250 Y-14.515 E22.71402
G1 X22.250 Y-4.959 E23.30996
G1 X22.227 Y-3.965 E23.37197
G1 X22.031 Y-3.132 E23.42534
G1 X21.741 Y-2.436 E23.47236
G1 X21.355 Y-1.806 E23.51843
G1 X20.867 Y-1.232 E23.56542
G1 X20.293 Y-0.744 E23.61240
G1 X19.663 Y-0.358 E23.65848
G1 X18.967 Y-0.068 E23.70550
G1 X18.137 Y0.127 E23.75867
G1 X17.179 Y0.151 E23.81843
G1 X-17.150 Y0.151 E25.95928
G0 F10020 X-17.144 Y-0.349
G1 F2940 X-18.071 Y-0.371 E26.01711
G1 X-18.813 Y-0.545 E26.06464
G1 X-19.435 Y-0.805 E26.10668
G1 X-19.999 Y-1.150 E26.14791
G1 X-20.513 Y-1.586 E26.18995
G1 X-20.949 Y-2.100 E26.23198
G1 X-21.294 Y-2.664 E26.27321
G1 X-21.554 Y-3.286 E26.31525
G1 X-21.728 Y-4.027 E26.36272
G1 X-21.750 Y-4.937 E26.41949
G1 X-21.750 Y-14.008 E26.98518
G1 X-18.078 Y-14.017 E27.21418
G1 X-12.250 Y-14.015 E27.57763
G1 X-12.250 Y-9.861 E27.83668
G1 X12.250 Y-9.849 E29.36457
G1 X12.250 Y-14.008 E29.62394
G1 X15.922 Y-14.017 E29.85293
G1 X21.750 Y-14.015 E30.21638
G1 X21.750 Y-4.965 E30.78077
G1 X21.728 Y-4.029 E30.83915
G1 X21.554 Y-3.286 E30.88674
G1 X21.294 Y-2.664 E30.92878
G1 X20.949 Y-2.100 E30.97002
G1 X20.513 Y-1.586 E31.01205
G1 X19.999 Y-1.150 E31.05408
G1 X19.435 Y-0.805 E31.09531
G1 X18.813 Y-0.545 E31.13736
G1 X18.073 Y-0.371 E31.18476
G1 X17.172 Y-0.349 E31.24097
G1 X-17.144 Y-0.349 E33.38101
G0 F10020 X-20.587 Y-0.338
G1 F2940 X-21.222 Y-0.877 E33.43295
G1 X-21.761 Y-1.512 E33.48489
G1 X-22.188 Y-2.208 E33.53582
G1 X-22.508 Y-2.977 E33.58776
G1 X-22.725 Y-3.899 E33.64683
G1 X-22.750 Y-4.925 E33.71083
G1 X-22.750 Y-15.006 E34.33951
G1 X-18.079 Y-15.017 E34.63081
G1 X-11.250 Y-15.014 E35.05668
G1 X-11.250 Y-10.860 E35.31574
G1 X11.250 Y-10.850 E36.71890
G1 X11.250 Y-15.006 E36.97808
G1 X15.921 Y-15.017 E37.26938
G1 X22.750 Y-15.014 E37.69525
G1 X22.750 Y-4.954 E38.32262
G1 X22.726 Y-3.901 E38.38831
G1 X22.508 Y-2.977 E38.44751
G1 X22.188 Y-2.208 E38.49945
G1 X21.761 Y-1.512 E38.55038
G1 X21.222 Y-0.877 E38.60232
G1 X20.587 Y-0.338 E38.65426
G1 X20.071 Y-0.022 E38.69200
G1 X22.750 Y-0.028 E38.85907
G1 X22.750 Y10.068 E39.48868
G1 X22.727 Y11.101 E39.55312
G1 X22.506 Y12.028 E39.61255
G1 X22.188 Y12.791 E39.66410
G1 X21.761 Y13.487 E39.71502
G1 X21.222 Y14.122 E39.76696
G1 X20.587 Y14.661 E39.81891
G1 X19.891 Y15.088 E39.86983
G1 X19.122 Y15.408 E39.92177
G1 X18.197 Y15.626 E39.98104
G1 X17.181 Y15.649 E40.04441
G1 X-17.148 Y15.649 E42.18526
G1 X-18.196 Y15.628 E42.25063
G1 X-19.128 Y15.406 E42.31038
G1 X-19.891 Y15.088 E42.36193
G1 X-20.587 Y14.661 E42.41285
G1 X-21.222 Y14.122 E42.46480
G1 X-21.761 Y13.487 E42.51674
G1 X-22.188 Y12.791 E42.56766
G1 X-22.508 Y12.022 E42.61961
G1 X-22.724 Y11.103 E42.67848
G1 X-22.750 Y10.101 E42.74099
G1 X-22.750 Y-0.017 E43.37197
G1 X-20.064 Y-0.017 E43.53948
G1 X-20.587 Y-0.338 E43.57775
G1 F2400 E39.57775
G0 F10020 X-17.723 Y-4.490
;TYPE:WALL-INNER
G1 F2400 E43.57775
G1 F2940 X-17.739 Y-4.538 E43.58090
G1 X-17.750 Y-10.017 E43.92259
G1 X-16.250 Y-10.016 E44.01613
G1 X-16.250 Y-7.575 E44.16836
G1 X-16.230 Y-7.326 E44.18394
G1 X-16.167 Y-7.058 E44.20111
G1 X-16.061 Y-6.804 E44.21827
G1 X-15.918 Y-6.571 E44.23532
G1 X-15.739 Y-6.360 E44.25258
G1 X-15.528 Y-6.181 E44.26983
G1 X-15.295 Y-6.038 E44.28688
G1 X-15.041 Y-5.932 E44.30405
G1 X-14.743 Y-5.862 E44.32314
G1 X14.266 Y-5.849 E46.13222
G1 X14.755 Y-5.865 E46.16273
G1 X15.041 Y-5.932 E46.18105
G1 X15.295 Y-6.038 E46.19821
G1 X15.528 Y-6.181 E46.21526
G1 X15.739 Y-6.360 E46.23252
G1 X15.918 Y-6.571 E46.24977
G1 X16.061 Y-6.804 E46.26682
G1 X16.167 Y-7.058 E46.28399
G1 X16.230 Y-7.326 E46.30115
G1 X16.250 Y-10.017 E46.46898
G1 X17.750 Y-10.016 E46.56252
G1 X17.750 Y-5.020 E46.87409
G1 X17.734 Y-4.519 E46.90535
G1 X17.675 Y-4.424 E46.91232
G1 X17.609 Y-4.376 E46.91741
G1 X17.561 Y-4.360 E46.92056
G1 X-17.088 Y-4.349 E49.08137
G1 X-17.580 Y-4.365 E49.11207
G1 X-17.675 Y-4.424 E49.11904
G1 X-17.723 Y-4.490 E49.12413
G0 F10020 X-18.250 Y-4.977
;TYPE:WALL-OUTER
G1 F2940 X-18.250 Y-10.516 E49.46956
G1 X-15.750 Y-10.516 E49.62547
G1 X-15.750 Y-7.595 E49.80763
G1 X-15.735 Y-7.404 E49.81958
G1 X-15.690 Y-7.213 E49.83181
G1 X-15.614 Y-7.032 E49.84406
G1 X-15.512 Y-6.865 E49.85626
G1 X-15.384 Y-6.715 E49.86856
G1 X-15.234 Y-6.587 E49.88085
G1 X-15.067 Y-6.485 E49.89306
G1 X-14.886 Y-6.409 E49.90530
G1 X-14.685 Y-6.362 E49.91817
G1 X14.258 Y-6.349 E51.72314
G1 X14.689 Y-6.363 E51.75003
G1 X14.886 Y-6.409 E51.76265
G1 X15.067 Y-6.485 E51.77489
G1 X15.234 Y-6.587 E51.78709
G1 X15.384 Y-6.715 E51.79939
G1 X15.512 Y-6.865 E51.81169
G1 X15.614 Y-7.032 E51.82389
G1 X15.690 Y-7.213 E51.83613
G1 X15.735 Y-7.404 E51.84837
G1 X15.750 Y-10.516 E52.04245
G1 X18.250 Y-10.516 E52.19835
G1 X18.250 Y-5.009 E52.54178
G1 X18.238 Y-4.473 E52.57522
G1 X18.214 Y-4.370 E52.58182
G1 X18.166 Y-4.256 E52.58953
G1 X18.107 Y-4.160 E52.59656
G1 X18.030 Y-4.069 E52.60399
G1 X17.939 Y-3.992 E52.61142
G1 X17.843 Y-3.933 E52.61845
G1 X17.729 Y-3.885 E52.62617
G1 X17.626 Y-3.861 E52.63276
G1 X17.126 Y-3.849 E52.66395
G1 X-17.100 Y-3.849 E54.79838
G1 X-17.626 Y-3.861 E54.83119
G1 X-17.729 Y-3.885 E54.83779
G1 X-17.843 Y-3.933 E54.84550
G1 X-17.939 Y-3.992 E54.85253
G1 X-18.030 Y-4.069 E54.85996
G1 X-18.107 Y-4.160 E54.86739
G1 X-18.166 Y-4.256 E54.87442
G1 X-18.214 Y-4.370 E54.88214
G1 X-18.238 Y-4.473 E54.88873
G1 X-18.250 Y-4.977 E54.92017
G0 F10020 X-17.565 Y-5.190
;TYPE:SKIN
G1 F2940 X-16.899 Y-4.524 E54.97891
G0 F10020 X-16.192 Y-4.524
G1 F2940 X-17.566 Y-5.899 E55.10013
G0 F10020 X-17.568 Y-6.607
G1 F2940 X-15.484 Y-4.524 E55.28388
G0 F10020 X-14.777 Y-4.524
G1 F2940 X-17.569 Y-7.316 E55.53012
G0 F10020 X-17.570 Y-8.024
G1 F2940 X-16.130 Y-6.584 E55.65712
G0 F10020 X-15.513 Y-5.967
G1 F2940 X-14.071 Y-4.525 E55.78430
G0 F10020 X-13.364 Y-4.525
G1 F2940 X-14.525 Y-5.686 E55.88669
G0 F10020 X-13.818 Y-5.686
G1 F2940 X-12.657 Y-4.525 E55.98908
G0 F10020 X-11.950 Y-4.526
G1 F2940 X-13.110 Y-5.685 E56.09135
G0 F10020 X-12.403 Y-5.685
G1 F2940 X-11.243 Y-4.526 E56.19361
G0 F10020 X-10.536 Y-4.526
G1 F2940 X-11.696 Y-5.685 E56.29587
G0 F10020 X-10.988 Y-5.685
G1 F2940 X-9.830 Y-4.526 E56.39804
G0 F10020 X-9.123 Y-4.526
G1 F2940 X-10.281 Y-5.685 E56.50021
G0 F10020 X-9.573 Y-5.684
G1 F2940 X-8.415 Y-4.526 E56.60234
G0 F10020 X-7.709 Y-4.527
G1 F2940 X-8.866 Y-5.684 E56.70438
G0 F10020 X-8.158 Y-5.683
G1 F2940 X-7.002 Y-4.527 E56.80634
G0 F10020 X-6.295 Y-4.527
G1 F2940 X-7.451 Y-5.683 E56.90829
G0 F10020 X-6.744 Y-5.683
G1 F2940 X-5.588 Y-4.527 E57.01024
G0 F10020 X-4.881 Y-4.528
G1 F2940 X-6.036 Y-5.683 E57.11211
G0 F10020 X-5.329 Y-5.683
G1 F2940 X-4.174 Y-4.528 E57.21397
G0 F10020 X-3.467 Y-4.528
G1 F2940 X-4.621 Y-5.682 E57.31575
G0 F10020 X-3.914 Y-5.682
G1 F2940 X-2.761 Y-4.529 E57.41743
G0 F10020 X-2.054 Y-4.529
G1 F2940 X-3.206 Y-5.681 E57.51903
G0 F10020 X-2.499 Y-5.681
G1 F2940 X-1.347 Y-4.529 E57.62063
G0 F10020 X-0.640 Y-4.529
G1 F2940 X-1.791 Y-5.680 E57.72215
G0 F10020 X-1.084 Y-5.680
G1 F2940 X0.066 Y-4.529 E57.82361
G0 F10020 X0.773 Y-4.529
G1 F2940 X-0.377 Y-5.680 E57.92508
G0 F10020 X0.330 Y-5.680
G1 F2940 X1.479 Y-4.530 E58.02646
G0 F10020 X2.187 Y-4.530
G1 F2940 X1.037 Y-5.680 E58.12788
G0 F10020 X1.745 Y-5.679
G1 F2940 X2.894 Y-4.530 E58.22922
G0 F10020 X3.601 Y-4.530
G1 F2940 X2.452 Y-5.679 E58.33055
G0 F10020 X3.160 Y-5.678
G1 F2940 X4.307 Y-4.531 E58.43171
G0 F10020 X5.014 Y-4.531
G1 F2940 X3.867 Y-5.678 E58.53287
G0 F10020 X4.574 Y-5.678
G1 F2940 X5.721 Y-4.531 E58.63403
G0 F10020 X6.428 Y-4.531
G1 F2940 X5.282 Y-5.678 E58.73514
G0 F10020 X5.989 Y-5.678
G1 F2940 X7.135 Y-4.531 E58.83626
G0 F10020 X7.842 Y-4.531
G1 F2940 X6.697 Y-5.677 E58.93729
G0 F10020 X7.404 Y-5.677
G1 F2940 X8.548 Y-4.532 E59.03822
G0 F10020 X9.256 Y-4.532
G1 F2940 X8.111 Y-5.676 E59.13916
G0 F10020 X8.819 Y-5.676
G1 F2940 X9.963 Y-4.532 E59.24006
G0 F10020 X10.669 Y-4.533
G1 F2940 X9.526 Y-5.675 E59.34082
G0 F10020 X10.233 Y-5.675
G1 F2940 X11.376 Y-4.533 E59.44158
G0 F10020 X12.083 Y-4.533
G1 F2940 X10.941 Y-5.675 E59.54230
G0 F10020 X11.648 Y-5.675
G1 F2940 X12.790 Y-4.533 E59.64302
G0 F10020 X13.497 Y-4.533
G1 F2940 X12.355 Y-5.675 E59.74373
G0 F10020 X13.063 Y-5.674
G1 F2940 X14.204 Y-4.533 E59.84436
G0 F10020 X14.911 Y-4.533
G1 F2940 X13.770 Y-5.674 E59.94499
G0 F10020 X14.471 Y-5.680
G1 F2940 X15.617 Y-4.534 E60.04606
G0 F10020 X16.324 Y-4.534
G1 F2940 X15.094 Y-5.765 E60.15459
G0 F10020 X15.566 Y-5.999
G1 F2940 X17.032 Y-4.534 E60.28384
G0 F10020 X17.565 Y-4.708
G1 F2940 X15.942 Y-6.331 E60.42698
G0 F10020 X16.227 Y-6.753
G1 F2940 X17.574 Y-5.406 E60.54577
G0 F10020 X17.574 Y-6.113
G1 F2940 X16.399 Y-7.288 E60.64940
G0 F10020 X16.409 Y-7.986
G1 F2940 X17.574 Y-6.820 E60.75219
G0 F10020 X17.574 Y-7.527
G1 F2940 X16.414 Y-8.688 E60.85454
G0 F10020 X16.419 Y-9.389
G1 F2940 X17.574 Y-8.234 E60.95641
G0 F10020 X17.574 Y-8.942
G1 F2940 X16.674 Y-9.841 E61.03574
G0 F10020 X17.382 Y-9.841
G1 F2940 X17.574 Y-9.649 E61.05267
G0 F10020 X15.498 Y-6.222
G0 X14.265 Y-5.899
G0 X-15.271 Y-6.083
G0 X-16.179 Y-7.334
G0 X-16.423 Y-9.706
G1 F2940 X-16.558 Y-9.840 E61.06453
G0 F10020 X-17.266 Y-9.841
G1 F2940 X-16.423 Y-8.999 E61.13884
G0 F10020 X-16.423 Y-8.292
G1 F2940 X-17.573 Y-9.441 E61.24021
G0 F10020 X-17.572 Y-8.733
G1 F2940 X-16.423 Y-7.585 E61.34151
G1 F2400 E57.34151
G0 F10020 X-16.250 Y4.983
;TYPE:WALL-INNER
G1 F2400 E61.34151
G1 F2940 X-16.250 Y7.424 E61.49373
G1 X-16.230 Y7.674 E61.50937
G1 X-16.167 Y7.941 E61.52648
G1 X-16.061 Y8.195 E61.54365
G1 X-15.918 Y8.428 E61.56069
G1 X-15.739 Y8.639 E61.57795
G1 X-15.528 Y8.818 E61.59521
G1 X-15.295 Y8.961 E61.61226
G1 X-15.041 Y9.067 E61.62942
G1 X-14.746 Y9.136 E61.64831
G1 X-13.319 Y9.149 E61.73731
G1 X14.264 Y9.149 E63.45746
G1 X14.756 Y9.134 E63.48816
G1 X15.041 Y9.067 E63.50641
G1 X15.295 Y8.961 E63.52358
G1 X15.528 Y8.818 E63.54063
G1 X15.739 Y8.639 E63.55788
G1 X15.918 Y8.428 E63.57514
G1 X16.061 Y8.195 E63.59219
G1 X16.167 Y7.941 E63.60935
G1 X16.230 Y7.673 E63.62652
G1 X16.250 Y4.983 E63.79428
G1 X17.750 Y4.983 E63.88783
G1 X17.750 Y10.003 E64.20089
G1 X17.734 Y10.482 E64.23077
G1 X17.675 Y10.575 E64.23764
G1 X17.609 Y10.623 E64.24273
G1 X17.561 Y10.639 E64.24589
G1 X-17.090 Y10.649 E66.40682
G1 X-17.582 Y10.634 E66.43752
G1 X-17.675 Y10.575 E66.44438
G1 X-17.723 Y10.509 E66.44947
G1 X-17.739 Y10.461 E66.45263
G1 X-17.750 Y4.983 E66.79425
G1 X-16.250 Y4.983 E66.88780
G0 F10020 X-16.100 Y7.404
G0 X-15.750 Y7.404
;TYPE:WALL-OUTER
G1 F2940 X-15.735 Y7.596 E66.89981
G1 X-15.690 Y7.786 E66.91198
G1 X-15.614 Y7.967 E66.92423
G1 X-15.512 Y8.134 E66.93643
G1 X-15.384 Y8.284 E66.94873
G1 X-15.234 Y8.412 E66.96102
G1 X-15.067 Y8.514 E66.97323
G1 X-14.886 Y8.590 E66.98547
G1 X-14.686 Y8.637 E66.99828
G1 X-13.317 Y8.649 E67.08366
G1 X14.257 Y8.649 E68.80325
G1 X14.690 Y8.636 E68.83027
G1 X14.886 Y8.590 E68.84282
G1 X15.067 Y8.514 E68.85506
G1 X15.234 Y8.412 E68.86727
G1 X15.384 Y8.284 E68.87957
G1 X15.512 Y8.134 E68.89186
G1 X15.614 Y7.967 E68.90407
G1 X15.690 Y7.786 E68.91631
G1 X15.735 Y7.595 E68.92855
G1 X15.750 Y4.483 E69.12262
G1 X18.250 Y4.482 E69.27853
G1 X18.250 Y10.014 E69.62352
G1 X18.239 Y10.523 E69.65527
G1 X18.213 Y10.629 E69.66208
G1 X18.166 Y10.743 E69.66976
G1 X18.107 Y10.839 E69.67679
G1 X18.030 Y10.930 E69.68423
G1 X17.939 Y11.007 E69.69166
G1 X17.843 Y11.066 E69.69869
G1 X17.729 Y11.114 E69.70640
G1 X17.626 Y11.138 E69.71300
G1 X17.126 Y11.149 E69.74419
G1 X-17.100 Y11.149 E71.87861
G1 X-17.623 Y11.139 E71.91123
G1 X-17.729 Y11.113 E71.91804
G1 X-17.843 Y11.066 E71.92573
G1 X-17.939 Y11.007 E71.93276
G1 X-18.030 Y10.930 E71.94019
G1 X-18.107 Y10.839 E71.94763
G1 X-18.166 Y10.743 E71.95465
G1 X-18.214 Y10.629 E71.96237
G1 X-18.238 Y10.526 E71.96896
G1 X-18.250 Y4.483 E72.34582
G1 X-15.750 Y4.482 E72.50173
G1 X-15.750 Y7.404 E72.68395
G0 F10020 X-16.423 Y7.264
;TYPE:SKIN
G1 F2940 X-17.571 Y6.116 E72.78520
G0 F10020 X-17.570 Y6.824
G1 F2940 X-16.284 Y8.110 E72.89862
G0 F10020 X-17.567 Y8.242
G1 F2940 X-15.336 Y10.472 E73.09533
G0 F10020 X-16.043 Y10.472
G1 F2940 X-17.565 Y8.950 E73.22957
G0 F10020 X-17.565 Y9.658
G1 F2940 X-16.750 Y10.472 E73.30140
G0 F10020 X-17.469 Y10.461
G1 F2940 X-17.563 Y10.366 E73.30973
G0 F10020 X-15.209 Y9.186
G1 F2940 X-13.922 Y10.472 E73.42320
G0 F10020 X-14.629 Y10.472
G1 F2940 X-17.568 Y7.533 E73.68240
G0 F10020 X-16.423 Y6.557
G1 F2940 X-17.573 Y5.407 E73.78382
G0 F10020 X-17.115 Y5.158
G1 F2940 X-16.423 Y5.849 E73.84481
G0 F10020 X-15.877 Y8.398
G0 X-14.739 Y9.084
G0 X-14.376 Y9.311
G1 F2940 X-13.215 Y10.472 E73.94720
G0 F10020 X-12.508 Y10.472
G1 F2940 X-13.669 Y9.311 E74.04960
G0 F10020 X-12.961 Y9.312
G1 F2940 X-11.802 Y10.471 E74.15181
G0 F10020 X-11.095 Y10.471
G1 F2940 X-12.254 Y9.312 E74.25403
G0 F10020 X-11.547 Y9.312
G1 F2940 X-10.388 Y10.471 E74.35625
G0 F10020 X-9.680 Y10.471
G1 F2940 X-10.839 Y9.313 E74.45842
G0 F10020 X-10.132 Y9.313
G1 F2940 X-8.974 Y10.470 E74.56051
G0 F10020 X-8.267 Y10.470
G1 F2940 X-9.424 Y9.314 E74.66250
G0 F10020 X-8.717 Y9.314
G1 F2940 X-7.560 Y10.470 E74.76450
G0 F10020 X-6.853 Y10.470
G1 F2940 X-8.009 Y9.314 E74.86645
G0 F10020 X-7.302 Y9.314
G1 F2940 X-6.146 Y10.470 E74.96840
G0 F10020 X-5.439 Y10.470
G1 F2940 X-6.594 Y9.315 E75.07027
G0 F10020 X-5.887 Y9.315
G1 F2940 X-4.732 Y10.470 E75.17213
G0 F10020 X-4.026 Y10.469
G1 F2940 X-5.180 Y9.315 E75.27391
