;FLAVOR:Marlin
;TIME:2770
;Filament used: 1.8775m
;Layer height: 0.15
;MINX:91.2
;MINY:61.221
;MINZ:0.3
;MAXX:128.8
;MAXY:158.792
;MAXZ:6.3
;Generated with Cura_SteamEngine main
M140 S60
M105
M190 S60
M104 S200
M105
M109 S200
M82 ;absolute extrusion mode
G28 ;Home
G1 Z15.0 F2000 ;Move the platform
G92 E0
G92 E0
G1 F1500 E-6.5
;LAYER_COUNT:41
;LAYER:0
M107
M204 S1000
G0 F7500 X94.494 Y69.375 Z0.3
G0 X91.667 Y75.917
;TYPE:SKIRT
G1 F1500 E0
G1 X91.84 Y75.147 E0.03937
G1 X92 Y74.639 E0.06594
G1 X92.622 Y72.877 E0.15917
G1 X92.922 Y72.146 E0.19859
G1 X93.167 Y71.67 E0.2253
G1 X94.075 Y70.044 E0.31821
G1 X94.494 Y69.375 E0.35759
G1 X94.818 Y68.944 E0.38449
G1 X95.993 Y67.49 E0.47776
G1 X96.52 Y66.902 E0.51715
G1 X96.905 Y66.54 E0.54352
G1 X98.305 Y65.307 E0.63659
G1 X98.923 Y64.815 E0.676
G1 X99.372 Y64.517 E0.70289
G1 X100.958 Y63.541 E0.79579
G1 X101.651 Y63.162 E0.8352
G1 X102.138 Y62.947 E0.86176
G1 X103.87 Y62.251 E0.95489
G1 X104.616 Y61.994 E0.99425
G1 X105.133 Y61.863 E1.02086
G1 X106.959 Y61.469 E1.11405
G1 X107.738 Y61.342 E1.15343
G1 X108.267 Y61.301 E1.1799
G1 X110.117 Y61.221 E1.27229
G1 X110.907 Y61.227 E1.3117
G1 X111.442 Y61.277 E1.33851
G1 X113.306 Y61.515 E1.43226
G1 X114.083 Y61.654 E1.47164
G1 X114.6 Y61.793 E1.49835
G1 X116.381 Y62.338 E1.59127
G1 X117.124 Y62.607 E1.63069
G1 X117.611 Y62.832 E1.65746
G1 X119.281 Y63.674 E1.75076
G1 X119.967 Y64.065 E1.79016
G1 X120.411 Y64.371 E1.81706
G1 X121.91 Y65.481 E1.91012
G1 X122.52 Y65.982 E1.9495
G1 X122.897 Y66.35 E1.97578
G1 X124.186 Y67.694 E2.06869
G1 X124.703 Y68.291 E2.10809
G1 X125.018 Y68.723 E2.13476
G1 X126.065 Y70.271 E2.228
G1 X126.474 Y70.947 E2.26742
G1 X126.71 Y71.425 E2.29401
G1 X127.478 Y73.122 E2.38694
G1 X127.767 Y73.857 E2.42635
G1 X127.921 Y74.375 E2.45331
G1 X128.391 Y76.182 E2.54646
G1 X128.551 Y76.955 E2.58584
G1 X128.614 Y77.484 E2.61242
G1 X128.772 Y79.343 E2.7055
G1 X128.8 Y80.004 E2.73851
G1 X128.8 Y140.004 E5.73192
G1 X128.772 Y140.664 E5.76488
G1 X128.614 Y142.525 E5.85806
G1 X128.507 Y143.307 E5.89743
G1 X128.391 Y143.829 E5.92411
G1 X127.922 Y145.632 E6.01706
G1 X127.685 Y146.385 E6.05644
G1 X127.48 Y146.881 E6.08322
G1 X126.711 Y148.582 E6.17635
G1 X126.35 Y149.284 E6.21573
G1 X126.065 Y149.739 E6.24252
G1 X125.018 Y151.287 E6.33575
G1 X124.543 Y151.918 E6.37516
G1 X124.186 Y152.316 E6.40183
G1 X122.897 Y153.66 E6.49474
G1 X122.323 Y154.202 E6.53412
G1 X121.91 Y154.529 E6.5604
G1 X120.411 Y155.639 E6.65346
G1 X119.753 Y156.077 E6.6929
G1 X119.281 Y156.336 E6.71976
G1 X117.611 Y157.178 E6.81306
G1 X116.888 Y157.497 E6.85249
G1 X116.381 Y157.672 E6.87925
G1 X114.6 Y158.217 E6.97217
G1 X113.835 Y158.409 E7.01152
G1 X113.308 Y158.495 E7.03816
G1 X111.456 Y158.732 E7.13131
G1 X110.669 Y158.792 E7.17069
G1 X110.135 Y158.788 E7.19733
G1 X108.273 Y158.709 E7.29031
G1 X107.487 Y158.636 E7.32969
G1 X106.959 Y158.541 E7.35646
G1 X105.133 Y158.147 E7.44965
G1 X104.37 Y157.941 E7.48908
G1 X103.87 Y157.759 E7.51563
G1 X102.138 Y157.063 E7.60875
G1 X101.421 Y156.732 E7.64815
G1 X100.957 Y156.468 E7.67479
G1 X99.37 Y155.491 E7.76776
G1 X98.719 Y155.044 E7.80716
G1 X98.304 Y154.703 E7.83396
G1 X96.905 Y153.471 E7.92696
G1 X96.34 Y152.92 E7.96633
G1 X95.993 Y152.52 E7.99275
G1 X94.818 Y151.066 E8.08602
G1 X94.354 Y150.427 E8.12542
G1 X94.075 Y149.966 E8.1523
G1 X93.167 Y148.34 E8.24521
G1 X92.817 Y147.632 E8.28462
G1 X92.622 Y147.133 E8.31134
G1 X92 Y145.371 E8.40457
G1 X91.775 Y144.614 E8.44397
G1 X91.667 Y144.093 E8.47051
G1 X91.352 Y142.255 E8.56355
G1 X91.247 Y141.271 E8.61292
G1 X91.207 Y140.339 E8.65946
G1 X91.2 Y140.005 E8.67613
G1 X91.2 Y80.006 E11.66949
G1 X91.207 Y79.672 E11.68615
G1 X91.247 Y78.739 E11.73275
G1 X91.352 Y77.755 E11.78212
G1 X91.667 Y75.917 E11.87515
G1 F1500 E5.37515
G0 F7500 X92.006 Y79.706
G1 F1500 E11.87515
G1 X92.046 Y78.773 E11.92174
G1 X92.141 Y77.891 E11.966
G1 X92.456 Y76.053 E12.05903
G1 X92.621 Y75.323 E12.09637
G1 X92.754 Y74.905 E12.11826
G1 X93.376 Y73.143 E12.21148
G1 X93.663 Y72.452 E12.24881
G1 X93.865 Y72.06 E12.27081
G1 X94.773 Y70.434 E12.36372
G1 X95.172 Y69.801 E12.40105
G1 X95.441 Y69.447 E12.42324
G1 X96.616 Y67.993 E12.5165
G1 X97.116 Y67.437 E12.55381
G1 X97.433 Y67.14 E12.57548
G1 X98.833 Y65.907 E12.66855
G1 X99.42 Y65.443 E12.70588
G1 X99.791 Y65.198 E12.72806
G1 X101.377 Y64.222 E12.82097
G1 X102.034 Y63.865 E12.85827
G1 X102.436 Y63.689 E12.88017
G1 X104.168 Y62.993 E12.97329
G1 X104.876 Y62.751 E13.01062
G1 X105.302 Y62.645 E13.03252
G1 X107.128 Y62.251 E13.12572
G1 X107.866 Y62.133 E13.16301
G1 X108.302 Y62.101 E13.18482
G1 X110.152 Y62.021 E13.2772
G1 X110.9 Y62.028 E13.31452
G1 X111.341 Y62.07 E13.33662
G1 X113.205 Y62.308 E13.43037
G1 X113.94 Y62.443 E13.46765
G1 X114.366 Y62.558 E13.48967
G1 X116.147 Y63.103 E13.58259
G1 X116.85 Y63.36 E13.61993
G1 X117.25 Y63.547 E13.64196
G1 X118.92 Y64.389 E13.73527
G1 X119.569 Y64.761 E13.77259
G1 X119.935 Y65.013 E13.79476
G1 X121.434 Y66.123 E13.88782
G1 X122.01 Y66.6 E13.92513
G1 X122.32 Y66.904 E13.94679
G1 X123.609 Y68.248 E14.0397
G1 X124.097 Y68.814 E14.07698
G1 X124.355 Y69.171 E14.09896
G1 X125.402 Y70.719 E14.19219
G1 X125.788 Y71.36 E14.22952
G1 X125.981 Y71.755 E14.25146
G1 X126.749 Y73.452 E14.34439
G1 X127.021 Y74.149 E14.38171
G1 X127.147 Y74.576 E14.40392
G1 X127.617 Y76.383 E14.49708
G1 X127.766 Y77.116 E14.53439
G1 X127.817 Y77.552 E14.55629
G1 X127.975 Y79.411 E14.64937
G1 X128 Y80.004 E14.67898
G1 X128 Y140.004 E17.6724
G1 X127.975 Y140.596 E17.70196
G1 X127.817 Y142.457 E17.79514
G1 X127.714 Y143.198 E17.83246
G1 X127.617 Y143.627 E17.8544
G1 X127.148 Y145.43 E17.94735
G1 X126.921 Y146.143 E17.98468
G1 X126.751 Y146.552 E18.00678
G1 X125.982 Y148.253 E18.09991
G1 X125.638 Y148.917 E18.13722
G1 X125.402 Y149.291 E18.15928
G1 X124.355 Y150.839 E18.25252
G1 X123.904 Y151.435 E18.28981
G1 X123.609 Y151.762 E18.31178
G1 X122.32 Y153.106 E18.40469
G1 X121.774 Y153.618 E18.44203
G1 X121.434 Y153.887 E18.46366
G1 X119.935 Y154.997 E18.55672
G1 X119.311 Y155.409 E18.59402
G1 X118.92 Y155.621 E18.61621
G1 X117.25 Y156.463 E18.70952
G1 X116.565 Y156.764 E18.74685
G1 X116.147 Y156.907 E18.76889
G1 X114.366 Y157.452 E18.86181
G1 X113.64 Y157.632 E18.89913
G1 X113.207 Y157.701 E18.921
G1 X111.355 Y157.938 E19.01415
G1 X110.609 Y157.994 E19.05147
G1 X110.169 Y157.989 E19.07343
G1 X108.307 Y157.91 E19.16641
G1 X107.563 Y157.838 E19.2037
G1 X107.128 Y157.759 E19.22576
G1 X105.302 Y157.365 E19.31895
G1 X104.58 Y157.168 E19.35629
G1 X104.168 Y157.017 E19.37818
G1 X102.436 Y156.321 E19.47131
G1 X101.758 Y156.006 E19.5086
G1 X101.376 Y155.787 E19.53057
G1 X99.789 Y154.81 E19.62355
G1 X99.174 Y154.384 E19.66087
G1 X98.833 Y154.102 E19.68295
G1 X97.434 Y152.87 E19.77595
G1 X96.9 Y152.347 E19.81324
G1 X96.616 Y152.017 E19.83496
G1 X95.441 Y150.563 E19.92823
G1 X95.002 Y149.957 E19.96556
G1 X94.773 Y149.576 E19.98774
G1 X93.865 Y147.95 E20.08065
G1 X93.536 Y147.278 E20.11798
G1 X93.376 Y146.867 E20.13999
G1 X92.754 Y145.105 E20.23321
G1 X92.543 Y144.387 E20.27054
G1 X92.456 Y143.957 E20.29243
G1 X92.141 Y142.119 E20.38547
G1 X92.046 Y141.237 E20.42972
G1 X92.006 Y140.305 E20.47626
G1 X92 Y140.005 E20.49124
G1 X92.006 Y79.706 E23.49956
G0 F7500 X92.4 Y80.006
G1 F1500 X92.446 Y78.79 E23.56027
G1 X92.535 Y77.958 E23.60202
G1 X92.85 Y76.12 E23.69505
G1 X93.012 Y75.412 E23.73129
G1 X93.131 Y75.038 E23.75087
G1 X93.753 Y73.276 E23.84409
G1 X94.033 Y72.605 E23.88037
G1 X94.215 Y72.255 E23.90005
G1 X95.123 Y70.629 E23.99296
G1 X95.511 Y70.015 E24.0292
G1 X95.752 Y69.699 E24.04903
G1 X96.927 Y68.245 E24.14229
G1 X97.414 Y67.706 E24.17853
G1 X97.698 Y67.44 E24.19795
G1 X99.098 Y66.207 E24.29102
G1 X99.669 Y65.758 E24.32726
G1 X100.001 Y65.539 E24.3471
G1 X101.587 Y64.563 E24.44001
G1 X102.226 Y64.217 E24.47626
G1 X102.585 Y64.06 E24.49581
G1 X104.317 Y63.364 E24.58894
G1 X105.005 Y63.131 E24.62518
G1 X105.386 Y63.036 E24.64477
G1 X107.212 Y62.642 E24.73796
G1 X107.929 Y62.529 E24.77417
G1 X108.319 Y62.5 E24.79369
G1 X110.169 Y62.42 E24.88607
G1 X110.895 Y62.429 E24.92229
G1 X111.29 Y62.467 E24.94209
G1 X113.154 Y62.705 E25.03584
G1 X113.868 Y62.837 E25.07206
G1 X114.249 Y62.941 E25.09177
G1 X116.03 Y63.486 E25.18469
G1 X116.712 Y63.736 E25.22093
G1 X117.07 Y63.904 E25.24066
G1 X118.74 Y64.746 E25.33397
G1 X119.37 Y65.108 E25.37022
G1 X119.697 Y65.335 E25.39008
G1 X121.196 Y66.445 E25.48313
G1 X121.755 Y66.909 E25.51938
G1 X122.031 Y67.181 E25.53871
G1 X123.32 Y68.525 E25.63162
G1 X123.794 Y69.076 E25.66788
G1 X124.024 Y69.395 E25.6875
G1 X125.071 Y70.943 E25.78073
G1 X125.444 Y71.567 E25.817
G1 X125.617 Y71.92 E25.83662
G1 X126.385 Y73.617 E25.92955
G1 X126.648 Y74.294 E25.96578
G1 X126.759 Y74.677 E25.98568
G1 X127.229 Y76.484 E26.07883
G1 X127.373 Y77.196 E26.11507
G1 X127.418 Y77.586 E26.13465
G1 X127.576 Y79.445 E26.22773
G1 X127.6 Y80.004 E26.25565
G1 X127.6 Y140.004 E29.24906
G1 X127.576 Y140.562 E29.27692
G1 X127.418 Y142.423 E29.3701
G1 X127.317 Y143.143 E29.40638
G1 X127.229 Y143.527 E29.42603
G1 X126.76 Y145.33 E29.51898
G1 X126.539 Y146.021 E29.55517
G1 X126.387 Y146.387 E29.57494
G1 X125.618 Y148.088 E29.66808
G1 X125.283 Y148.732 E29.70429
G1 X125.071 Y149.067 E29.72407
G1 X124.024 Y150.615 E29.81731
G1 X123.585 Y151.193 E29.85352
G1 X123.32 Y151.485 E29.87319
G1 X122.031 Y152.829 E29.9661
G1 X121.5 Y153.325 E30.00235
G1 X121.196 Y153.565 E30.02167
G1 X119.697 Y154.675 E30.11473
G1 X119.09 Y155.075 E30.151
G1 X118.74 Y155.264 E30.17084
G1 X117.07 Y156.106 E30.26415
G1 X116.405 Y156.397 E30.30036
G1 X116.03 Y156.524 E30.32012
G1 X114.249 Y157.069 E30.41304
G1 X113.544 Y157.243 E30.44927
G1 X113.156 Y157.305 E30.46887
G1 X111.304 Y157.542 E30.56202
G1 X110.579 Y157.594 E30.59828
G1 X110.186 Y157.589 E30.61789
G1 X108.324 Y157.51 E30.71087
G1 X107.601 Y157.439 E30.74711
G1 X107.212 Y157.368 E30.76684
G1 X105.386 Y156.974 E30.86004
G1 X104.685 Y156.781 E30.89631
G1 X104.317 Y156.646 E30.91587
G1 X102.585 Y155.95 E31.00899
G1 X101.927 Y155.643 E31.04522
G1 X101.586 Y155.446 E31.06487
G1 X99.999 Y154.469 E31.15784
G1 X99.402 Y154.055 E31.19409
G1 X99.097 Y153.802 E31.21386
G1 X97.698 Y152.57 E31.30686
G1 X97.18 Y152.061 E31.34309
G1 X96.927 Y151.765 E31.36252
G1 X95.752 Y150.311 E31.45578
G1 X95.327 Y149.722 E31.49202
G1 X95.123 Y149.381 E31.51185
G1 X94.215 Y147.755 E31.60476
G1 X93.896 Y147.102 E31.64102
G1 X93.753 Y146.734 E31.66071
G1 X93.131 Y144.972 E31.75394
G1 X92.928 Y144.275 E31.79015
G1 X92.85 Y143.89 E31.80975
G1 X92.535 Y142.052 E31.90279
G1 X92.446 Y141.22 E31.94453
G1 X92.4 Y140.005 E32.00519
G1 X92.4 Y80.006 E34.99856
G0 F7500 X92.8 Y80.006
G1 F1500 X92.846 Y78.807 E35.05842
G1 X92.929 Y78.026 E35.0976
G1 X93.244 Y76.188 E35.19064
G1 X93.509 Y75.171 E35.24307
G1 X94.131 Y73.409 E35.33629
G1 X94.564 Y72.45 E35.38879
G1 X95.472 Y70.824 E35.4817
G1 X96.063 Y69.95 E35.53434
G1 X97.238 Y68.496 E35.6276
G1 X97.962 Y67.74 E35.67983
G1 X99.362 Y66.507 E35.7729
G1 X100.211 Y65.88 E35.82556
G1 X101.797 Y64.904 E35.91846
G1 X102.734 Y64.431 E35.97083
G1 X104.466 Y63.735 E36.06395
G1 X105.47 Y63.427 E36.11635
G1 X107.296 Y63.033 E36.20954
G1 X108.336 Y62.9 E36.26185
G1 X110.186 Y62.82 E36.35424
G1 X111.239 Y62.864 E36.40682
G1 X113.103 Y63.102 E36.50057
G1 X114.132 Y63.323 E36.55307
G1 X115.913 Y63.868 E36.646
G1 X116.89 Y64.261 E36.69853
G1 X118.56 Y65.103 E36.79184
G1 X119.459 Y65.656 E36.8445
G1 X120.958 Y66.766 E36.93756
G1 X121.743 Y67.457 E36.98973
G1 X123.032 Y68.801 E37.08264
G1 X123.693 Y69.619 E37.13511
G1 X124.74 Y71.167 E37.22834
G1 X125.252 Y72.085 E37.28078
G1 X126.02 Y73.782 E37.37371
G1 X126.274 Y74.439 E37.40886
G1 X126.372 Y74.777 E37.42641
G1 X126.842 Y76.584 E37.51957
G1 X127.02 Y77.62 E37.57201
G1 X127.178 Y79.479 E37.66509
G1 X127.2 Y80.004 E37.6913
G1 X127.2 Y140.004 E40.68472
G1 X127.178 Y140.528 E40.71088
G1 X127.02 Y142.389 E40.80406
G1 X126.842 Y143.426 E40.85655
G1 X126.373 Y145.229 E40.9495
G1 X126.022 Y146.222 E41.00204
G1 X125.253 Y147.923 E41.09518
G1 X124.74 Y148.843 E41.14773
G1 X123.693 Y150.391 E41.24097
G1 X123.032 Y151.209 E41.29343
G1 X121.743 Y152.553 E41.38634
G1 X120.958 Y153.244 E41.43852
G1 X119.459 Y154.354 E41.53157
G1 X118.56 Y154.907 E41.58423
G1 X116.89 Y155.749 E41.67754
G1 X115.913 Y156.142 E41.73008
G1 X114.132 Y156.687 E41.823
G1 X113.105 Y156.908 E41.87541
G1 X111.253 Y157.145 E41.96856
G1 X110.203 Y157.189 E42.02099
G1 X108.341 Y157.11 E42.11397
G1 X107.296 Y156.977 E42.16652
G1 X105.47 Y156.583 E42.25972
G1 X104.466 Y156.275 E42.31211
G1 X102.734 Y155.579 E42.40524
G1 X101.796 Y155.106 E42.45765
G1 X100.209 Y154.129 E42.55063
G1 X99.361 Y153.502 E42.60324
G1 X97.962 Y152.27 E42.69624
G1 X97.238 Y151.514 E42.74847
G1 X96.063 Y150.06 E42.84173
G1 X95.472 Y149.186 E42.89437
G1 X94.564 Y147.56 E42.98728
G1 X94.131 Y146.601 E43.03978
G1 X93.509 Y144.839 E43.133
G1 X93.244 Y143.822 E43.18543
G1 X92.929 Y141.984 E43.27847
G1 X92.846 Y141.203 E43.31765
G1 X92.8 Y140.005 E43.37747
G1 X92.8 Y80.006 E46.37083
G0 F7500 X93.205 Y79.758
G1 F1500 X93.245 Y78.825 E46.41742
G1 X93.323 Y78.093 E46.45415
G1 X93.638 Y76.255 E46.54718
G1 X93.886 Y75.304 E46.59621
G1 X94.508 Y73.542 E46.68944
G1 X94.913 Y72.645 E46.73854
G1 X95.821 Y71.019 E46.83145
G1 X96.374 Y70.201 E46.88071
G1 X97.549 Y68.747 E46.97398
G1 X98.227 Y68.04 E47.02285
G1 X99.627 Y66.807 E47.11592
G1 X100.42 Y66.22 E47.16514
G1 X102.006 Y65.244 E47.25805
G1 X102.883 Y64.802 E47.30705
G1 X104.615 Y64.106 E47.40017
G1 X105.555 Y63.818 E47.44922
G1 X107.381 Y63.424 E47.54242
G1 X108.353 Y63.299 E47.59131
G1 X110.203 Y63.219 E47.68369
G1 X111.189 Y63.261 E47.73293
G1 X113.053 Y63.499 E47.82668
G1 X114.015 Y63.706 E47.87577
G1 X115.796 Y64.251 E47.96869
G1 X116.71 Y64.618 E48.01783
G1 X118.38 Y65.46 E48.11114
G1 X119.221 Y65.978 E48.16042
G1 X120.72 Y67.088 E48.25347
G1 X121.454 Y67.734 E48.30226
G1 X122.743 Y69.078 E48.39516
G1 X123.361 Y69.844 E48.44427
G1 X124.408 Y71.392 E48.5375
G1 X124.888 Y72.25 E48.58655
G1 X125.656 Y73.947 E48.67948
G1 X125.985 Y74.878 E48.72874
G1 X126.455 Y76.685 E48.8219
G1 X126.621 Y77.654 E48.87094
G1 X126.779 Y79.513 E48.96402
G1 X126.8 Y80.004 E48.98854
G1 X126.8 Y140.004 E51.98195
G1 X126.779 Y140.495 E52.00647
G1 X126.621 Y142.356 E52.09965
G1 X126.455 Y143.325 E52.1487
G1 X125.986 Y145.128 E52.24165
G1 X125.658 Y146.057 E52.2908
G1 X124.889 Y147.758 E52.38393
G1 X124.408 Y148.618 E52.43309
G1 X123.361 Y150.166 E52.52633
G1 X122.743 Y150.932 E52.57543
G1 X121.454 Y152.276 E52.66834
G1 X120.72 Y152.922 E52.71712
G1 X119.221 Y154.032 E52.81018
G1 X118.38 Y154.55 E52.85945
G1 X116.71 Y155.392 E52.95276
G1 X115.796 Y155.759 E53.0019
G1 X114.015 Y156.304 E53.09482
G1 X113.054 Y156.511 E53.14386
G1 X111.202 Y156.748 E53.23701
G1 X110.22 Y156.79 E53.28605
G1 X108.358 Y156.711 E53.37903
G1 X107.381 Y156.586 E53.42817
G1 X105.555 Y156.192 E53.52137
G1 X104.615 Y155.904 E53.57042
G1 X102.883 Y155.208 E53.66354
G1 X102.005 Y154.765 E53.7126
G1 X100.418 Y153.788 E53.80558
G1 X99.626 Y153.202 E53.85473
G1 X98.227 Y151.97 E53.94774
G1 X97.549 Y151.263 E53.99661
G1 X96.374 Y149.809 E54.08987
G1 X95.821 Y148.991 E54.13913
G1 X94.913 Y147.365 E54.23205
G1 X94.508 Y146.468 E54.28115
G1 X93.886 Y144.706 E54.37437
G1 X93.638 Y143.755 E54.4234
G1 X93.323 Y141.917 E54.51644
G1 X93.245 Y141.186 E54.55312
G1 X93.2 Y140.005 E54.61208
G1 X93.205 Y79.758 E57.61781
G0 F7500 X93.605 Y79.775
G1 F1500 X93.645 Y78.842 E57.6644
G1 X93.718 Y78.161 E57.69857
G1 X94.033 Y76.323 E57.79161
G1 X94.263 Y75.437 E57.83728
G1 X94.885 Y73.675 E57.9305
G1 X95.262 Y72.84 E57.97621
G1 X96.17 Y71.214 E58.06912
G1 X96.685 Y70.453 E58.11496
G1 X97.86 Y68.999 E58.20823
G1 X98.491 Y68.341 E58.25371
G1 X99.891 Y67.108 E58.34678
G1 X100.63 Y66.561 E58.39265
G1 X102.216 Y65.585 E58.48556
G1 X103.033 Y65.173 E58.53121
G1 X104.765 Y64.477 E58.62434
G1 X105.639 Y64.209 E58.66995
G1 X107.465 Y63.815 E58.76314
G1 X108.371 Y63.699 E58.80871
G1 X110.221 Y63.619 E58.90109
G1 X111.138 Y63.657 E58.94688
G1 X113.002 Y63.895 E59.04063
G1 X113.898 Y64.088 E59.08636
G1 X115.679 Y64.633 E59.17928
G1 X116.53 Y64.975 E59.22504
G1 X118.2 Y65.817 E59.31835
