;FLAVOR:Marlin
;TIME:1641
;Filament used: 1.13827m
;Layer height: 0.15
;MINX:79.95
;MINY:90.95
;MINZ:0.3
;MAXX:140.05
;MAXY:129.05
;MAXZ:9.3
;Generated with Cura_SteamEngine main
M140 S60
M105
M190 S60
M104 S200
M105
M109 S200
M82 ;absolute extrusion mode
G28 ;Home
G1 Z15.0 F2000 ;Move the platform
G92 E0
G92 E0
G1 F1500 E-6.5
;LAYER_COUNT:61
;LAYER:0
M107
M204 S1000
G0 F7500 X82.373 Y93.099 Z0.3
G0 X79.95 Y98.75
;TYPE:SKIRT
G1 F1500 E0
G1 X79.99 Y97.961 E0.03941
G1 X80.109 Y97.181 E0.07878
G1 X80.307 Y96.416 E0.1182
G1 X80.581 Y95.676 E0.15757
G1 X80.929 Y94.967 E0.19697
G1 X81.347 Y94.296 E0.23641
G1 X81.83 Y93.672 E0.27578
G1 X82.373 Y93.099 E0.31517
G1 X82.972 Y92.584 E0.35458
G1 X83.62 Y92.133 E0.39397
G1 X84.311 Y91.749 E0.43341
G1 X85.036 Y91.437 E0.47278
G1 X85.789 Y91.2 E0.51217
G1 X86.563 Y91.041 E0.55159
G1 X87.348 Y90.96 E0.59096
G1 X87.75 Y90.95 E0.61102
G1 X132.25 Y90.95 E2.83114
G1 X133.039 Y90.99 E2.87055
G1 X133.819 Y91.109 E2.90991
G1 X134.584 Y91.307 E2.94934
G1 X135.324 Y91.581 E2.98871
G1 X136.033 Y91.929 E3.02811
G1 X136.704 Y92.347 E3.06755
G1 X137.328 Y92.83 E3.10692
G1 X137.901 Y93.373 E3.1463
G1 X138.416 Y93.972 E3.18571
G1 X138.867 Y94.62 E3.2251
G1 X139.251 Y95.311 E3.26454
G1 X139.563 Y96.036 E3.30392
G1 X139.8 Y96.789 E3.3433
G1 X139.959 Y97.563 E3.38272
G1 X140.04 Y98.348 E3.4221
G1 X140.05 Y98.75 E3.44216
G1 X140.05 Y121.25 E4.56469
G1 X140.01 Y122.039 E4.6041
G1 X139.891 Y122.819 E4.64347
G1 X139.693 Y123.584 E4.68289
G1 X139.419 Y124.324 E4.72226
G1 X139.071 Y125.033 E4.76166
G1 X138.653 Y125.704 E4.8011
G1 X138.17 Y126.328 E4.84047
G1 X137.627 Y126.901 E4.87985
G1 X137.028 Y127.416 E4.91926
G1 X136.38 Y127.867 E4.95865
G1 X135.689 Y128.251 E4.99809
G1 X134.964 Y128.563 E5.03747
G1 X134.211 Y128.8 E5.07685
G1 X133.437 Y128.959 E5.11628
G1 X132.652 Y129.04 E5.15565
G1 X132.25 Y129.05 E5.17571
G1 X87.75 Y129.05 E7.39582
G1 X86.961 Y129.01 E7.43524
G1 X86.181 Y128.891 E7.4746
G1 X85.416 Y128.693 E7.51403
G1 X84.676 Y128.419 E7.55339
G1 X83.967 Y128.071 E7.5928
G1 X83.296 Y127.653 E7.63224
G1 X82.672 Y127.17 E7.67161
G1 X82.099 Y126.627 E7.71099
G1 X81.584 Y126.028 E7.7504
G1 X81.133 Y125.38 E7.78979
G1 X80.749 Y124.689 E7.82923
G1 X80.437 Y123.964 E7.86861
G1 X80.2 Y123.211 E7.90799
G1 X80.041 Y122.437 E7.94741
G1 X79.96 Y121.652 E7.98678
G1 X79.95 Y121.25 E8.00685
G1 X79.95 Y98.75 E9.12938
G0 F7500 X80.35 Y98.75
G1 F1500 X80.39 Y97.982 E9.16774
G1 X80.509 Y97.222 E9.20612
G1 X80.707 Y96.479 E9.24448
G1 X80.981 Y95.76 E9.28287
G1 X81.328 Y95.074 E9.32122
G1 X81.744 Y94.427 E9.3596
G1 X82.225 Y93.827 E9.39797
G1 X82.766 Y93.28 E9.43635
G1 X83.361 Y92.792 E9.47474
G1 X84.003 Y92.369 E9.5131
G1 X84.686 Y92.014 E9.5515
G1 X85.401 Y91.733 E9.58983
G1 X86.143 Y91.527 E9.62825
G1 X86.901 Y91.399 E9.6666
G1 X87.75 Y91.35 E9.70903
G1 X132.25 Y91.35 E11.92914
G1 X133.018 Y91.39 E11.96751
G1 X133.778 Y91.509 E12.00589
G1 X134.521 Y91.707 E12.04425
G1 X135.24 Y91.981 E12.08264
G1 X135.926 Y92.328 E12.12099
G1 X136.573 Y92.744 E12.15936
G1 X137.173 Y93.225 E12.19773
G1 X137.72 Y93.766 E12.23611
G1 X138.208 Y94.361 E12.2745
G1 X138.631 Y95.003 E12.31286
G1 X138.986 Y95.686 E12.35126
G1 X139.267 Y96.401 E12.38959
G1 X139.473 Y97.143 E12.42801
G1 X139.601 Y97.901 E12.46636
G1 X139.65 Y98.75 E12.50879
G1 X139.65 Y121.25 E13.63132
G1 X139.61 Y122.018 E13.66969
G1 X139.491 Y122.778 E13.70807
G1 X139.293 Y123.521 E13.74643
G1 X139.019 Y124.24 E13.78482
G1 X138.672 Y124.926 E13.82317
G1 X138.256 Y125.573 E13.86155
G1 X137.775 Y126.173 E13.89991
G1 X137.234 Y126.72 E13.93829
G1 X136.639 Y127.208 E13.97669
G1 X135.997 Y127.631 E14.01504
G1 X135.314 Y127.986 E14.05344
G1 X134.599 Y128.267 E14.09177
G1 X133.857 Y128.473 E14.13019
G1 X133.099 Y128.601 E14.16854
G1 X132.25 Y128.65 E14.21097
G1 X87.75 Y128.65 E16.43108
G1 X86.982 Y128.61 E16.46945
G1 X86.222 Y128.491 E16.50783
G1 X85.479 Y128.293 E16.54619
G1 X84.76 Y128.019 E16.58458
G1 X84.074 Y127.672 E16.62293
G1 X83.427 Y127.256 E16.66131
G1 X82.827 Y126.775 E16.69968
G1 X82.28 Y126.234 E16.73806
G1 X81.792 Y125.639 E16.77645
G1 X81.369 Y124.997 E16.81481
G1 X81.014 Y124.314 E16.85321
G1 X80.733 Y123.599 E16.89154
G1 X80.527 Y122.857 E16.92996
G1 X80.399 Y122.099 E16.96831
G1 X80.35 Y121.25 E17.01074
G1 X80.35 Y98.75 E18.13326
G0 F7500 X80.75 Y98.75
G1 F1500 X80.79 Y98.003 E18.17059
G1 X80.909 Y97.265 E18.20788
G1 X81.107 Y96.543 E18.24523
G1 X81.38 Y95.847 E18.28253
G1 X81.727 Y95.184 E18.31986
G1 X82.142 Y94.561 E18.35721
G1 X82.621 Y93.987 E18.39451
G1 X83.158 Y93.466 E18.43184
G1 X83.748 Y93.007 E18.46913
G1 X84.384 Y92.612 E18.50648
G1 X85.058 Y92.288 E18.54379
G1 X85.763 Y92.038 E18.58111
G1 X86.491 Y91.864 E18.61845
G1 X87.233 Y91.769 E18.65577
G1 X87.75 Y91.75 E18.68158
G1 X132.25 Y91.75 E20.9017
G1 X132.997 Y91.79 E20.93902
G1 X133.735 Y91.909 E20.97631
G1 X134.457 Y92.107 E21.01367
G1 X135.153 Y92.38 E21.05096
G1 X135.816 Y92.727 E21.0883
G1 X136.439 Y93.142 E21.12564
G1 X137.013 Y93.621 E21.16294
G1 X137.534 Y94.158 E21.20027
G1 X137.993 Y94.748 E21.23756
G1 X138.388 Y95.384 E21.27492
G1 X138.712 Y96.058 E21.31223
G1 X138.962 Y96.763 E21.34954
G1 X139.136 Y97.491 E21.38689
G1 X139.231 Y98.233 E21.42421
G1 X139.25 Y98.75 E21.45002
G1 X139.25 Y121.25 E22.57255
G1 X139.21 Y121.997 E22.60987
G1 X139.091 Y122.735 E22.64716
G1 X138.893 Y123.457 E22.68451
G1 X138.62 Y124.153 E22.72181
G1 X138.273 Y124.816 E22.75915
G1 X137.858 Y125.439 E22.79649
G1 X137.379 Y126.013 E22.83379
G1 X136.842 Y126.534 E22.87112
G1 X136.252 Y126.993 E22.90841
G1 X135.616 Y127.388 E22.94577
G1 X134.942 Y127.712 E22.98308
G1 X134.237 Y127.962 E23.02039
G1 X133.509 Y128.136 E23.05774
G1 X132.767 Y128.231 E23.09506
G1 X132.25 Y128.25 E23.12087
G1 X87.75 Y128.25 E25.34098
G1 X87.003 Y128.21 E25.3783
G1 X86.265 Y128.091 E25.4156
G1 X85.543 Y127.893 E25.45295
G1 X84.847 Y127.62 E25.49025
G1 X84.184 Y127.273 E25.52758
G1 X83.561 Y126.858 E25.56493
G1 X82.987 Y126.379 E25.60223
G1 X82.466 Y125.842 E25.63955
G1 X82.007 Y125.252 E25.67685
G1 X81.612 Y124.616 E25.7142
G1 X81.288 Y123.942 E25.75151
G1 X81.038 Y123.237 E25.78883
G1 X80.864 Y122.509 E25.82617
G1 X80.769 Y121.767 E25.86349
G1 X80.75 Y121.25 E25.8893
G1 X80.75 Y98.75 E27.01183
G0 F7500 X81.15 Y98.75
G1 F1500 X81.19 Y98.025 E27.04806
G1 X81.309 Y97.308 E27.08432
G1 X81.507 Y96.609 E27.12056
G1 X81.78 Y95.936 E27.1568
G1 X82.125 Y95.297 E27.19303
G1 X82.539 Y94.7 E27.22927
G1 X83.015 Y94.152 E27.26549
G1 X83.549 Y93.659 E27.30174
G1 X84.134 Y93.229 E27.33797
G1 X84.763 Y92.865 E27.37422
G1 X85.428 Y92.572 E27.41048
G1 X86.121 Y92.354 E27.44672
G1 X86.833 Y92.214 E27.48292
G1 X87.75 Y92.15 E27.52878
G1 X132.25 Y92.15 E29.7489
G1 X132.975 Y92.19 E29.78512
G1 X133.692 Y92.309 E29.82138
G1 X134.391 Y92.507 E29.85763
G1 X135.064 Y92.78 E29.89386
G1 X135.703 Y93.125 E29.93009
G1 X136.3 Y93.539 E29.96634
G1 X136.848 Y94.015 E30.00255
G1 X137.341 Y94.549 E30.03881
G1 X137.771 Y95.134 E30.07503
G1 X138.135 Y95.763 E30.11129
G1 X138.428 Y96.428 E30.14754
G1 X138.646 Y97.121 E30.18379
G1 X138.786 Y97.833 E30.21999
G1 X138.85 Y98.75 E30.26585
G1 X138.85 Y121.25 E31.38838
G1 X138.81 Y121.975 E31.42461
G1 X138.691 Y122.692 E31.46087
G1 X138.493 Y123.391 E31.49711
G1 X138.22 Y124.064 E31.53335
G1 X137.875 Y124.703 E31.56957
G1 X137.461 Y125.3 E31.60582
G1 X136.985 Y125.848 E31.64203
G1 X136.451 Y126.341 E31.67829
G1 X135.866 Y126.771 E31.71451
G1 X135.237 Y127.135 E31.75077
G1 X134.572 Y127.428 E31.78703
G1 X133.879 Y127.646 E31.82327
G1 X133.167 Y127.786 E31.85947
G1 X132.25 Y127.85 E31.90533
G1 X87.75 Y127.85 E34.12545
G1 X87.025 Y127.81 E34.16167
G1 X86.308 Y127.691 E34.19793
G1 X85.609 Y127.493 E34.23418
G1 X84.936 Y127.22 E34.27041
G1 X84.297 Y126.875 E34.30664
G1 X83.7 Y126.461 E34.34289
G1 X83.152 Y125.985 E34.3791
G1 X82.659 Y125.451 E34.41536
G1 X82.229 Y124.866 E34.45158
G1 X81.865 Y124.237 E34.48784
G1 X81.572 Y123.572 E34.52409
G1 X81.354 Y122.879 E34.56034
G1 X81.214 Y122.167 E34.59654
G1 X81.15 Y121.25 E34.6424
G1 X81.15 Y98.75 E35.76493
G0 F7500 X81.55 Y98.75
G1 F1500 X81.59 Y98.047 E35.80006
G1 X81.709 Y97.353 E35.83519
G1 X81.907 Y96.678 E35.87028
G1 X82.179 Y96.029 E35.90539
G1 X82.524 Y95.415 E35.94053
G1 X82.935 Y94.844 E35.97563
G1 X83.409 Y94.323 E36.01077
G1 X83.939 Y93.859 E36.04591
G1 X84.518 Y93.459 E36.08102
G1 X85.139 Y93.127 E36.11615
G1 X85.793 Y92.867 E36.15126
G1 X86.473 Y92.683 E36.18641
G1 X87.169 Y92.577 E36.22153
G1 X87.75 Y92.55 E36.25055
G1 X132.25 Y92.55 E38.47066
G1 X132.953 Y92.59 E38.50579
G1 X133.647 Y92.709 E38.54092
G1 X134.322 Y92.907 E38.57602
G1 X134.971 Y93.179 E38.61112
G1 X135.585 Y93.524 E38.64626
G1 X136.156 Y93.935 E38.68136
G1 X136.677 Y94.409 E38.7165
G1 X137.141 Y94.939 E38.75164
G1 X137.541 Y95.518 E38.78675
G1 X137.873 Y96.139 E38.82189
G1 X138.133 Y96.793 E38.857
G1 X138.317 Y97.473 E38.89214
G1 X138.423 Y98.169 E38.92727
G1 X138.45 Y98.75 E38.95628
G1 X138.45 Y121.25 E40.07881
G1 X138.41 Y121.953 E40.11394
G1 X138.291 Y122.647 E40.14907
G1 X138.093 Y123.322 E40.18417
G1 X137.821 Y123.971 E40.21928
G1 X137.476 Y124.585 E40.25441
G1 X137.065 Y125.156 E40.28951
G1 X136.591 Y125.677 E40.32465
G1 X136.061 Y126.141 E40.3598
G1 X135.482 Y126.541 E40.3949
G1 X134.861 Y126.873 E40.43004
G1 X134.207 Y127.133 E40.46515
G1 X133.527 Y127.317 E40.50029
G1 X132.831 Y127.423 E40.53542
G1 X132.25 Y127.45 E40.56444
G1 X87.75 Y127.45 E42.78455
G1 X87.047 Y127.41 E42.81968
G1 X86.353 Y127.291 E42.85481
G1 X85.678 Y127.093 E42.8899
G1 X85.029 Y126.821 E42.92501
G1 X84.415 Y126.476 E42.96015
G1 X83.844 Y126.065 E42.99525
G1 X83.323 Y125.591 E43.03039
G1 X82.859 Y125.061 E43.06553
G1 X82.459 Y124.482 E43.10064
G1 X82.127 Y123.861 E43.13577
G1 X81.867 Y123.207 E43.17088
G1 X81.683 Y122.527 E43.20603
G1 X81.577 Y121.831 E43.24115
G1 X81.55 Y121.25 E43.27017
G1 X81.55 Y98.75 E44.3927
G0 F7500 X81.95 Y98.75
G1 F1500 X81.99 Y98.07 E44.42668
G1 X82.109 Y97.4 E44.46063
G1 X82.306 Y96.748 E44.49461
G1 X82.578 Y96.124 E44.52857
G1 X82.922 Y95.536 E44.56256
G1 X83.332 Y94.992 E44.59655
G1 X83.803 Y94.501 E44.63049
G1 X84.328 Y94.067 E44.66447
G1 X84.9 Y93.698 E44.69843
G1 X85.512 Y93.399 E44.73242
G1 X86.154 Y93.174 E44.76636
G1 X86.819 Y93.025 E44.80036
G1 X87.75 Y92.95 E44.84695
G1 X132.25 Y92.95 E47.06707
G1 X132.93 Y92.99 E47.10105
G1 X133.6 Y93.109 E47.135
G1 X134.252 Y93.306 E47.16898
G1 X134.876 Y93.578 E47.20294
G1 X135.464 Y93.922 E47.23693
G1 X136.008 Y94.332 E47.27092
G1 X136.499 Y94.803 E47.30486
G1 X136.933 Y95.328 E47.33884
G1 X137.302 Y95.9 E47.3728
G1 X137.601 Y96.512 E47.40678
G1 X137.826 Y97.154 E47.44072
G1 X137.975 Y97.819 E47.47472
G1 X138.05 Y98.75 E47.52132
G1 X138.05 Y121.25 E48.64385
G1 X138.01 Y121.93 E48.67784
G1 X137.891 Y122.6 E48.71179
G1 X137.694 Y123.252 E48.74577
G1 X137.422 Y123.876 E48.77973
G1 X137.078 Y124.464 E48.81371
G1 X136.668 Y125.008 E48.8477
G1 X136.197 Y125.499 E48.88164
G1 X135.672 Y125.933 E48.91563
G1 X135.1 Y126.302 E48.94959
G1 X134.488 Y126.601 E48.98357
G1 X133.846 Y126.826 E49.01751
G1 X133.181 Y126.975 E49.05151
G1 X132.25 Y127.05 E49.09811
G1 X87.75 Y127.05 E51.31822
G1 X87.07 Y127.01 E51.3522
G1 X86.4 Y126.891 E51.38615
G1 X85.748 Y126.694 E51.42013
G1 X85.124 Y126.422 E51.45409
G1 X84.536 Y126.078 E51.48808
G1 X83.992 Y125.668 E51.52207
G1 X83.501 Y125.197 E51.55601
G1 X83.067 Y124.672 E51.58999
G1 X82.698 Y124.1 E51.62395
G1 X82.399 Y123.488 E51.65794
G1 X82.174 Y122.846 E51.69188
G1 X82.025 Y122.181 E51.72588
G1 X81.95 Y121.25 E51.77247
G1 X81.95 Y98.75 E52.895
G0 F7500 X82.35 Y98.75
G1 F1500 X82.39 Y98.094 E52.92779
G1 X82.509 Y97.448 E52.96056
G1 X82.706 Y96.821 E52.99335
G1 X82.978 Y96.223 E53.02613
G1 X83.32 Y95.662 E53.05891
G1 X83.728 Y95.147 E53.09169
G1 X84.195 Y94.685 E53.12446
G1 X84.715 Y94.284 E53.15722
G1 X85.279 Y93.948 E53.18997
G1 X85.881 Y93.684 E53.22277
G1 X86.51 Y93.494 E53.25555
G1 X87.157 Y93.383 E53.2883
G1 X87.75 Y93.35 E53.31793
G1 X132.25 Y93.35 E55.53805
G1 X132.906 Y93.39 E55.57083
G1 X133.552 Y93.509 E55.60361
G1 X134.179 Y93.706 E55.63639
G1 X134.777 Y93.978 E55.66917
G1 X135.338 Y94.32 E55.70195
G1 X135.853 Y94.728 E55.73473
G1 X136.315 Y95.195 E55.7675
G1 X136.716 Y95.715 E55.80026
G1 X137.052 Y96.279 E55.83302
G1 X137.316 Y96.881 E55.86581
G1 X137.506 Y97.51 E55.89859
G1 X137.617 Y98.157 E55.93134
G1 X137.65 Y98.75 E55.96097
G1 X137.65 Y121.25 E57.0835
G1 X137.61 Y121.906 E57.11629
G1 X137.491 Y122.552 E57.14906
G1 X137.294 Y123.179 E57.18185
G1 X137.022 Y123.777 E57.21463
G1 X136.68 Y124.338 E57.24741
G1 X136.272 Y124.853 E57.28019
G1 X135.805 Y125.315 E57.31296
G1 X135.285 Y125.716 E57.34572
G1 X134.721 Y126.052 E57.37847
G1 X134.119 Y126.316 E57.41127
G1 X133.49 Y126.506 E57.44405
G1 X132.843 Y126.617 E57.4768
G1 X132.25 Y126.65 E57.50643
G1 X87.75 Y126.65 E59.72655
G1 X87.094 Y126.61 E59.75933
G1 X86.448 Y126.491 E59.79211
G1 X85.821 Y126.294 E59.82489
G1 X85.223 Y126.022 E59.85767
G1 X84.662 Y125.68 E59.89045
G1 X84.147 Y125.272 E59.92323
G1 X83.685 Y124.805 E59.956
G1 X83.284 Y124.285 E59.98876
G1 X82.948 Y123.721 E60.02152
G1 X82.684 Y123.119 E60.05431
G1 X82.494 Y122.49 E60.08709
G1 X82.383 Y121.843 E60.11984
G1 X82.35 Y121.25 E60.14947
G1 X82.35 Y98.75 E61.272
G0 F7500 X82.75 Y98.75
G1 F1500 X82.79 Y98.119 E61.30355
G1 X82.909 Y97.498 E61.33509
G1 X83.106 Y96.898 E61.3666
G1 X83.377 Y96.326 E61.39818
G1 X83.717 Y95.794 E61.42968
G1 X84.123 Y95.309 E61.46123
G1 X84.586 Y94.879 E61.49276
G1 X85.1 Y94.51 E61.52432
G1 X85.656 Y94.21 E61.55584
G1 X86.245 Y93.982 E61.58735
G1 X86.859 Y93.83 E61.61891
G1 X87.75 Y93.75 E61.66354
G1 X132.25 Y93.75 E63.88365
G1 X132.881 Y93.79 E63.9152
G1 X133.502 Y93.909 E63.94674
G1 X134.102 Y94.106 E63.97825
G1 X134.674 Y94.377 E64.00983
G1 X135.206 Y94.717 E64.04133
G1 X135.691 Y95.123 E64.07288
G1 X136.121 Y95.586 E64.10441
G1 X136.49 Y96.1 E64.13597
G1 X136.79 Y96.656 E64.16749
G1 X137.018 Y97.245 E64.199
G1 X137.17 Y97.859 E64.23056
G1 X137.25 Y98.75 E64.27519
G1 X137.25 Y121.25 E65.39772
G1 X137.21 Y121.881 E65.42927
G1 X137.091 Y122.502 E65.46081
G1 X136.894 Y123.102 E65.49232
G1 X136.623 Y123.674 E65.5239
G1 X136.283 Y124.206 E65.55539
G1 X135.877 Y124.691 E65.58695
G1 X135.414 Y125.121 E65.61848
G1 X134.9 Y125.49 E65.65004
G1 X134.344 Y125.79 E65.68156
G1 X133.755 Y126.018 E65.71307
G1 X133.141 Y126.17 E65.74463
G1 X132.25 Y126.25 E65.78926
G1 X87.75 Y126.25 E68.00937
G1 X87.119 Y126.21 E68.04092
G1 X86.498 Y126.091 E68.07246
G1 X85.898 Y125.894 E68.10397
G1 X85.326 Y125.623 E68.13555
G1 X84.794 Y125.283 E68.16705
G1 X84.309 Y124.877 E68.1986
G1 X83.879 Y124.414 E68.23013
G1 X83.51 Y123.9 E68.26169
G1 X83.21 Y123.344 E68.29321
G1 X82.982 Y122.755 E68.32472
G1 X82.83 Y122.141 E68.35628
G1 X82.75 Y121.25 E68.40091
G1 X82.75 Y98.75 E69.52344
G0 F7500 X83.15 Y98.75
G1 F1500 X83.19 Y98.145 E69.55369
G1 X83.309 Y97.551 E69.58391
G1 X83.505 Y96.977 E69.61418
G1 X83.776 Y96.434 E69.64445
G1 X84.115 Y95.931 E69.67471
G1 X84.517 Y95.478 E69.70493
G1 X84.975 Y95.081 E69.73517
G1 X85.482 Y94.748 E69.76543
G1 X86.028 Y94.484 E69.79569
G1 X86.604 Y94.295 E69.82593
G1 X87.2 Y94.183 E69.85619
G1 X87.75 Y94.15 E69.88368
G1 X132.25 Y94.15 E72.10379
G1 X132.855 Y94.19 E72.13404
G1 X133.449 Y94.309 E72.16426
G1 X134.023 Y94.505 E72.19452
G1 X134.566 Y94.776 E72.2248
G1 X135.069 Y95.115 E72.25506
G1 X135.522 Y95.517 E72.28528
G1 X135.919 Y95.975 E72.31552
G1 X136.252 Y96.482 E72.34578
G1 X136.516 Y97.028 E72.37604
G1 X136.705 Y97.604 E72.40628
G1 X136.817 Y98.2 E72.43654
G1 X136.85 Y98.75 E72.46403
G1 X136.85 Y121.25 E73.58656
G1 X136.81 Y121.855 E73.61681
G1 X136.691 Y122.449 E73.64703
G1 X136.495 Y123.023 E73.67729
G1 X136.224 Y123.566 E73.70757
G1 X135.885 Y124.069 E73.73783
G1 X135.483 Y124.522 E73.76804
G1 X135.025 Y124.919 E73.79828
G1 X134.518 Y125.252 E73.82855
G1 X133.972 Y125.516 E73.8588
G1 X133.396 Y125.705 E73.88905
G1 X132.8 Y125.817 E73.9193
G1 X132.25 Y125.85 E73.94679
G1 X87.75 Y125.85 E76.1669
G1 X87.145 Y125.81 E76.19715
G1 X86.551 Y125.691 E76.22738
G1 X85.977 Y125.495 E76.25764
G1 X85.434 Y125.224 E76.28792
G1 X84.931 Y124.885 E76.31818
