;FLAVOR:Marlin
;TIME:20778
;Filament used: 14.7312m
;Layer height: 0.2
;MINX:39.9
;MINY:44.7
;MINZ:0.3
;MAXX:180.1
;MAXY:175.3
;MAXZ:38.9
;Generated with Cura_SteamEngine 4.12.1
M140 S60
M105
M190 S60
M104 S200
M105
M109 S200
M82 ;absolute extrusion mode
G28 ;Home
G1 Z15.0 F2000 ;Move the platform
G92 E0
G92 E0
G1 F1500 E-6.5
;LAYER_COUNT:194
;LAYER:0
M107
M204 S1000
G0 F6750 X42.302 Y46.985 Z0.3
;TYPE:SKIRT
G1 F1500 E0
G1 F1350 X42.888 Y46.455 E0.03942
G1 X43.524 Y45.988 E0.07878
G1 X44.204 Y45.587 E0.11817
G1 X44.922 Y45.257 E0.15759
G1 X45.669 Y45.002 E0.19697
G1 X46.438 Y44.823 E0.23636
G1 X47.222 Y44.723 E0.27579
G1 X47.817 Y44.7 E0.3055
G1 X108.183 Y44.7 E3.31717
G1 X108.972 Y44.74 E3.35659
G1 X109.752 Y44.859 E3.39595
G1 X110.004 Y44.924 E3.40894
G1 X110.438 Y44.823 E3.43117
G1 X111.222 Y44.723 E3.4706
G1 X111.817 Y44.7 E3.5003
G1 X172.183 Y44.7 E6.51198
G1 X172.972 Y44.74 E6.55139
G1 X173.752 Y44.859 E6.59076
G1 X174.517 Y45.057 E6.63018
G1 X175.257 Y45.331 E6.66955
G1 X175.966 Y45.679 E6.70895
G1 X176.637 Y46.097 E6.74839
G1 X177.261 Y46.58 E6.78776
G1 X177.698 Y46.985 E6.81748
G1 X177.815 Y47.102 E6.82574
G1 X178.345 Y47.688 E6.86516
G1 X178.812 Y48.324 E6.90452
G1 X179.213 Y49.004 E6.94391
G1 X179.543 Y49.722 E6.98333
G1 X179.798 Y50.469 E7.02271
G1 X179.977 Y51.238 E7.0621
G1 X180.077 Y52.022 E7.10153
G1 X180.1 Y52.617 E7.13124
G1 X180.1 Y167.383 E12.85694
G1 X180.06 Y168.172 E12.89635
G1 X179.941 Y168.952 E12.93572
G1 X179.743 Y169.717 E12.97514
G1 X179.469 Y170.457 E13.01451
G1 X179.121 Y171.166 E13.05391
G1 X178.703 Y171.837 E13.09335
G1 X178.22 Y172.461 E13.13272
G1 X177.815 Y172.898 E13.16245
G1 X177.698 Y173.015 E13.1707
G1 X177.112 Y173.545 E13.21012
G1 X176.476 Y174.012 E13.24949
G1 X175.796 Y174.413 E13.28887
G1 X175.078 Y174.743 E13.3283
G1 X174.331 Y174.998 E13.36768
G1 X173.562 Y175.177 E13.40707
G1 X172.778 Y175.277 E13.4465
G1 X172.183 Y175.3 E13.4762
G1 X111.817 Y175.3 E16.48788
G1 X111.028 Y175.26 E16.52729
G1 X110.248 Y175.141 E16.56665
G1 X109.996 Y175.076 E16.57964
G1 X109.562 Y175.177 E16.60187
G1 X108.778 Y175.277 E16.6413
G1 X108.183 Y175.3 E16.67101
G1 X47.817 Y175.3 E19.68268
G1 X47.028 Y175.26 E19.72209
G1 X46.248 Y175.141 E19.76146
G1 X45.483 Y174.943 E19.80088
G1 X44.743 Y174.669 E19.84025
G1 X44.034 Y174.321 E19.87965
G1 X43.363 Y173.903 E19.91909
G1 X42.739 Y173.42 E19.95846
G1 X42.302 Y173.015 E19.98819
G1 X42.185 Y172.898 E19.99644
G1 X41.655 Y172.312 E20.03586
G1 X41.188 Y171.676 E20.07523
G1 X40.787 Y170.996 E20.11461
G1 X40.457 Y170.278 E20.15403
G1 X40.202 Y169.531 E20.19341
G1 X40.023 Y168.762 E20.23281
G1 X39.923 Y167.978 E20.27224
G1 X39.9 Y167.383 E20.30194
G1 X39.9 Y52.617 E26.02764
G1 X39.94 Y51.828 E26.06706
G1 X40.059 Y51.048 E26.10642
G1 X40.257 Y50.283 E26.14584
G1 X40.531 Y49.543 E26.18521
G1 X40.879 Y48.834 E26.22462
G1 X41.297 Y48.163 E26.26406
G1 X41.78 Y47.539 E26.30342
G1 X42.185 Y47.102 E26.33315
G1 X42.302 Y46.985 E26.3414
G0 F6750 X42.584 Y47.267
G1 F1350 X43.156 Y46.753 E26.37977
G1 X43.778 Y46.3 E26.41816
G1 X44.443 Y45.914 E26.45652
G1 X45.145 Y45.599 E26.49491
G1 X45.876 Y45.359 E26.53329
G1 X46.627 Y45.196 E26.57163
G1 X47.392 Y45.112 E26.61003
G1 X47.817 Y45.1 E26.63124
G1 X108.183 Y45.1 E29.64291
G1 X108.951 Y45.14 E29.68128
G1 X109.711 Y45.259 E29.71966
G1 X109.992 Y45.334 E29.73417
G1 X110.627 Y45.196 E29.76659
G1 X111.392 Y45.112 E29.80498
G1 X111.817 Y45.1 E29.8262
G1 X172.183 Y45.1 E32.83787
G1 X172.951 Y45.14 E32.87623
G1 X173.711 Y45.259 E32.91461
G1 X174.454 Y45.457 E32.95298
G1 X175.173 Y45.731 E32.99136
G1 X175.859 Y46.078 E33.02972
G1 X176.506 Y46.494 E33.06809
G1 X177.106 Y46.975 E33.10646
G1 X177.416 Y47.267 E33.1277
G1 X177.533 Y47.384 E33.13596
G1 X178.047 Y47.956 E33.17433
G1 X178.5 Y48.578 E33.21272
G1 X178.886 Y49.243 E33.25108
G1 X179.201 Y49.945 E33.28946
G1 X179.441 Y50.676 E33.32785
G1 X179.604 Y51.427 E33.36619
G1 X179.688 Y52.192 E33.40458
G1 X179.7 Y52.617 E33.4258
G1 X179.7 Y167.383 E39.15149
G1 X179.66 Y168.151 E39.18986
G1 X179.541 Y168.911 E39.22824
G1 X179.343 Y169.654 E39.2666
G1 X179.069 Y170.373 E39.30499
G1 X178.722 Y171.059 E39.34334
G1 X178.306 Y171.706 E39.38172
G1 X177.825 Y172.306 E39.42009
G1 X177.533 Y172.616 E39.44133
G1 X177.416 Y172.733 E39.44959
G1 X176.844 Y173.247 E39.48795
G1 X176.222 Y173.7 E39.52634
G1 X175.557 Y174.086 E39.5647
G1 X174.855 Y174.401 E39.60309
G1 X174.124 Y174.641 E39.64148
G1 X173.373 Y174.804 E39.67982
G1 X172.608 Y174.888 E39.71821
G1 X172.183 Y174.9 E39.73942
G1 X111.817 Y174.9 E42.75109
G1 X111.049 Y174.86 E42.78946
G1 X110.289 Y174.741 E42.82784
G1 X110.008 Y174.666 E42.84235
G1 X109.373 Y174.804 E42.87477
G1 X108.608 Y174.888 E42.91317
G1 X108.183 Y174.9 E42.93438
G1 X47.817 Y174.9 E45.94605
G1 X47.049 Y174.86 E45.98442
G1 X46.289 Y174.741 E46.0228
G1 X45.546 Y174.543 E46.06116
G1 X44.827 Y174.269 E46.09955
G1 X44.141 Y173.922 E46.1379
G1 X43.494 Y173.506 E46.17627
G1 X42.894 Y173.025 E46.21464
G1 X42.584 Y172.733 E46.23589
G1 X42.467 Y172.616 E46.24414
G1 X41.953 Y172.044 E46.28251
G1 X41.5 Y171.422 E46.3209
G1 X41.114 Y170.757 E46.35926
G1 X40.799 Y170.055 E46.39765
G1 X40.559 Y169.324 E46.43603
G1 X40.396 Y168.573 E46.47437
G1 X40.312 Y167.808 E46.51277
G1 X40.3 Y167.383 E46.53398
G1 X40.3 Y52.617 E52.25968
G1 X40.34 Y51.849 E52.29804
G1 X40.459 Y51.089 E52.33642
G1 X40.657 Y50.346 E52.37478
G1 X40.931 Y49.627 E52.41317
G1 X41.278 Y48.941 E52.45153
G1 X41.694 Y48.294 E52.4899
G1 X42.175 Y47.694 E52.52827
G1 X42.467 Y47.384 E52.54951
G1 X42.584 Y47.267 E52.55777
G0 F6750 X42.867 Y47.55
G1 F1350 X43.424 Y47.05 E52.59511
G1 X44.03 Y46.613 E52.63239
G1 X44.68 Y46.242 E52.66973
G1 X45.366 Y45.943 E52.70706
G1 X46.08 Y45.719 E52.74439
G1 X46.813 Y45.572 E52.78169
G1 X47.817 Y45.5 E52.83191
G1 X108.183 Y45.5 E55.84358
G1 X108.93 Y45.54 E55.8809
G1 X109.668 Y45.659 E55.9182
G1 X109.99 Y45.747 E55.93485
G1 X110.08 Y45.719 E55.93955
G1 X110.813 Y45.572 E55.97685
G1 X111.817 Y45.5 E56.02707
G1 X172.183 Y45.5 E59.03874
G1 X172.93 Y45.54 E59.07606
G1 X173.668 Y45.659 E59.11336
G1 X174.39 Y45.857 E59.15071
G1 X175.086 Y46.13 E59.18801
G1 X175.749 Y46.477 E59.22534
G1 X176.372 Y46.892 E59.26269
G1 X177.133 Y47.55 E59.31288
G1 X177.25 Y47.667 E59.32113
G1 X177.75 Y48.224 E59.35848
G1 X178.187 Y48.83 E59.39575
G1 X178.558 Y49.48 E59.43309
G1 X178.857 Y50.166 E59.47042
G1 X179.081 Y50.88 E59.50776
G1 X179.228 Y51.613 E59.54505
G1 X179.3 Y52.617 E59.59527
G1 X179.3 Y167.383 E65.32097
G1 X179.26 Y168.13 E65.35829
G1 X179.141 Y168.868 E65.39559
G1 X178.943 Y169.59 E65.43294
G1 X178.67 Y170.286 E65.47024
G1 X178.323 Y170.949 E65.50757
G1 X177.908 Y171.572 E65.54492
G1 X177.25 Y172.333 E65.59511
G1 X177.133 Y172.45 E65.60336
G1 X176.576 Y172.95 E65.64071
G1 X175.97 Y173.387 E65.67798
G1 X175.32 Y173.758 E65.71532
G1 X174.634 Y174.057 E65.75265
G1 X173.92 Y174.281 E65.78999
G1 X173.187 Y174.428 E65.82729
G1 X172.183 Y174.5 E65.8775
G1 X111.817 Y174.5 E68.88918
G1 X111.07 Y174.46 E68.9265
G1 X110.332 Y174.341 E68.96379
G1 X110.01 Y174.253 E68.98045
G1 X109.92 Y174.281 E68.98515
G1 X109.187 Y174.428 E69.02245
G1 X108.183 Y174.5 E69.07266
G1 X47.817 Y174.5 E72.08434
G1 X47.07 Y174.46 E72.12166
G1 X46.332 Y174.341 E72.15895
G1 X45.61 Y174.143 E72.1963
G1 X44.914 Y173.87 E72.2336
G1 X44.251 Y173.523 E72.27094
G1 X43.628 Y173.108 E72.30828
G1 X42.867 Y172.45 E72.35847
G1 X42.75 Y172.333 E72.36673
G1 X42.25 Y171.776 E72.40407
G1 X41.813 Y171.17 E72.44134
G1 X41.442 Y170.52 E72.47868
G1 X41.143 Y169.834 E72.51602
G1 X40.919 Y169.12 E72.55335
G1 X40.772 Y168.387 E72.59065
G1 X40.7 Y167.383 E72.64087
G1 X40.7 Y52.617 E78.36657
G1 X40.74 Y51.87 E78.40389
G1 X40.859 Y51.132 E78.44118
G1 X41.057 Y50.41 E78.47853
G1 X41.33 Y49.714 E78.51583
G1 X41.677 Y49.051 E78.55317
G1 X42.092 Y48.428 E78.59051
G1 X42.75 Y47.667 E78.6407
G1 X42.867 Y47.55 E78.64896
G0 F6750 X43.15 Y47.833
G1 F1350 X43.691 Y47.349 E78.68517
G1 X44.282 Y46.926 E78.72143
G1 X44.916 Y46.572 E78.75766
G1 X45.585 Y46.289 E78.7939
G1 X46.281 Y46.081 E78.83014
G1 X46.996 Y45.951 E78.8664
G1 X47.817 Y45.9 E78.90744
G1 X108.183 Y45.9 E81.91911
G1 X108.908 Y45.94 E81.95533
G1 X109.625 Y46.059 E81.99159
G1 X110 Y46.165 E82.01104
G1 X110.281 Y46.081 E82.02567
G1 X110.996 Y45.951 E82.06192
G1 X111.817 Y45.9 E82.10296
G1 X172.183 Y45.9 E85.11463
G1 X172.908 Y45.94 E85.15086
G1 X173.625 Y46.059 E85.18712
G1 X174.324 Y46.257 E85.22337
G1 X174.997 Y46.53 E85.2596
G1 X175.636 Y46.875 E85.29583
G1 X176.233 Y47.289 E85.33207
G1 X176.85 Y47.833 E85.37311
G1 X176.967 Y47.95 E85.38137
G1 X177.451 Y48.491 E85.41758
G1 X177.874 Y49.082 E85.45384
G1 X178.228 Y49.716 E85.49007
G1 X178.511 Y50.385 E85.52631
G1 X178.719 Y51.081 E85.56255
G1 X178.849 Y51.796 E85.59881
G1 X178.9 Y52.617 E85.63985
G1 X178.9 Y167.383 E91.36554
G1 X178.86 Y168.108 E91.40177
G1 X178.741 Y168.825 E91.43803
G1 X178.543 Y169.524 E91.47428
G1 X178.27 Y170.197 E91.51051
G1 X177.925 Y170.836 E91.54674
G1 X177.511 Y171.433 E91.58298
G1 X176.967 Y172.05 E91.62402
G1 X176.85 Y172.167 E91.63228
G1 X176.309 Y172.651 E91.66849
G1 X175.718 Y173.074 E91.70475
G1 X175.084 Y173.428 E91.74098
G1 X174.415 Y173.711 E91.77722
G1 X173.719 Y173.919 E91.81346
G1 X173.004 Y174.049 E91.84972
G1 X172.183 Y174.1 E91.89076
G1 X111.817 Y174.1 E94.90243
G1 X111.092 Y174.06 E94.93865
G1 X110.375 Y173.941 E94.97491
G1 X110 Y173.835 E94.99436
G1 X109.719 Y173.919 E95.00899
G1 X109.004 Y174.049 E95.04524
G1 X108.183 Y174.1 E95.08628
G1 X47.817 Y174.1 E98.09795
G1 X47.092 Y174.06 E98.13418
G1 X46.375 Y173.941 E98.17044
G1 X45.676 Y173.743 E98.20669
G1 X45.003 Y173.47 E98.24292
G1 X44.364 Y173.125 E98.27915
G1 X43.767 Y172.711 E98.31539
G1 X43.15 Y172.167 E98.35643
G1 X43.033 Y172.05 E98.36469
G1 X42.549 Y171.509 E98.4009
G1 X42.126 Y170.918 E98.43716
G1 X41.772 Y170.284 E98.47339
G1 X41.489 Y169.615 E98.50963
G1 X41.281 Y168.919 E98.54587
G1 X41.151 Y168.204 E98.58213
G1 X41.1 Y167.383 E98.62317
G1 X41.1 Y52.617 E104.34886
G1 X41.14 Y51.892 E104.38509
G1 X41.259 Y51.175 E104.42135
G1 X41.457 Y50.476 E104.4576
G1 X41.73 Y49.803 E104.49383
G1 X42.075 Y49.164 E104.53006
G1 X42.489 Y48.567 E104.5663
G1 X43.033 Y47.95 E104.60734
G1 X43.15 Y47.833 E104.6156
G0 F6750 X43.433 Y48.116
G1 F1350 X43.958 Y47.647 E104.65072
G1 X44.533 Y47.241 E104.68584
G1 X45.151 Y46.903 E104.72098
G1 X45.802 Y46.636 E104.75608
G1 X46.48 Y46.446 E104.79121
G1 X47.175 Y46.333 E104.82634
G1 X47.817 Y46.3 E104.85841
G1 X108.183 Y46.3 E107.87008
G1 X108.886 Y46.34 E107.90521
G1 X109.58 Y46.459 E107.94034
G1 X109.997 Y46.581 E107.96202
G1 X110.48 Y46.446 E107.98704
G1 X111.175 Y46.333 E108.02217
G1 X111.817 Y46.3 E108.05424
G1 X172.183 Y46.3 E111.06591
G1 X172.886 Y46.34 E111.10104
G1 X173.58 Y46.459 E111.13617
G1 X174.255 Y46.657 E111.17127
G1 X174.904 Y46.929 E111.20637
G1 X175.518 Y47.274 E111.24151
G1 X176.089 Y47.685 E111.27661
G1 X176.567 Y48.116 E111.30872
G1 X176.684 Y48.233 E111.31697
G1 X177.153 Y48.758 E111.3521
G1 X177.559 Y49.333 E111.38721
G1 X177.897 Y49.951 E111.42236
G1 X178.164 Y50.602 E111.45746
G1 X178.354 Y51.28 E111.49259
G1 X178.467 Y51.975 E111.52772
G1 X178.5 Y52.617 E111.55979
G1 X178.5 Y167.383 E117.28549
G1 X178.46 Y168.086 E117.32062
G1 X178.341 Y168.78 E117.35575
G1 X178.143 Y169.455 E117.39084
G1 X177.871 Y170.104 E117.42595
G1 X177.526 Y170.718 E117.46109
G1 X177.115 Y171.289 E117.49619
G1 X176.684 Y171.767 E117.5283
G1 X176.567 Y171.884 E117.53655
G1 X176.042 Y172.353 E117.57167
G1 X175.467 Y172.759 E117.60679
G1 X174.849 Y173.097 E117.64193
G1 X174.198 Y173.364 E117.67704
G1 X173.52 Y173.554 E117.71216
G1 X172.825 Y173.667 E117.74729
G1 X172.183 Y173.7 E117.77937
G1 X111.817 Y173.7 E120.79104
G1 X111.114 Y173.66 E120.82617
G1 X110.42 Y173.541 E120.8613
G1 X110.003 Y173.419 E120.88297
G1 X109.52 Y173.554 E120.90799
G1 X108.825 Y173.667 E120.94312
G1 X108.183 Y173.7 E120.97519
G1 X47.817 Y173.7 E123.98687
G1 X47.114 Y173.66 E124.022
G1 X46.42 Y173.541 E124.05712
G1 X45.745 Y173.343 E124.09222
G1 X45.096 Y173.071 E124.12733
G1 X44.482 Y172.726 E124.16246
G1 X43.911 Y172.315 E124.19756
G1 X43.433 Y171.884 E124.22967
G1 X43.316 Y171.767 E124.23793
G1 X42.847 Y171.242 E124.27305
G1 X42.441 Y170.667 E124.30817
G1 X42.103 Y170.049 E124.34331
G1 X41.836 Y169.398 E124.37841
G1 X41.646 Y168.72 E124.41354
G1 X41.533 Y168.025 E124.44867
G1 X41.5 Y167.383 E124.48074
G1 X41.5 Y52.617 E130.20644
G1 X41.54 Y51.914 E130.24157
G1 X41.659 Y51.22 E130.2767
G1 X41.857 Y50.545 E130.3118
G1 X42.129 Y49.896 E130.3469
G1 X42.474 Y49.282 E130.38204
G1 X42.885 Y48.711 E130.41714
G1 X43.316 Y48.233 E130.44925
G1 X43.433 Y48.116 E130.4575
G0 F6750 X43.716 Y48.399
G1 F1350 X44.225 Y47.946 E130.4915
G1 X44.783 Y47.557 E130.52544
G1 X45.383 Y47.235 E130.55941
G1 X46.017 Y46.986 E130.59339
G1 X46.676 Y46.813 E130.62738
G1 X47.35 Y46.719 E130.66133
G1 X47.817 Y46.7 E130.68465
G1 X108.183 Y46.7 E133.69632
G1 X108.863 Y46.74 E133.73031
G1 X109.533 Y46.859 E133.76426
G1 X109.989 Y46.997 E133.78803
G1 X110.017 Y46.986 E133.78953
G1 X110.676 Y46.813 E133.82352
G1 X111.35 Y46.719 E133.85747
G1 X111.817 Y46.7 E133.88079
G1 X172.183 Y46.7 E136.89246
G1 X172.863 Y46.74 E136.92644
G1 X173.533 Y46.859 E136.96039
G1 X174.185 Y47.056 E136.99437
G1 X174.809 Y47.328 E137.02833
G1 X175.397 Y47.672 E137.06232
G1 X175.941 Y48.082 E137.09631
G1 X176.284 Y48.399 E137.11961
G1 X176.401 Y48.516 E137.12786
G1 X176.854 Y49.025 E137.16186
G1 X177.243 Y49.583 E137.19579
G1 X177.565 Y50.183 E137.22977
G1 X177.814 Y50.817 E137.26375
G1 X177.987 Y51.476 E137.29774
G1 X178.081 Y52.15 E137.33169
G1 X178.1 Y52.617 E137.35501
G1 X178.1 Y167.383 E143.08071
G1 X178.06 Y168.063 E143.11469
G1 X177.941 Y168.733 E143.14864
G1 X177.744 Y169.385 E143.18262
G1 X177.472 Y170.009 E143.21658
G1 X177.128 Y170.597 E143.25057
G1 X176.718 Y171.141 E143.28456
G1 X176.401 Y171.484 E143.30786
G1 X176.284 Y171.601 E143.31611
G1 X175.775 Y172.054 E143.35011
G1 X175.217 Y172.443 E143.38404
G1 X174.617 Y172.765 E143.41801
G1 X173.983 Y173.014 E143.452
G1 X173.324 Y173.187 E143.48599
G1 X172.65 Y173.281 E143.51994
G1 X172.183 Y173.3 E143.54326
G1 X111.817 Y173.3 E146.55493
G1 X111.137 Y173.26 E146.58891
G1 X110.467 Y173.141 E146.62286
G1 X110.011 Y173.003 E146.64663
G1 X109.983 Y173.014 E146.64813
G1 X109.324 Y173.187 E146.68213
G1 X108.65 Y173.281 E146.71608
G1 X108.183 Y173.3 E146.73939
G1 X47.817 Y173.3 E149.75107
G1 X47.137 Y173.26 E149.78505
G1 X46.467 Y173.141 E149.819
G1 X45.815 Y172.944 E149.85298
G1 X45.191 Y172.672 E149.88694
G1 X44.603 Y172.328 E149.92093
G1 X44.059 Y171.918 E149.95491
G1 X43.716 Y171.601 E149.97821
G1 X43.599 Y171.484 E149.98647
G1 X43.146 Y170.975 E150.02046
G1 X42.757 Y170.417 E150.0544
G1 X42.435 Y169.817 E150.08837
G1 X42.186 Y169.183 E150.12236
G1 X42.013 Y168.524 E150.15635
G1 X41.919 Y167.85 E150.1903
G1 X41.9 Y167.383 E150.21362
G1 X41.9 Y52.617 E155.93932
G1 X41.94 Y51.937 E155.9733
G1 X42.059 Y51.267 E156.00725
G1 X42.256 Y50.615 E156.04123
G1 X42.528 Y49.991 E156.07519
G1 X42.872 Y49.403 E156.10918
G1 X43.282 Y48.859 E156.14316
G1 X43.599 Y48.516 E156.16646
G1 X43.716 Y48.399 E156.17472
G0 F6750 X43.999 Y48.682
G1 F1350 X44.491 Y48.246 E156.20752
G1 X45.032 Y47.874 E156.24027
G1 X45.614 Y47.57 E156.27303
G1 X46.229 Y47.339 E156.30581
G1 X46.868 Y47.184 E156.33861
G1 X47.817 Y47.1 E156.38614
G1 X108.183 Y47.1 E159.39781
G1 X108.839 Y47.14 E159.4306
G1 X109.485 Y47.259 E159.46337
G1 X110.006 Y47.423 E159.49062
G1 X110.229 Y47.339 E159.50251
G1 X110.868 Y47.184 E159.53532
G1 X111.817 Y47.1 E159.58285
G1 X172.183 Y47.1 E162.59452
G1 X172.839 Y47.14 E162.62731
G1 X173.485 Y47.259 E162.66008
G1 X174.112 Y47.456 E162.69287
G1 X174.71 Y47.728 E162.72564
G1 X175.271 Y48.07 E162.75842
G1 X176.001 Y48.682 E162.80595
G1 X176.118 Y48.799 E162.8142
G1 X176.554 Y49.291 E162.847
G1 X176.926 Y49.832 E162.87976
G1 X177.23 Y50.414 E162.91251
G1 X177.461 Y51.029 E162.94529
G1 X177.616 Y51.668 E162.97809
G1 X177.7 Y52.617 E163.02563
G1 X177.7 Y167.383 E168.75132
G1 X177.66 Y168.039 E168.78411
G1 X177.541 Y168.685 E168.81688
G1 X177.344 Y169.312 E168.84967
