;FLAVOR:Marlin
;TIME:1575
;Filament used: 0.762894m
;Layer height: 0.15
;MINX:90.956
;MINY:91.2
;MINZ:0.3
;MAXX:129.044
;MAXY:128.8
;MAXZ:28.05
;Generated with Cura_SteamEngine main
M140 S60
M105
M190 S60
M104 S200
M105
M109 S200
M82 ;absolute extrusion mode
G28 ;Home
G1 Z15.0 F2000 ;Move the platform
G92 E0
G92 E0
G1 F1500 E-6.5
;LAYER_COUNT:186
;LAYER:0
M107
M204 S1000
G0 F7500 X97.599 Y93.371 Z0.3
G0 X93.153 Y100.667
;TYPE:SKIRT
G1 F1500 E0
G1 X93.395 Y100.097 E0.03089
G1 X94.126 Y98.552 E0.11617
G1 X94.416 Y97.998 E0.14736
G1 X95.268 Y96.517 E0.23261
G1 X95.607 Y95.98 E0.26429
G1 X96.577 Y94.573 E0.34955
G1 X97.058 Y93.946 E0.38897
G1 X97.599 Y93.371 E0.42836
G1 X98.196 Y92.854 E0.46776
G1 X98.842 Y92.4 E0.50716
G1 X99.531 Y92.014 E0.54656
G1 X100.255 Y91.699 E0.58595
G1 X101.007 Y91.459 E0.62533
G1 X101.78 Y91.296 E0.66474
G1 X102.565 Y91.212 E0.70413
G1 X102.999 Y91.2 E0.72579
G1 X117.001 Y91.2 E1.42435
G1 X117.79 Y91.24 E1.46377
G1 X118.57 Y91.359 E1.50313
G1 X119.335 Y91.557 E1.54256
G1 X120.075 Y91.831 E1.58192
G1 X120.784 Y92.179 E1.62133
G1 X121.455 Y92.597 E1.66077
G1 X122.079 Y93.08 E1.70014
G1 X122.652 Y93.623 E1.73952
G1 X123.167 Y94.222 E1.77893
G1 X123.423 Y94.574 E1.80065
G1 X124.392 Y95.98 E1.88584
G1 X124.73 Y96.515 E1.91741
G1 X125.583 Y97.997 E2.00272
G1 X125.874 Y98.552 E2.03398
G1 X126.604 Y100.095 E2.11914
G1 X126.845 Y100.663 E2.14993
G1 X127.452 Y102.262 E2.23526
G1 X127.655 Y102.87 E2.26723
G1 X128.128 Y104.511 E2.35244
G1 X128.274 Y105.105 E2.38295
G1 X128.617 Y106.779 E2.46821
G1 X128.72 Y107.41 E2.5001
G1 X128.925 Y109.107 E2.58538
G1 X128.975 Y109.729 E2.61651
G1 X129.044 Y111.447 E2.70229
G1 X129.027 Y112.356 E2.74765
G1 X128.978 Y112.995 E2.77963
G1 X128.878 Y113.779 E2.81906
G1 X128.798 Y114.167 E2.83882
G1 X128.656 Y114.777 E2.87007
G1 X128.318 Y115.863 E2.92681
G1 X128.086 Y116.453 E2.95844
G1 X127.585 Y117.493 E3.01603
G1 X127.275 Y118.031 E3.04701
G1 X126.626 Y118.987 E3.10466
G1 X126.229 Y119.487 E3.13651
G1 X125.707 Y120.08 E3.17593
G1 X125.419 Y120.361 E3.196
G1 X124.8 Y120.934 E3.23808
G1 X124.76 Y121.789 E3.28078
G1 X124.641 Y122.569 E3.32015
G1 X124.443 Y123.334 E3.35957
G1 X124.169 Y124.074 E3.39894
G1 X123.821 Y124.783 E3.43834
G1 X123.403 Y125.454 E3.47779
G1 X122.92 Y126.078 E3.51715
G1 X122.377 Y126.651 E3.55654
G1 X121.778 Y127.166 E3.59595
G1 X121.13 Y127.617 E3.63534
G1 X120.439 Y128.001 E3.67478
G1 X119.714 Y128.313 E3.71415
G1 X118.961 Y128.55 E3.75354
G1 X118.187 Y128.709 E3.79296
G1 X117.402 Y128.79 E3.83233
G1 X117 Y128.8 E3.85239
G1 X103 Y128.8 E4.55086
G1 X102.211 Y128.76 E4.59027
G1 X101.431 Y128.641 E4.62963
G1 X100.666 Y128.443 E4.66906
G1 X99.926 Y128.169 E4.70843
G1 X99.217 Y127.821 E4.74783
G1 X98.546 Y127.403 E4.78727
G1 X97.922 Y126.92 E4.82664
G1 X97.349 Y126.377 E4.86602
G1 X96.834 Y125.778 E4.90543
G1 X96.383 Y125.13 E4.94482
G1 X95.999 Y124.439 E4.98426
G1 X95.687 Y123.714 E5.02364
G1 X95.45 Y122.961 E5.06302
G1 X95.291 Y122.187 E5.10244
G1 X95.21 Y121.402 E5.14182
G1 X95.2 Y120.933 E5.16522
G1 X94.576 Y120.355 E5.20765
G1 X93.779 Y119.496 E5.26612
G1 X93.39 Y119.008 E5.29725
G1 X92.734 Y118.045 E5.35538
G1 X92.42 Y117.501 E5.38672
G1 X91.922 Y116.472 E5.44375
G1 X91.685 Y115.873 E5.47589
G1 X91.432 Y115.125 E5.51529
G1 X91.33 Y114.723 E5.53598
G1 X91.191 Y114.108 E5.56743
G1 X91.022 Y112.986 E5.62404
G1 X90.973 Y112.349 E5.65592
G1 X90.956 Y111.436 E5.70147
G1 X91.025 Y109.728 E5.78676
G1 X91.075 Y109.107 E5.81784
G1 X91.28 Y107.411 E5.90307
G1 X91.382 Y106.783 E5.93481
G1 X91.725 Y105.107 E6.02016
G1 X91.872 Y104.509 E6.05088
G1 X92.345 Y102.869 E6.13604
G1 X92.547 Y102.265 E6.16781
G1 X93.153 Y100.667 E6.25307
G1 F1500 E-0.24693
G0 F7500 X92.472 Y107.555
G1 F1500 E6.25307
G1 X92.558 Y107.024 E6.27991
G1 X92.901 Y105.348 E6.36526
G1 X93.025 Y104.842 E6.39125
G1 X93.498 Y103.202 E6.47641
G1 X93.669 Y102.691 E6.50329
G1 X94.275 Y101.093 E6.58855
G1 X94.48 Y100.61 E6.61473
G1 X95.211 Y99.065 E6.7
G1 X95.456 Y98.597 E6.72636
G1 X96.308 Y97.116 E6.8116
G1 X96.595 Y96.661 E6.83844
G1 X97.565 Y95.254 E6.9237
G1 X98.01 Y94.679 E6.95997
G1 X98.515 Y94.157 E6.99621
G1 X99.074 Y93.694 E7.03242
G1 X99.681 Y93.295 E7.06866
G1 X100.328 Y92.965 E7.1049
G1 X101.007 Y92.708 E7.14112
G1 X101.711 Y92.527 E7.17738
G1 X102.43 Y92.425 E7.21361
G1 X102.999 Y92.4 E7.24203
G1 X117.001 Y92.4 E7.94059
G1 X117.726 Y92.44 E7.97682
G1 X118.443 Y92.559 E8.01308
G1 X119.142 Y92.757 E8.04932
G1 X119.815 Y93.03 E8.08556
G1 X120.454 Y93.375 E8.12179
G1 X121.051 Y93.789 E8.15803
G1 X121.599 Y94.265 E8.19424
G1 X122.092 Y94.799 E8.2305
G1 X122.435 Y95.255 E8.25897
G1 X123.404 Y96.661 E8.34416
G1 X123.69 Y97.114 E8.37089
G1 X124.543 Y98.596 E8.4562
G1 X124.789 Y99.065 E8.48262
G1 X125.519 Y100.608 E8.56778
G1 X125.723 Y101.089 E8.59385
G1 X126.33 Y102.688 E8.67918
G1 X126.502 Y103.202 E8.70622
G1 X126.975 Y104.843 E8.79142
G1 X127.099 Y105.346 E8.81727
G1 X127.442 Y107.02 E8.90252
G1 X127.528 Y107.553 E8.92945
G1 X127.733 Y109.25 E9.01473
G1 X127.776 Y109.777 E9.04111
G1 X127.845 Y111.495 E9.12689
G1 X127.831 Y112.265 E9.16532
G1 X127.782 Y112.904 E9.19729
G1 X127.629 Y113.895 E9.24732
G1 X127.487 Y114.505 E9.27856
G1 X127.201 Y115.424 E9.32658
G1 X126.969 Y116.014 E9.35821
G1 X126.546 Y116.894 E9.40692
G1 X126.236 Y117.432 E9.4379
G1 X125.686 Y118.241 E9.4867
G1 X125.289 Y118.741 E9.51856
G1 X124.604 Y119.48 E9.56883
G1 X123.715 Y120.303 E9.62927
G1 X123.623 Y120.493 E9.6398
G1 X123.6 Y120.805 E9.65541
G1 X123.6 Y121 E9.66514
G1 X123.56 Y121.725 E9.70136
G1 X123.441 Y122.442 E9.73762
G1 X123.243 Y123.141 E9.77387
G1 X122.97 Y123.814 E9.8101
G1 X122.625 Y124.453 E9.84633
G1 X122.211 Y125.05 E9.88258
G1 X121.735 Y125.598 E9.91879
G1 X121.201 Y126.091 E9.95505
G1 X120.616 Y126.521 E9.99127
G1 X119.987 Y126.885 E10.02753
G1 X119.322 Y127.178 E10.06378
G1 X118.629 Y127.396 E10.10003
G1 X117.917 Y127.536 E10.13623
G1 X117 Y127.6 E10.18209
G1 X103 Y127.6 E10.88055
G1 X102.275 Y127.56 E10.91678
G1 X101.558 Y127.441 E10.95304
G1 X100.859 Y127.243 E10.98928
G1 X100.186 Y126.97 E11.02552
G1 X99.547 Y126.625 E11.06175
G1 X98.95 Y126.211 E11.09799
G1 X98.402 Y125.735 E11.13421
G1 X97.909 Y125.201 E11.17046
G1 X97.479 Y124.616 E11.20669
G1 X97.115 Y123.987 E11.24294
G1 X96.822 Y123.322 E11.2792
G1 X96.604 Y122.629 E11.31544
G1 X96.464 Y121.917 E11.35164
G1 X96.4 Y121 E11.3975
G1 X96.4 Y120.806 E11.40718
G1 X96.377 Y120.493 E11.42284
G1 X96.286 Y120.303 E11.43335
G1 X95.392 Y119.475 E11.49414
G1 X94.717 Y118.748 E11.54364
G1 X94.328 Y118.26 E11.57477
G1 X93.773 Y117.445 E11.62397
G1 X93.459 Y116.901 E11.6553
G1 X93.038 Y116.03 E11.70357
G1 X92.801 Y115.431 E11.73571
G1 X92.5 Y114.458 E11.78652
G1 X92.361 Y113.843 E11.81797
G1 X92.218 Y112.894 E11.86585
G1 X92.169 Y112.257 E11.89773
G1 X92.155 Y111.485 E11.93625
G1 X92.224 Y109.777 E12.02153
G1 X92.267 Y109.251 E12.04786
G1 X92.472 Y107.555 E12.13309
G1 F1500 E5.63309
G0 F7500 X92.555 Y111.501
G1 F1500 E12.13309
G1 X92.624 Y109.793 E12.21837
G1 X92.664 Y109.299 E12.2431
G1 X92.869 Y107.603 E12.32833
G1 X92.95 Y107.104 E12.35355
G1 X93.293 Y105.428 E12.4389
G1 X93.41 Y104.953 E12.46331
G1 X93.883 Y103.313 E12.54846
G1 X94.043 Y102.833 E12.5737
G1 X94.649 Y101.235 E12.65897
G1 X94.842 Y100.781 E12.68358
G1 X95.573 Y99.236 E12.76885
G1 X95.803 Y98.796 E12.79362
G1 X96.655 Y97.315 E12.87886
G1 X96.924 Y96.888 E12.90404
G1 X97.894 Y95.481 E12.9893
G1 X98.326 Y94.925 E13.02443
G1 X98.818 Y94.421 E13.05957
G1 X99.364 Y93.977 E13.09468
G1 X99.957 Y93.597 E13.12982
G1 X100.589 Y93.287 E13.16494
G1 X101.252 Y93.051 E13.20005
G1 X101.938 Y92.891 E13.23519
G1 X102.637 Y92.811 E13.27029
G1 X102.999 Y92.8 E13.28836
G1 X117.001 Y92.8 E13.98692
G1 X117.704 Y92.84 E14.02205
G1 X118.398 Y92.959 E14.05718
G1 X119.073 Y93.157 E14.09228
G1 X119.722 Y93.429 E14.12738
G1 X120.336 Y93.774 E14.16252
G1 X120.907 Y94.185 E14.19762
G1 X121.428 Y94.659 E14.23276
G1 X121.892 Y95.189 E14.2679
G1 X122.106 Y95.482 E14.28601
G1 X123.075 Y96.888 E14.3712
G1 X123.343 Y97.313 E14.39626
G1 X124.196 Y98.795 E14.48157
G1 X124.427 Y99.237 E14.50645
G1 X125.157 Y100.78 E14.59162
G1 X125.349 Y101.231 E14.61607
G1 X125.956 Y102.83 E14.7014
G1 X126.117 Y103.313 E14.7268
G1 X126.59 Y104.954 E14.812
G1 X126.707 Y105.426 E14.83626
G1 X127.05 Y107.1 E14.92151
G1 X127.131 Y107.601 E14.94683
G1 X127.336 Y109.298 E15.03211
G1 X127.376 Y109.793 E15.05689
G1 X127.445 Y111.511 E15.14267
G1 X127.432 Y112.234 E15.17875
G1 X127.383 Y112.873 E15.21072
G1 X127.24 Y113.805 E15.25776
G1 X127.098 Y114.415 E15.28901
G1 X126.829 Y115.278 E15.33411
G1 X126.597 Y115.868 E15.36574
G1 X126.199 Y116.694 E15.41148
G1 X125.889 Y117.232 E15.44246
G1 X125.373 Y117.992 E15.48829
G1 X124.976 Y118.492 E15.52014
G1 X124.332 Y119.187 E15.56741
G1 X123.373 Y120.075 E15.63262
G1 X123.232 Y120.362 E15.64857
G1 X123.2 Y120.79 E15.66998
G1 X123.2 Y121 E15.68046
G1 X123.16 Y121.703 E15.71559
G1 X123.041 Y122.397 E15.75072
G1 X122.843 Y123.072 E15.78581
G1 X122.571 Y123.721 E15.82092
G1 X122.226 Y124.335 E15.85606
G1 X121.815 Y124.906 E15.89116
G1 X121.341 Y125.427 E15.9263
G1 X120.811 Y125.891 E15.96144
G1 X120.232 Y126.291 E15.99655
G1 X119.611 Y126.623 E16.03168
G1 X118.957 Y126.883 E16.06679
G1 X118.277 Y127.067 E16.10194
G1 X117.581 Y127.173 E16.13706
G1 X117 Y127.2 E16.16608
G1 X103 Y127.2 E16.86454
G1 X102.297 Y127.16 E16.89967
G1 X101.603 Y127.041 E16.9348
G1 X100.928 Y126.843 E16.9699
G1 X100.279 Y126.571 E17.005
G1 X99.665 Y126.226 E17.04014
G1 X99.094 Y125.815 E17.07524
G1 X98.573 Y125.341 E17.11038
G1 X98.109 Y124.811 E17.14552
G1 X97.709 Y124.232 E17.18063
G1 X97.377 Y123.611 E17.21577
G1 X97.117 Y122.957 E17.25088
G1 X96.933 Y122.277 E17.28602
G1 X96.827 Y121.581 E17.32115
G1 X96.8 Y121 E17.35016
G1 X96.8 Y120.789 E17.36069
G1 X96.767 Y120.361 E17.38211
G1 X96.624 Y120.071 E17.39824
G1 X95.664 Y119.182 E17.46352
G1 X95.03 Y118.499 E17.51001
G1 X94.641 Y118.011 E17.54114
G1 X94.119 Y117.245 E17.58739
G1 X93.805 Y116.701 E17.61873
G1 X93.41 Y115.883 E17.66405
G1 X93.173 Y115.284 E17.69618
G1 X92.891 Y114.37 E17.7439
G1 X92.752 Y113.755 E17.77536
G1 X92.617 Y112.864 E17.82032
G1 X92.568 Y112.227 E17.85219
G1 X92.555 Y111.501 E17.88842
G0 F7500 X92.955 Y111.517
G1 F1500 X93.024 Y109.809 E17.9737
G1 X93.061 Y109.347 E17.99683
G1 X93.266 Y107.651 E18.08206
G1 X93.342 Y107.184 E18.10566
G1 X93.685 Y105.508 E18.19101
G1 X93.794 Y105.064 E18.21382
G1 X94.267 Y103.424 E18.29897
G1 X94.417 Y102.974 E18.32264
G1 X95.023 Y101.376 E18.4079
G1 X95.203 Y100.952 E18.43088
G1 X95.934 Y99.407 E18.51616
G1 X96.15 Y98.996 E18.53932
G1 X97.002 Y97.515 E18.62456
G1 X97.254 Y97.115 E18.64815
G1 X98.224 Y95.708 E18.73341
G1 X98.643 Y95.171 E18.76739
G1 X99.121 Y94.687 E18.80133
G1 X99.653 Y94.262 E18.8353
G1 X100.232 Y93.903 E18.86929
G1 X100.848 Y93.614 E18.90323
G1 X101.494 Y93.399 E18.9372
G1 X102.161 Y93.261 E18.97118
G1 X102.999 Y93.2 E19.0131
G1 X117.001 Y93.2 E19.71166
G1 X117.681 Y93.24 E19.74565
G1 X118.351 Y93.359 E19.7796
G1 X119.003 Y93.556 E19.81358
G1 X119.627 Y93.828 E19.84754
G1 X120.215 Y94.172 E19.88153
G1 X120.759 Y94.582 E19.91551
G1 X121.25 Y95.053 E19.94946
G1 X121.777 Y95.709 E19.99144
G1 X122.746 Y97.115 E20.07663
G1 X122.997 Y97.513 E20.1001
G1 X123.85 Y98.995 E20.18541
G1 X124.066 Y99.408 E20.20867
G1 X124.796 Y100.951 E20.29383
G1 X124.975 Y101.373 E20.3167
G1 X125.582 Y102.972 E20.40202
G1 X125.733 Y103.424 E20.4258
G1 X126.206 Y105.065 E20.511
G1 X126.315 Y105.507 E20.53372
G1 X126.658 Y107.181 E20.61897
G1 X126.734 Y107.649 E20.64262
G1 X126.939 Y109.346 E20.7279
G1 X126.976 Y109.809 E20.75107
G1 X127.045 Y111.527 E20.83685
G1 X127.033 Y112.203 E20.87058
G1 X126.984 Y112.842 E20.90256
G1 X126.85 Y113.714 E20.94657
G1 X126.708 Y114.324 E20.97782
G1 X126.457 Y115.131 E21.01998
G1 X126.225 Y115.721 E21.05161
G1 X125.852 Y116.495 E21.09448
G1 X125.542 Y117.033 E21.12546
G1 X125.059 Y117.744 E21.16834
G1 X124.662 Y118.244 E21.20019
G1 X124.06 Y118.893 E21.24435
G1 X123.053 Y119.825 E21.31281
G1 X122.838 Y120.268 E21.33738
G1 X122.8 Y120.773 E21.36264
G1 X122.8 Y121 E21.37397
G1 X122.76 Y121.68 E21.40795
G1 X122.641 Y122.35 E21.4419
G1 X122.444 Y123.002 E21.47588
G1 X122.172 Y123.626 E21.50984
G1 X121.828 Y124.214 E21.54383
G1 X121.418 Y124.758 E21.57781
G1 X120.947 Y125.249 E21.61176
G1 X120.422 Y125.683 E21.64574
G1 X119.85 Y126.052 E21.6797
G1 X119.238 Y126.351 E21.71368
G1 X118.596 Y126.576 E21.74762
G1 X117.931 Y126.725 E21.78162
G1 X117 Y126.8 E21.82822
G1 X103 Y126.8 E22.52668
G1 X102.32 Y126.76 E22.56067
G1 X101.65 Y126.641 E22.59462
G1 X100.998 Y126.444 E22.6286
G1 X100.374 Y126.172 E22.66256
G1 X99.786 Y125.828 E22.69654
G1 X99.242 Y125.418 E22.73053
G1 X98.751 Y124.947 E22.76447
G1 X98.317 Y124.422 E22.79846
G1 X97.948 Y123.85 E22.83242
G1 X97.649 Y123.238 E22.8664
G1 X97.424 Y122.596 E22.90034
G1 X97.275 Y121.931 E22.93434
G1 X97.2 Y121 E22.98094
G1 X97.2 Y120.772 E22.99231
G1 X97.162 Y120.268 E23.01753
G1 X96.946 Y119.824 E23.04216
G1 X95.936 Y118.888 E23.11086
G1 X95.343 Y118.249 E23.15435
G1 X94.954 Y117.761 E23.18549
G1 X94.466 Y117.045 E23.22872
G1 X94.152 Y116.501 E23.26006
G1 X93.782 Y115.736 E23.30245
G1 X93.545 Y115.137 E23.33459
G1 X93.281 Y114.282 E23.37923
G1 X93.142 Y113.667 E23.41069
G1 X93.016 Y112.833 E23.45277
G1 X92.967 Y112.196 E23.48464
G1 X92.955 Y111.517 E23.51852
G0 F7500 X93.354 Y111.533
G1 F1500 X93.423 Y109.825 E23.60381
G1 X93.458 Y109.395 E23.62533
G1 X93.663 Y107.699 E23.71056
G1 X93.734 Y107.264 E23.73255
G1 X94.077 Y105.588 E23.8179
G1 X94.178 Y105.175 E23.83911
G1 X94.651 Y103.535 E23.92427
G1 X94.791 Y103.116 E23.94631
G1 X95.397 Y101.518 E24.03157
G1 X95.565 Y101.124 E24.05294
G1 X96.296 Y99.579 E24.13821
G1 X96.496 Y99.195 E24.15981
G1 X97.348 Y97.714 E24.24505
G1 X97.583 Y97.342 E24.26701
G1 X98.553 Y95.935 E24.35227
G1 X98.958 Y95.418 E24.38503
G1 X99.423 Y94.954 E24.4178
G1 X99.941 Y94.549 E24.45061
G1 X100.504 Y94.211 E24.48337
G1 X101.104 Y93.943 E24.51615
G1 X101.732 Y93.751 E24.54892
G1 X102.379 Y93.636 E24.5817
G1 X102.999 Y93.6 E24.61269
G1 X117.001 Y93.6 E25.31125
G1 X117.657 Y93.64 E25.34404
G1 X118.303 Y93.759 E25.37681
G1 X118.93 Y93.956 E25.4096
G1 X119.528 Y94.228 E25.44237
G1 X120.089 Y94.57 E25.47515
G1 X120.604 Y94.978 E25.50793
G1 X121.066 Y95.445 E25.54071
G1 X121.447 Y95.936 E25.57171
G1 X122.416 Y97.342 E25.6569
G1 X122.65 Y97.712 E25.67874
G1 X123.503 Y99.194 E25.76405
G1 X123.704 Y99.579 E25.78572
G1 X124.434 Y101.122 E25.87088
G1 X124.601 Y101.515 E25.89219
G1 X125.208 Y103.114 E25.97752
G1 X125.349 Y103.534 E25.99962
G1 X125.822 Y105.175 E26.08482
G1 X125.923 Y105.587 E26.10598
G1 X126.266 Y107.261 E26.19124
G1 X126.337 Y107.697 E26.21327
G1 X126.542 Y109.394 E26.29855
G1 X126.577 Y109.825 E26.32013
G1 X126.646 Y111.543 E26.40591
G1 X126.634 Y112.173 E26.43734
G1 X126.585 Y112.812 E26.46932
G1 X126.46 Y113.623 E26.51026
G1 X126.318 Y114.233 E26.5415
G1 X126.084 Y114.985 E26.58079
G1 X125.852 Y115.575 E26.61242
G1 X125.506 Y116.295 E26.65228
G1 X125.196 Y116.833 E26.68326
G1 X124.746 Y117.495 E26.72319
G1 X124.349 Y117.995 E26.75504
G1 X123.788 Y118.6 E26.79621
G1 X122.836 Y119.482 E26.86095
G1 X122.569 Y119.873 E26.88457
G1 X122.433 Y120.315 E26.90765
G1 X122.4 Y120.757 E26.92976
G1 X122.4 Y121 E26.94188
G1 X122.36 Y121.656 E26.97467
G1 X122.241 Y122.302 E27.00744
G1 X122.044 Y122.929 E27.04023
G1 X121.772 Y123.527 E27.07301
G1 X121.43 Y124.088 E27.10579
G1 X121.022 Y124.603 E27.13856
G1 X120.555 Y125.065 E27.17134
G1 X120.035 Y125.466 E27.2041
G1 X119.471 Y125.802 E27.23685
G1 X118.869 Y126.066 E27.26965
G1 X118.24 Y126.256 E27.30243
G1 X117.593 Y126.367 E27.33518
G1 X117 Y126.4 E27.36481
G1 X103 Y126.4 E28.06327
G1 X102.344 Y126.36 E28.09606
G1 X101.698 Y126.241 E28.12883
G1 X101.071 Y126.044 E28.16162
G1 X100.473 Y125.772 E28.1944
G1 X99.912 Y125.43 E28.22718
G1 X99.397 Y125.022 E28.25996
G1 X98.935 Y124.555 E28.29273
G1 X98.534 Y124.035 E28.32549
G1 X98.198 Y123.471 E28.35824
G1 X97.934 Y122.869 E28.39104
G1 X97.744 Y122.24 E28.42382
G1 X97.633 Y121.593 E28.45657
G1 X97.6 Y121 E28.4862
G1 X97.6 Y120.757 E28.49832
