;FLAVOR:Marlin
;TIME:3236
;Filament used: 2.08791m
;Layer height: 0.15
;MINX:-21.3
;MINY:-30.3
;MINZ:0.3
;MAXX:36.8
;MAXY:30.3
;MAXZ:16.95
;Generated with Cura_SteamEngine main
M140 S60
M105
M190 S60
M104 S200
M105
M109 S200
M82 ;absolute extrusion mode
G21 ;metric values
G90 ;absolute positioning
M82 ;set extruder to absolute mode
M107 ;start with the fan off
G28 ;Home all axes (max endstops)
G1 Z15.0 F9000 ;move the platform down 15mm
G92 E0 ;zero the extruded length
G1 F200 E3 ;extrude 3mm of feed stock
G92 E0 ;zero the extruded length again
G1 F9000
;Put printing message on LCD screen
M117 Printing...
G92 E0
G92 E0
G1 F1500 E-6.5
;LAYER_COUNT:112
;LAYER:0
M107
G0 F3600 X-21.3 Y-7 Z0.3
G0 X-21.3 Y-8.195
;TYPE:SKIRT
G1 F1500 E0
G1 F1800 X-21.3 Y-22.5 E0.71368
G1 X-21.26 Y-23.289 E0.75309
G1 X-21.141 Y-24.069 E0.79246
G1 X-20.943 Y-24.834 E0.83188
G1 X-20.669 Y-25.574 E0.87125
G1 X-20.321 Y-26.283 E0.91065
G1 X-19.903 Y-26.954 E0.95009
G1 X-19.42 Y-27.578 E0.98946
G1 X-18.877 Y-28.151 E1.02885
G1 X-18.278 Y-28.666 E1.06826
G1 X-17.63 Y-29.117 E1.10764
G1 X-16.939 Y-29.501 E1.14708
G1 X-16.214 Y-29.813 E1.18646
G1 X-15.461 Y-30.05 E1.22585
G1 X-14.687 Y-30.209 E1.26527
G1 X-13.805 Y-30.3 E1.3095
G1 X13.5 Y-30.3 E2.67176
G1 X14.289 Y-30.26 E2.71117
G1 X15.069 Y-30.141 E2.75053
G1 X15.834 Y-29.943 E2.78996
G1 X16.574 Y-29.669 E2.82933
G1 X17.283 Y-29.321 E2.86873
G1 X17.954 Y-28.903 E2.90817
G1 X18.578 Y-28.42 E2.94754
G1 X19.151 Y-27.877 E2.98692
G1 X19.666 Y-27.278 E3.02633
G1 X20.117 Y-26.63 E3.06572
G1 X20.501 Y-25.939 E3.10516
G1 X20.813 Y-25.214 E3.14454
G1 X21.05 Y-24.461 E3.18392
G1 X21.209 Y-23.687 E3.22334
G1 X21.3 Y-22.805 E3.26758
G1 X21.3 Y-21.3 E3.34267
G1 X29 Y-21.3 E3.72682
G1 X29.789 Y-21.26 E3.76623
G1 X30.569 Y-21.141 E3.8056
G1 X31.334 Y-20.943 E3.84502
G1 X32.074 Y-20.669 E3.88439
G1 X32.783 Y-20.321 E3.92379
G1 X33.454 Y-19.903 E3.96323
G1 X34.078 Y-19.42 E4.0026
G1 X34.651 Y-18.877 E4.04199
G1 X35.166 Y-18.278 E4.0814
G1 X35.617 Y-17.63 E4.12079
G1 X36.001 Y-16.939 E4.16023
G1 X36.313 Y-16.214 E4.1996
G1 X36.55 Y-15.461 E4.23899
G1 X36.709 Y-14.687 E4.27841
G1 X36.8 Y-13.805 E4.32265
G1 X36.8 Y13.5 E5.6849
G1 X36.76 Y14.289 E5.72431
G1 X36.641 Y15.069 E5.76368
G1 X36.443 Y15.834 E5.8031
G1 X36.169 Y16.574 E5.84247
G1 X35.821 Y17.283 E5.88187
G1 X35.403 Y17.954 E5.92131
G1 X34.92 Y18.578 E5.96068
G1 X34.377 Y19.151 E6.00006
G1 X33.778 Y19.666 E6.03947
G1 X33.13 Y20.117 E6.07886
G1 X32.439 Y20.501 E6.1183
G1 X31.714 Y20.813 E6.15768
G1 X30.961 Y21.05 E6.19706
G1 X30.187 Y21.209 E6.23649
G1 X29.305 Y21.3 E6.28072
G1 X21.3 Y21.3 E6.68009
G1 X21.3 Y22.5 E6.73996
G1 X21.26 Y23.289 E6.77938
G1 X21.141 Y24.069 E6.81874
G1 X20.943 Y24.834 E6.85816
G1 X20.669 Y25.574 E6.89753
G1 X20.321 Y26.283 E6.93694
G1 X19.903 Y26.954 E6.97638
G1 X19.42 Y27.578 E7.01574
G1 X18.877 Y28.151 E7.05513
G1 X18.278 Y28.666 E7.09454
G1 X17.63 Y29.117 E7.13393
G1 X16.939 Y29.501 E7.17337
G1 X16.214 Y29.813 E7.21274
G1 X15.461 Y30.05 E7.25213
G1 X14.687 Y30.209 E7.29155
G1 X13.805 Y30.3 E7.33579
G1 X-13.5 Y30.3 E8.69804
G1 X-14.289 Y30.26 E8.73745
G1 X-15.069 Y30.141 E8.77682
G1 X-15.834 Y29.943 E8.81624
G1 X-16.574 Y29.669 E8.85561
G1 X-17.283 Y29.321 E8.89501
G1 X-17.954 Y28.903 E8.93445
G1 X-18.578 Y28.42 E8.97382
G1 X-19.151 Y27.877 E9.01321
G1 X-19.666 Y27.278 E9.05262
G1 X-20.117 Y26.63 E9.092
G1 X-20.501 Y25.939 E9.13144
G1 X-20.813 Y25.214 E9.17082
G1 X-21.05 Y24.461 E9.21021
G1 X-21.209 Y23.687 E9.24963
G1 X-21.3 Y22.805 E9.29386
G1 X-21.3 Y8.5 E10.00754
G1 X-21.259 Y7.704 E10.04731
G1 X-21.3 Y7.305 E10.06732
G1 X-21.3 Y-7 E10.781
G1 X-21.259 Y-7.796 E10.82076
G1 X-21.3 Y-8.195 E10.84077
G0 F3600 X-20.9 Y-8.5
G1 F1800 X-20.9 Y-22.5 E11.53924
G1 X-20.86 Y-23.268 E11.57761
G1 X-20.741 Y-24.028 E11.61598
G1 X-20.543 Y-24.771 E11.65435
G1 X-20.269 Y-25.49 E11.69273
G1 X-19.922 Y-26.176 E11.73109
G1 X-19.506 Y-26.823 E11.76946
G1 X-19.025 Y-27.423 E11.80783
G1 X-18.484 Y-27.97 E11.84621
G1 X-17.889 Y-28.458 E11.8846
G1 X-17.247 Y-28.881 E11.92296
G1 X-16.564 Y-29.236 E11.96136
G1 X-15.849 Y-29.517 E11.99969
G1 X-15.107 Y-29.723 E12.03811
G1 X-14.349 Y-29.851 E12.07646
G1 X-13.5 Y-29.9 E12.11889
G1 X13.5 Y-29.9 E13.46592
G1 X14.268 Y-29.86 E13.50429
G1 X15.028 Y-29.741 E13.54267
G1 X15.771 Y-29.543 E13.58103
G1 X16.49 Y-29.269 E13.61942
G1 X17.176 Y-28.922 E13.65777
G1 X17.823 Y-28.506 E13.69615
G1 X18.423 Y-28.025 E13.73451
G1 X18.97 Y-27.484 E13.7729
G1 X19.458 Y-26.889 E13.81129
G1 X19.881 Y-26.247 E13.84965
G1 X20.236 Y-25.564 E13.88805
G1 X20.517 Y-24.849 E13.92638
G1 X20.723 Y-24.107 E13.96479
G1 X20.851 Y-23.349 E14.00315
G1 X20.9 Y-22.5 E14.04557
G1 X20.9 Y-20.9 E14.1254
G1 X29 Y-20.9 E14.52951
G1 X29.768 Y-20.86 E14.56788
G1 X30.528 Y-20.741 E14.60626
G1 X31.271 Y-20.543 E14.64462
G1 X31.99 Y-20.269 E14.683
G1 X32.676 Y-19.922 E14.72136
G1 X33.323 Y-19.506 E14.75973
G1 X33.923 Y-19.025 E14.7981
G1 X34.47 Y-18.484 E14.83648
G1 X34.958 Y-17.889 E14.87487
G1 X35.381 Y-17.247 E14.91323
G1 X35.736 Y-16.564 E14.95163
G1 X36.017 Y-15.849 E14.98996
G1 X36.223 Y-15.107 E15.02838
G1 X36.351 Y-14.349 E15.06673
G1 X36.4 Y-13.5 E15.10916
G1 X36.4 Y13.5 E16.4562
G1 X36.36 Y14.268 E16.49456
G1 X36.241 Y15.028 E16.53294
G1 X36.043 Y15.771 E16.5713
G1 X35.769 Y16.49 E16.60969
G1 X35.422 Y17.176 E16.64805
G1 X35.006 Y17.823 E16.68642
G1 X34.525 Y18.423 E16.72479
G1 X33.984 Y18.97 E16.76317
G1 X33.389 Y19.458 E16.80156
G1 X32.747 Y19.881 E16.83992
G1 X32.064 Y20.236 E16.87832
G1 X31.349 Y20.517 E16.91665
G1 X30.607 Y20.723 E16.95507
G1 X29.849 Y20.851 E16.99342
G1 X29 Y20.9 E17.03585
G1 X20.9 Y20.9 E17.43996
G1 X20.9 Y22.5 E17.51978
G1 X20.86 Y23.268 E17.55815
G1 X20.741 Y24.028 E17.59653
G1 X20.543 Y24.771 E17.63489
G1 X20.269 Y25.49 E17.67328
G1 X19.922 Y26.176 E17.71163
G1 X19.506 Y26.823 E17.75001
G1 X19.025 Y27.423 E17.78837
G1 X18.484 Y27.97 E17.82675
G1 X17.889 Y28.458 E17.86515
G1 X17.247 Y28.881 E17.9035
G1 X16.564 Y29.236 E17.94191
G1 X15.849 Y29.517 E17.98023
G1 X15.107 Y29.723 E18.01865
G1 X14.349 Y29.851 E18.057
G1 X13.5 Y29.9 E18.09943
G1 X-13.5 Y29.9 E19.44647
G1 X-14.268 Y29.86 E19.48483
G1 X-15.028 Y29.741 E19.52321
G1 X-15.771 Y29.543 E19.56158
G1 X-16.49 Y29.269 E19.59996
G1 X-17.176 Y28.922 E19.63832
G1 X-17.823 Y28.506 E19.67669
G1 X-18.423 Y28.025 E19.71506
G1 X-18.97 Y27.484 E19.75344
G1 X-19.458 Y26.889 E19.79183
G1 X-19.881 Y26.247 E19.83019
G1 X-20.236 Y25.564 E19.86859
G1 X-20.517 Y24.849 E19.90692
G1 X-20.723 Y24.107 E19.94534
G1 X-20.851 Y23.349 E19.98369
G1 X-20.9 Y22.5 E20.02612
G1 X-20.9 Y8.5 E20.72458
G1 X-20.858 Y7.722 E20.76345
G1 X-20.9 Y7 E20.79953
G1 X-20.9 Y-7 E21.498
G1 X-20.858 Y-7.778 E21.53687
G1 X-20.9 Y-8.5 E21.57295
G0 F3600 X-20.5 Y-8.5
G1 F1800 X-20.5 Y-22.5 E22.27141
G1 X-20.46 Y-23.247 E22.30873
G1 X-20.341 Y-23.985 E22.34603
G1 X-20.143 Y-24.707 E22.38338
G1 X-19.87 Y-25.403 E22.42068
G1 X-19.523 Y-26.066 E22.45801
G1 X-19.108 Y-26.689 E22.49536
G1 X-18.629 Y-27.263 E22.53266
G1 X-18.092 Y-27.784 E22.56998
G1 X-17.502 Y-28.243 E22.60728
G1 X-16.866 Y-28.638 E22.64463
G1 X-16.192 Y-28.962 E22.68194
G1 X-15.487 Y-29.212 E22.71926
G1 X-14.759 Y-29.386 E22.7566
G1 X-14.017 Y-29.481 E22.79392
G1 X-13.5 Y-29.5 E22.81973
G1 X13.5 Y-29.5 E24.16677
G1 X14.247 Y-29.46 E24.20409
G1 X14.985 Y-29.341 E24.24138
G1 X15.707 Y-29.143 E24.27873
G1 X16.403 Y-28.87 E24.31603
G1 X17.066 Y-28.523 E24.35337
G1 X17.689 Y-28.108 E24.39071
G1 X18.263 Y-27.629 E24.42801
G1 X18.784 Y-27.092 E24.46534
G1 X19.243 Y-26.502 E24.50263
G1 X19.638 Y-25.866 E24.53998
G1 X19.962 Y-25.192 E24.57729
G1 X20.212 Y-24.487 E24.61461
G1 X20.386 Y-23.759 E24.65196
G1 X20.481 Y-23.017 E24.68928
G1 X20.5 Y-22.5 E24.71509
G1 X20.5 Y-20.5 E24.81487
G1 X29 Y-20.5 E25.23893
G1 X29.747 Y-20.46 E25.27626
G1 X30.485 Y-20.341 E25.31355
G1 X31.207 Y-20.143 E25.3509
G1 X31.903 Y-19.87 E25.3882
G1 X32.566 Y-19.523 E25.42553
G1 X33.189 Y-19.108 E25.46288
G1 X33.763 Y-18.629 E25.50018
G1 X34.284 Y-18.092 E25.53751
G1 X34.743 Y-17.502 E25.5748
G1 X35.138 Y-16.866 E25.61215
G1 X35.462 Y-16.192 E25.64946
G1 X35.712 Y-15.487 E25.68678
G1 X35.886 Y-14.759 E25.72412
G1 X35.981 Y-14.017 E25.76144
G1 X36 Y-13.5 E25.78725
G1 X36 Y13.5 E27.13429
G1 X35.96 Y14.247 E27.17161
G1 X35.841 Y14.985 E27.20891
G1 X35.643 Y15.707 E27.24626
G1 X35.37 Y16.403 E27.28356
G1 X35.023 Y17.066 E27.32089
G1 X34.608 Y17.689 E27.35824
G1 X34.129 Y18.263 E27.39553
G1 X33.592 Y18.784 E27.43286
G1 X33.002 Y19.243 E27.47016
G1 X32.366 Y19.638 E27.50751
G1 X31.692 Y19.962 E27.54482
G1 X30.987 Y20.212 E27.58214
G1 X30.259 Y20.386 E27.61948
G1 X29.517 Y20.481 E27.6568
G1 X29 Y20.5 E27.68261
G1 X20.5 Y20.5 E28.10668
G1 X20.5 Y22.5 E28.20646
G1 X20.46 Y23.247 E28.24378
G1 X20.341 Y23.985 E28.28107
G1 X20.143 Y24.707 E28.31842
G1 X19.87 Y25.403 E28.35572
G1 X19.523 Y26.066 E28.39306
G1 X19.108 Y26.689 E28.4304
G1 X18.629 Y27.263 E28.4677
G1 X18.092 Y27.784 E28.50503
G1 X17.502 Y28.243 E28.54232
G1 X16.866 Y28.638 E28.57967
G1 X16.192 Y28.962 E28.61698
G1 X15.487 Y29.212 E28.6543
G1 X14.759 Y29.386 E28.69165
G1 X14.017 Y29.481 E28.72897
G1 X13.5 Y29.5 E28.75478
G1 X-13.5 Y29.5 E30.10181
G1 X-14.247 Y29.46 E30.13913
G1 X-14.985 Y29.341 E30.17643
G1 X-15.707 Y29.143 E30.21378
G1 X-16.403 Y28.87 E30.25108
G1 X-17.066 Y28.523 E30.28841
G1 X-17.689 Y28.108 E30.32576
G1 X-18.263 Y27.629 E30.36306
G1 X-18.784 Y27.092 E30.40038
G1 X-19.243 Y26.502 E30.43768
G1 X-19.638 Y25.866 E30.47503
G1 X-19.962 Y25.192 E30.51234
G1 X-20.212 Y24.487 E30.54966
G1 X-20.386 Y23.759 E30.587
G1 X-20.481 Y23.017 E30.62432
G1 X-20.5 Y22.5 E30.65013
G1 X-20.5 Y8.5 E31.3486
G1 X-20.455 Y7.721 E31.38752
G1 X-20.481 Y7.517 E31.39778
G1 X-20.5 Y7 E31.4236
G1 X-20.5 Y-7 E32.12206
G1 X-20.455 Y-7.779 E32.16099
G1 X-20.481 Y-7.983 E32.17125
G1 X-20.5 Y-8.5 E32.19706
G0 F3600 X-20.1 Y-8.5
G1 F1800 X-20.1 Y-22.5 E32.89552
G1 X-20.06 Y-23.225 E32.93175
G1 X-19.941 Y-23.942 E32.96801
G1 X-19.743 Y-24.641 E33.00425
G1 X-19.47 Y-25.314 E33.04049
G1 X-19.125 Y-25.953 E33.07671
G1 X-18.711 Y-26.55 E33.11296
G1 X-18.235 Y-27.098 E33.14917
G1 X-17.701 Y-27.591 E33.18543
G1 X-17.116 Y-28.021 E33.22165
G1 X-16.487 Y-28.385 E33.25791
G1 X-15.822 Y-28.678 E33.29417
G1 X-15.129 Y-28.896 E33.33041
G1 X-14.417 Y-29.036 E33.36661
G1 X-13.5 Y-29.1 E33.41247
G1 X13.5 Y-29.1 E34.75951
G1 X14.225 Y-29.06 E34.79573
G1 X14.942 Y-28.941 E34.83199
G1 X15.641 Y-28.743 E34.86824
G1 X16.314 Y-28.47 E34.90447
G1 X16.953 Y-28.125 E34.9407
G1 X17.55 Y-27.711 E34.97695
G1 X18.098 Y-27.235 E35.01316
G1 X18.591 Y-26.701 E35.04942
G1 X19.021 Y-26.116 E35.08564
G1 X19.385 Y-25.487 E35.1219
G1 X19.678 Y-24.822 E35.15815
G1 X19.896 Y-24.129 E35.1944
G1 X20.036 Y-23.417 E35.2306
G1 X20.1 Y-22.5 E35.27646
G1 X20.1 Y-20.1 E35.3962
G1 X29 Y-20.1 E35.84022
G1 X29.725 Y-20.06 E35.87645
G1 X30.442 Y-19.941 E35.91271
G1 X31.141 Y-19.743 E35.94895
G1 X31.814 Y-19.47 E35.98518
G1 X32.453 Y-19.125 E36.02141
G1 X33.05 Y-18.711 E36.05766
G1 X33.598 Y-18.235 E36.09387
G1 X34.091 Y-17.701 E36.13013
G1 X34.521 Y-17.116 E36.16635
G1 X34.885 Y-16.487 E36.20261
G1 X35.178 Y-15.822 E36.23887
G1 X35.396 Y-15.129 E36.27511
G1 X35.536 Y-14.417 E36.31131
G1 X35.6 Y-13.5 E36.35717
G1 X35.6 Y13.5 E37.70421
G1 X35.56 Y14.225 E37.74043
G1 X35.441 Y14.942 E37.77669
G1 X35.243 Y15.641 E37.81294
G1 X34.97 Y16.314 E37.84917
G1 X34.625 Y16.953 E37.8854
G1 X34.211 Y17.55 E37.92165
G1 X33.735 Y18.098 E37.95786
G1 X33.201 Y18.591 E37.99412
G1 X32.616 Y19.021 E38.03034
G1 X31.987 Y19.385 E38.0666
G1 X31.322 Y19.678 E38.10285
G1 X30.629 Y19.896 E38.1391
G1 X29.917 Y20.036 E38.1753
G1 X29 Y20.1 E38.22116
G1 X20.1 Y20.1 E38.66518
G1 X20.1 Y22.5 E38.78492
G1 X20.06 Y23.225 E38.82114
G1 X19.941 Y23.942 E38.85741
G1 X19.743 Y24.641 E38.89365
G1 X19.47 Y25.314 E38.92988
G1 X19.125 Y25.953 E38.96611
G1 X18.711 Y26.55 E39.00236
G1 X18.235 Y27.098 E39.03857
G1 X17.701 Y27.591 E39.07483
G1 X17.116 Y28.021 E39.11105
G1 X16.487 Y28.385 E39.14731
G1 X15.822 Y28.678 E39.18356
G1 X15.129 Y28.896 E39.21981
G1 X14.417 Y29.036 E39.25601
G1 X13.5 Y29.1 E39.30187
G1 X-13.5 Y29.1 E40.64891
G1 X-14.225 Y29.06 E40.68513
G1 X-14.942 Y28.941 E40.72139
G1 X-15.641 Y28.743 E40.75764
G1 X-16.314 Y28.47 E40.79387
G1 X-16.953 Y28.125 E40.8301
G1 X-17.55 Y27.711 E40.86635
G1 X-18.098 Y27.235 E40.90256
G1 X-18.591 Y26.701 E40.93882
G1 X-19.021 Y26.116 E40.97504
G1 X-19.385 Y25.487 E41.0113
G1 X-19.678 Y24.822 E41.04755
G1 X-19.896 Y24.129 E41.0838
G1 X-20.036 Y23.417 E41.12
G1 X-20.1 Y22.5 E41.16586
G1 X-20.1 Y8.5 E41.86432
G1 X-20.06 Y7.775 E41.90055
G1 X-20.05 Y7.715 E41.90358
G1 X-20.1 Y7 E41.93934
G1 X-20.1 Y-7 E42.6378
G1 X-20.06 Y-7.725 E42.67403
G1 X-20.05 Y-7.785 E42.67706
G1 X-20.1 Y-8.5 E42.71282
G0 F3600 X-19.7 Y-8.5
G1 F1800 X-19.7 Y-22.5 E43.41129
G1 X-19.66 Y-23.203 E43.44642
G1 X-19.541 Y-23.897 E43.48154
G1 X-19.343 Y-24.572 E43.51664
G1 X-19.071 Y-25.221 E43.55175
G1 X-18.726 Y-25.835 E43.58688
G1 X-18.315 Y-26.406 E43.62198
G1 X-17.841 Y-26.927 E43.65712
G1 X-17.311 Y-27.391 E43.69227
G1 X-16.732 Y-27.791 E43.72738
G1 X-16.111 Y-28.123 E43.76251
G1 X-15.457 Y-28.383 E43.79762
G1 X-14.777 Y-28.567 E43.83277
G1 X-14.081 Y-28.673 E43.86789
G1 X-13.5 Y-28.7 E43.89691
G1 X13.5 Y-28.7 E45.24394
G1 X14.203 Y-28.66 E45.27907
G1 X14.897 Y-28.541 E45.3142
G1 X15.572 Y-28.343 E45.3493
G1 X16.221 Y-28.071 E45.3844
G1 X16.835 Y-27.726 E45.41954
G1 X17.406 Y-27.315 E45.45464
G1 X17.927 Y-26.841 E45.48978
G1 X18.391 Y-26.311 E45.52492
G1 X18.791 Y-25.732 E45.56003
G1 X19.123 Y-25.111 E45.59516
G1 X19.383 Y-24.457 E45.63028
G1 X19.567 Y-23.777 E45.66542
G1 X19.673 Y-23.081 E45.70055
G1 X19.7 Y-22.5 E45.72956
G1 X19.7 Y-19.7 E45.86926
G1 X29 Y-19.7 E46.33323
G1 X29.703 Y-19.66 E46.36836
G1 X30.397 Y-19.541 E46.40349
G1 X31.072 Y-19.343 E46.43859
G1 X31.721 Y-19.071 E46.4737
G1 X32.335 Y-18.726 E46.50883
G1 X32.906 Y-18.315 E46.54393
G1 X33.427 Y-17.841 E46.57907
G1 X33.891 Y-17.311 E46.61422
G1 X34.291 Y-16.732 E46.64933
G1 X34.623 Y-16.111 E46.68446
G1 X34.883 Y-15.457 E46.71957
G1 X35.067 Y-14.777 E46.75471
G1 X35.173 Y-14.081 E46.78984
G1 X35.2 Y-13.5 E46.81886
G1 X35.2 Y13.5 E48.16589
G1 X35.16 Y14.203 E48.20102
G1 X35.041 Y14.897 E48.23615
G1 X34.843 Y15.572 E48.27124
G1 X34.571 Y16.221 E48.30635
G1 X34.226 Y16.835 E48.34149
G1 X33.815 Y17.406 E48.37659
G1 X33.341 Y17.927 E48.41173
G1 X32.811 Y18.391 E48.44687
G1 X32.232 Y18.791 E48.48198
G1 X31.611 Y19.123 E48.51711
G1 X30.957 Y19.383 E48.55223
G1 X30.277 Y19.567 E48.58737
G1 X29.581 Y19.673 E48.62249
G1 X29 Y19.7 E48.65151
G1 X19.7 Y19.7 E49.11549
G1 X19.7 Y22.5 E49.25518
G1 X19.66 Y23.203 E49.29031
G1 X19.541 Y23.897 E49.32544
G1 X19.343 Y24.572 E49.36054
G1 X19.071 Y25.221 E49.39564
G1 X18.726 Y25.835 E49.43078
G1 X18.315 Y26.406 E49.46588
G1 X17.841 Y26.927 E49.50102
G1 X17.311 Y27.391 E49.53616
G1 X16.732 Y27.791 E49.57127
G1 X16.111 Y28.123 E49.60641
G1 X15.457 Y28.383 E49.64152
G1 X14.777 Y28.567 E49.67666
G1 X14.081 Y28.673 E49.71179
G1 X13.5 Y28.7 E49.7408
G1 X-13.5 Y28.7 E51.08784
G1 X-14.203 Y28.66 E51.12297
G1 X-14.897 Y28.541 E51.1581
G1 X-15.572 Y28.343 E51.19319
G1 X-16.221 Y28.071 E51.2283
G1 X-16.835 Y27.726 E51.26344
G1 X-17.406 Y27.315 E51.29854
G1 X-17.927 Y26.841 E51.33368
G1 X-18.391 Y26.311 E51.36882
G1 X-18.791 Y25.732 E51.40393
G1 X-19.123 Y25.111 E51.43906
G1 X-19.383 Y24.457 E51.47417
G1 X-19.567 Y23.777 E51.50932
G1 X-19.673 Y23.081 E51.54444
G1 X-19.7 Y22.5 E51.57346
G1 X-19.7 Y8.5 E52.27192
G1 X-19.66 Y7.797 E52.30705
G1 X-19.673 Y7.581 E52.31785
G1 X-19.7 Y7 E52.34687
G1 X-19.7 Y-7 E53.04533
G1 X-19.66 Y-7.703 E53.08046
G1 X-19.673 Y-7.919 E53.09125
G1 X-19.7 Y-8.5 E53.12027
G0 F3600 X-19.3 Y-8.5
G1 F1800 X-19.3 Y-22.5 E53.81874
G1 X-19.26 Y-23.18 E53.85272
G1 X-19.141 Y-23.85 E53.88667
G1 X-18.944 Y-24.502 E53.92065
G1 X-18.672 Y-25.126 E53.95461
G1 X-18.328 Y-25.714 E53.9886
G1 X-17.918 Y-26.258 E54.02258
G1 X-17.447 Y-26.749 E54.05653
G1 X-16.922 Y-27.183 E54.09051
G1 X-16.35 Y-27.552 E54.12447
G1 X-15.738 Y-27.851 E54.15845
G1 X-15.096 Y-28.076 E54.19239
G1 X-14.431 Y-28.225 E54.22639
G1 X-13.5 Y-28.3 E54.27299
