;FLAVOR:Marlin
;TIME:1360
;Filament used: 0.861817m
;Layer height: 0.15
;MINX:-19.044
;MINY:-18.8
;MINZ:0.3
;MAXX:19.044
;MAXY:18.8
;MAXZ:28.05
;Generated with Cura_SteamEngine main
M140 S60
M105
M190 S60
M104 S200
M105
M109 S200
M82 ;absolute extrusion mode
G21 ;metric values
G90 ;absolute positioning
M82 ;set extruder to absolute mode
M107 ;start with the fan off
G28 ;Home all axes (max endstops)
G1 Z15.0 F9000 ;move the platform down 15mm
G92 E0 ;zero the extruded length
G1 F200 E3 ;extrude 3mm of feed stock
G92 E0 ;zero the extruded length again
G1 F9000
;Put printing message on LCD screen
M117 Printing...
G92 E0
G92 E0
G1 F1500 E-6.5
;LAYER_COUNT:186
;LAYER:0
M107
G0 F3600 X-14.8 Y10.933 Z0.3
G0 X-17.58 Y7.501
;TYPE:SKIRT
G1 F1500 E0
G1 F1800 X-18.078 Y6.472 E0.05703
G1 X-18.315 Y5.873 E0.08917
G1 X-18.602 Y5.026 E0.13379
G1 X-18.809 Y4.108 E0.18074
G1 X-18.978 Y2.986 E0.23735
G1 X-19.027 Y2.349 E0.26922
G1 X-19.044 Y1.436 E0.31478
G1 X-18.975 Y-.272 E0.40006
G1 X-18.925 Y-.893 E0.43114
G1 X-18.72 Y-2.589 E0.51637
G1 X-18.618 Y-3.217 E0.54811
G1 X-18.275 Y-4.893 E0.63346
G1 X-18.128 Y-5.491 E0.66418
G1 X-17.655 Y-7.131 E0.74934
G1 X-17.453 Y-7.735 E0.78111
G1 X-16.847 Y-9.333 E0.86638
G1 X-16.605 Y-9.903 E0.89727
G1 X-15.874 Y-11.448 E0.98255
G1 X-15.584 Y-12.002 E1.01374
G1 X-14.732 Y-13.483 E1.09898
G1 X-14.393 Y-14.02 E1.13067
G1 X-13.423 Y-15.427 E1.21593
G1 X-12.942 Y-16.054 E1.25535
G1 X-12.401 Y-16.629 E1.29474
G1 X-11.804 Y-17.146 E1.33414
G1 X-11.158 Y-17.6 E1.37353
G1 X-10.469 Y-17.986 E1.41293
G1 X-9.745 Y-18.301 E1.45233
G1 X-8.993 Y-18.541 E1.49171
G1 X-8.22 Y-18.704 E1.53112
G1 X-7.323 Y-18.8 E1.57613
G1 X7.001 Y-18.8 E2.29076
G1 X7.79 Y-18.76 E2.33017
G1 X8.57 Y-18.641 E2.36953
G1 X9.335 Y-18.443 E2.40896
G1 X10.075 Y-18.169 E2.44833
G1 X10.784 Y-17.821 E2.48773
G1 X11.455 Y-17.403 E2.52717
G1 X12.079 Y-16.92 E2.56654
G1 X12.652 Y-16.377 E2.60592
G1 X13.235 Y-15.699 E2.65053
G1 X14.392 Y-14.02 E2.75226
G1 X14.73 Y-13.485 E2.78383
G1 X15.583 Y-12.003 E2.86914
G1 X15.874 Y-11.448 E2.90041
G1 X16.604 Y-9.905 E2.98557
G1 X16.845 Y-9.337 E3.01635
G1 X17.452 Y-7.738 E3.10168
G1 X17.655 Y-7.13 E3.13366
G1 X18.128 Y-5.489 E3.21886
G1 X18.274 Y-4.895 E3.24938
G1 X18.617 Y-3.221 E3.33463
G1 X18.72 Y-2.59 E3.36653
G1 X18.925 Y-.893 E3.45181
G1 X18.975 Y-.271 E3.48294
G1 X19.044 Y1.447 E3.56872
G1 X19.027 Y2.356 E3.61408
G1 X18.978 Y2.995 E3.64605
G1 X18.865 Y3.877 E3.69041
G1 X18.656 Y4.777 E3.73651
G1 X18.318 Y5.863 E3.79325
G1 X18.086 Y6.453 E3.82488
G1 X17.585 Y7.493 E3.88248
G1 X17.275 Y8.031 E3.91345
G1 X16.626 Y8.987 E3.9711
G1 X16.229 Y9.487 E4.00295
G1 X15.639 Y10.158 E4.04753
G1 X14.8 Y10.934 E4.10455
G1 X14.76 Y11.789 E4.14725
G1 X14.641 Y12.569 E4.18661
G1 X14.443 Y13.334 E4.22604
G1 X14.169 Y14.074 E4.26541
G1 X13.821 Y14.783 E4.30481
G1 X13.403 Y15.454 E4.34425
G1 X12.92 Y16.078 E4.38362
G1 X12.377 Y16.651 E4.423
G1 X11.778 Y17.166 E4.46241
G1 X11.13 Y17.617 E4.5018
G1 X10.439 Y18.001 E4.54124
G1 X9.714 Y18.313 E4.58062
G1 X8.961 Y18.55 E4.62
G1 X8.187 Y18.709 E4.65942
G1 X7.305 Y18.8 E4.70366
G1 X-7 Y18.8 E5.41734
G1 X-7.789 Y18.76 E5.45675
G1 X-8.569 Y18.641 E5.49612
G1 X-9.334 Y18.443 E5.53554
G1 X-10.074 Y18.169 E5.57491
G1 X-10.783 Y17.821 E5.61431
G1 X-11.454 Y17.403 E5.65375
G1 X-12.078 Y16.92 E5.69312
G1 X-12.651 Y16.377 E5.73251
G1 X-13.166 Y15.778 E5.77192
G1 X-13.617 Y15.13 E5.8113
G1 X-14.001 Y14.439 E5.85074
G1 X-14.313 Y13.714 E5.89012
G1 X-14.55 Y12.961 E5.92951
G1 X-14.709 Y12.187 E5.96893
G1 X-14.79 Y11.402 E6.0083
G1 X-14.8 Y10.933 E6.0317
G1 X-15.424 Y10.355 E6.07414
G1 X-16.221 Y9.496 E6.1326
G1 X-16.61 Y9.008 E6.16373
G1 X-17.266 Y8.045 E6.22187
G1 X-17.58 Y7.501 E6.2532
G1 F1500 E-0.2468
G0 F3600 X-17.782 Y2.894
G1 F1500 E6.2532
G1 F1800 X-17.831 Y2.257 E6.28508
G1 X-17.845 Y1.485 E6.3236
G1 X-17.776 Y-.223 E6.40888
G1 X-17.733 Y-.749 E6.43521
G1 X-17.528 Y-2.445 E6.52044
G1 X-17.442 Y-2.976 E6.54728
G1 X-17.099 Y-4.652 E6.63263
G1 X-16.975 Y-5.158 E6.65862
G1 X-16.502 Y-6.798 E6.74377
G1 X-16.331 Y-7.309 E6.77066
G1 X-15.725 Y-8.907 E6.85592
G1 X-15.52 Y-9.39 E6.8821
G1 X-14.789 Y-10.935 E6.96737
G1 X-14.544 Y-11.403 E6.99373
G1 X-13.692 Y-12.884 E7.07897
G1 X-13.405 Y-13.339 E7.10581
G1 X-12.435 Y-14.746 E7.19107
G1 X-11.99 Y-15.321 E7.22734
G1 X-11.485 Y-15.843 E7.26358
G1 X-10.926 Y-16.306 E7.29979
G1 X-10.319 Y-16.705 E7.33603
G1 X-9.672 Y-17.035 E7.37226
G1 X-8.993 Y-17.292 E7.40848
G1 X-8.289 Y-17.473 E7.44475
G1 X-7.57 Y-17.575 E7.48098
G1 X-7.001 Y-17.6 E7.50939
G1 X7.001 Y-17.6 E8.20796
G1 X7.726 Y-17.56 E8.24418
G1 X8.443 Y-17.441 E8.28044
G1 X9.142 Y-17.243 E8.31669
G1 X9.815 Y-16.97 E8.35292
G1 X10.454 Y-16.625 E8.38915
G1 X11.051 Y-16.211 E8.4254
G1 X11.599 Y-15.735 E8.46161
G1 X12.092 Y-15.201 E8.49787
G1 X12.435 Y-14.745 E8.52634
G1 X13.404 Y-13.339 E8.61153
G1 X13.69 Y-12.886 E8.63825
G1 X14.543 Y-11.404 E8.72356
G1 X14.789 Y-10.935 E8.74999
G1 X15.519 Y-9.392 E8.83515
G1 X15.723 Y-8.911 E8.86121
G1 X16.33 Y-7.312 E8.94654
G1 X16.502 Y-6.798 E8.97358
G1 X16.975 Y-5.157 E9.05879
G1 X17.099 Y-4.654 E9.08463
G1 X17.442 Y-2.98 E9.16988
G1 X17.528 Y-2.447 E9.19682
G1 X17.733 Y-.75 E9.2821
G1 X17.776 Y-.223 E9.30848
G1 X17.845 Y1.495 E9.39426
G1 X17.831 Y2.265 E9.43268
G1 X17.782 Y2.904 E9.46465
G1 X17.629 Y3.895 E9.51468
G1 X17.487 Y4.505 E9.54593
G1 X17.201 Y5.424 E9.59395
G1 X16.969 Y6.014 E9.62558
G1 X16.546 Y6.894 E9.67429
G1 X16.236 Y7.432 E9.70527
G1 X15.686 Y8.241 E9.75407
G1 X15.289 Y8.741 E9.78592
G1 X14.604 Y9.48 E9.83619
G1 X13.715 Y10.303 E9.89663
G1 X13.623 Y10.493 E9.90717
G1 X13.6 Y11 E9.93249
G1 X13.56 Y11.725 E9.96871
G1 X13.441 Y12.442 E10.00497
G1 X13.243 Y13.141 E10.04122
G1 X12.97 Y13.814 E10.07745
G1 X12.625 Y14.453 E10.11368
G1 X12.211 Y15.05 E10.14993
G1 X11.735 Y15.598 E10.18614
G1 X11.201 Y16.091 E10.2224
G1 X10.616 Y16.521 E10.25862
G1 X9.987 Y16.885 E10.29488
G1 X9.322 Y17.178 E10.33113
G1 X8.629 Y17.396 E10.36738
G1 X7.917 Y17.536 E10.40358
G1 X7 Y17.6 E10.44944
G1 X-7 Y17.6 E11.1479
G1 X-7.725 Y17.56 E11.18413
G1 X-8.442 Y17.441 E11.22039
G1 X-9.141 Y17.243 E11.25663
G1 X-9.814 Y16.97 E11.29287
G1 X-10.453 Y16.625 E11.3291
G1 X-11.05 Y16.211 E11.36534
G1 X-11.598 Y15.735 E11.40155
G1 X-12.091 Y15.201 E11.43781
G1 X-12.521 Y14.616 E11.47404
G1 X-12.885 Y13.987 E11.51029
G1 X-13.178 Y13.322 E11.54655
G1 X-13.396 Y12.629 E11.58279
G1 X-13.536 Y11.917 E11.61899
G1 X-13.6 Y11 E11.66485
G1 X-13.623 Y10.493 E11.69017
G1 X-13.714 Y10.303 E11.70068
G1 X-14.608 Y9.475 E11.76148
G1 X-15.283 Y8.748 E11.81097
G1 X-15.672 Y8.26 E11.84211
G1 X-16.227 Y7.445 E11.8913
G1 X-16.541 Y6.901 E11.92264
G1 X-16.962 Y6.03 E11.9709
G1 X-17.199 Y5.431 E12.00304
G1 X-17.5 Y4.458 E12.05385
G1 X-17.639 Y3.843 E12.08531
G1 X-17.782 Y2.894 E12.13319
G0 F3600 X-17.445 Y1.501
G1 F1800 X-17.366 Y-.452 E12.2307
G1 X-17.131 Y-2.397 E12.32845
G1 X-17.05 Y-2.896 E12.35367
G1 X-16.658 Y-4.811 E12.45119
G1 X-16.117 Y-6.687 E12.5486
G1 X-15.957 Y-7.167 E12.57384
G1 X-15.263 Y-8.997 E12.67148
G1 X-14.32 Y-10.99 E12.78148
G1 X-13.345 Y-12.685 E12.87904
G1 X-13.076 Y-13.112 E12.90422
G1 X-12.106 Y-14.519 E12.98948
G1 X-11.674 Y-15.075 E13.0246
G1 X-11.182 Y-15.579 E13.05974
G1 X-10.636 Y-16.023 E13.09485
G1 X-10.043 Y-16.403 E13.12999
G1 X-9.411 Y-16.713 E13.16511
G1 X-8.748 Y-16.949 E13.20022
G1 X-8.062 Y-17.109 E13.23536
G1 X-7.267 Y-17.2 E13.27529
G1 X7.001 Y-17.2 E13.98712
G1 X7.704 Y-17.16 E14.02225
G1 X8.398 Y-17.041 E14.05738
G1 X9.073 Y-16.843 E14.09247
G1 X9.722 Y-16.571 E14.12758
G1 X10.336 Y-16.226 E14.16272
G1 X10.907 Y-15.815 E14.19782
G1 X11.428 Y-15.341 E14.23296
G1 X11.949 Y-14.746 E14.27241
G1 X13.075 Y-13.112 E14.37142
G1 X13.343 Y-12.687 E14.39648
G1 X14.319 Y-10.991 E14.49411
G1 X15.262 Y-8.998 E14.60411
G1 X15.956 Y-7.17 E14.70166
G1 X16.117 Y-6.687 E14.72706
G1 X16.66 Y-4.803 E14.82488
G1 X17.05 Y-2.9 E14.92179
G1 X17.131 Y-2.399 E14.94711
G1 X17.366 Y-.452 E15.04495
G1 X17.445 Y1.511 E15.14297
G1 X17.432 Y2.234 E15.17904
G1 X17.383 Y2.873 E15.21102
G1 X17.24 Y3.805 E15.25806
G1 X17.098 Y4.415 E15.2893
G1 X16.829 Y5.278 E15.3344
G1 X16.597 Y5.868 E15.36603
G1 X16.199 Y6.694 E15.41177
G1 X15.889 Y7.232 E15.44275
G1 X15.373 Y7.992 E15.48858
G1 X14.976 Y8.492 E15.52043
G1 X14.332 Y9.187 E15.56771
G1 X13.373 Y10.075 E15.63291
G1 X13.23 Y10.367 E15.64913
G1 X13.2 Y11 E15.68075
G1 X13.16 Y11.703 E15.71588
G1 X13.041 Y12.397 E15.75101
G1 X12.843 Y13.072 E15.7861
G1 X12.571 Y13.721 E15.82121
G1 X12.226 Y14.335 E15.85635
G1 X11.815 Y14.906 E15.89145
G1 X11.341 Y15.427 E15.92659
G1 X10.811 Y15.891 E15.96173
G1 X10.232 Y16.291 E15.99684
G1 X9.611 Y16.623 E16.03197
G1 X8.957 Y16.883 E16.06708
G1 X8.277 Y17.067 E16.10223
G1 X7.581 Y17.173 E16.13735
G1 X7 Y17.2 E16.16637
G1 X-7 Y17.2 E16.86483
G1 X-7.703 Y17.16 E16.89996
G1 X-8.397 Y17.041 E16.93509
G1 X-9.072 Y16.843 E16.97019
G1 X-9.721 Y16.571 E17.00529
G1 X-10.335 Y16.226 E17.04043
G1 X-10.906 Y15.815 E17.07553
G1 X-11.427 Y15.341 E17.11067
G1 X-11.891 Y14.811 E17.14581
G1 X-12.291 Y14.232 E17.18092
G1 X-12.623 Y13.611 E17.21605
G1 X-12.883 Y12.957 E17.25117
G1 X-13.067 Y12.277 E17.28631
G1 X-13.173 Y11.581 E17.32144
G1 X-13.2 Y11 E17.35045
G1 X-13.23 Y10.366 E17.38212
G1 X-13.376 Y10.071 E17.39854
G1 X-14.336 Y9.182 E17.46382
G1 X-14.97 Y8.499 E17.51031
G1 X-15.359 Y8.011 E17.54145
G1 X-15.881 Y7.245 E17.58769
G1 X-16.195 Y6.701 E17.61903
G1 X-16.59 Y5.883 E17.66435
G1 X-16.827 Y5.284 E17.69649
G1 X-17.109 Y4.37 E17.74421
G1 X-17.248 Y3.755 E17.77566
G1 X-17.383 Y2.864 E17.82062
G1 X-17.432 Y2.227 E17.8525
G1 X-17.445 Y1.501 E17.88872
G0 F3600 X-17.045 Y1.517
G1 F1800 X-16.967 Y-.425 E17.98569
G1 X-16.706 Y-2.584 E18.09418
G1 X-16.268 Y-4.72 E18.20297
G1 X-15.668 Y-6.802 E18.31107
G1 X-14.894 Y-8.844 E18.42001
G1 X-13.971 Y-10.793 E18.5276
G1 X-12.878 Y-12.693 E18.63696
G1 X-11.776 Y-14.292 E18.73384
G1 X-11.357 Y-14.829 E18.76783
G1 X-10.879 Y-15.313 E18.80176
G1 X-10.347 Y-15.738 E18.83574
G1 X-9.768 Y-16.097 E18.86972
G1 X-9.152 Y-16.386 E18.90367
G1 X-8.506 Y-16.601 E18.93764
G1 X-7.839 Y-16.739 E18.97162
G1 X-7.001 Y-16.8 E19.01354
G1 X7.001 Y-16.8 E19.7121
G1 X7.681 Y-16.76 E19.74608
G1 X8.351 Y-16.641 E19.78003
G1 X9.003 Y-16.444 E19.81401
G1 X9.627 Y-16.172 E19.84797
G1 X10.215 Y-15.828 E19.88196
G1 X10.759 Y-15.418 E19.91595
G1 X11.25 Y-14.947 E19.94989
G1 X11.777 Y-14.291 E19.99187
G1 X12.879 Y-12.692 E20.08876
G1 X13.966 Y-10.804 E20.19745
G1 X14.891 Y-8.848 E20.30539
G1 X15.668 Y-6.802 E20.41458
G1 X16.27 Y-4.714 E20.523
G1 X16.705 Y-2.588 E20.63126
G1 X16.967 Y-.426 E20.73991
G1 X17.045 Y1.527 E20.83742
G1 X17.033 Y2.203 E20.87116
G1 X16.984 Y2.842 E20.90313
G1 X16.85 Y3.714 E20.94714
G1 X16.708 Y4.324 E20.97839
G1 X16.457 Y5.131 E21.02055
G1 X16.225 Y5.721 E21.05218
G1 X15.852 Y6.495 E21.09505
G1 X15.542 Y7.033 E21.12603
G1 X15.059 Y7.744 E21.16891
G1 X14.662 Y8.244 E21.20076
G1 X14.06 Y8.893 E21.24492
G1 X13.053 Y9.825 E21.31338
G1 X12.835 Y10.274 E21.33828
G1 X12.8 Y11 E21.37454
G1 X12.76 Y11.68 E21.40853
G1 X12.641 Y12.35 E21.44248
G1 X12.444 Y13.002 E21.47646
G1 X12.172 Y13.626 E21.51042
G1 X11.828 Y14.214 E21.5444
G1 X11.418 Y14.758 E21.57839
G1 X10.947 Y15.249 E21.61233
G1 X10.422 Y15.683 E21.64632
G1 X9.85 Y16.052 E21.68028
G1 X9.238 Y16.351 E21.71426
G1 X8.596 Y16.576 E21.7482
G1 X7.931 Y16.725 E21.7822
G1 X7 Y16.8 E21.8288
G1 X-7 Y16.8 E22.52726
G1 X-7.68 Y16.76 E22.56124
G1 X-8.35 Y16.641 E22.59519
G1 X-9.002 Y16.444 E22.62917
G1 X-9.626 Y16.172 E22.66313
G1 X-10.214 Y15.828 E22.69712
G1 X-10.758 Y15.418 E22.73111
G1 X-11.249 Y14.947 E22.76505
G1 X-11.683 Y14.422 E22.79903
G1 X-12.052 Y13.85 E22.83299
G1 X-12.351 Y13.238 E22.86698
G1 X-12.576 Y12.596 E22.90092
G1 X-12.725 Y11.931 E22.93492
G1 X-12.8 Y11 E22.98151
G1 X-12.835 Y10.274 E23.01778
G1 X-13.054 Y9.824 E23.04274
G1 X-14.064 Y8.888 E23.11144
G1 X-14.657 Y8.249 E23.15494
G1 X-15.046 Y7.761 E23.18607
G1 X-15.534 Y7.045 E23.2293
G1 X-15.848 Y6.501 E23.26064
G1 X-16.218 Y5.736 E23.30303
G1 X-16.455 Y5.137 E23.33517
G1 X-16.719 Y4.282 E23.37982
G1 X-16.858 Y3.667 E23.41127
G1 X-16.984 Y2.833 E23.45335
G1 X-17.033 Y2.196 E23.48523
G1 X-17.045 Y1.517 E23.51911
G0 F3600 X-16.646 Y1.533
G1 F1800 X-16.568 Y-.386 E23.61493
G1 X-16.311 Y-2.515 E23.72191
G1 X-15.879 Y-4.628 E23.82951
G1 X-15.289 Y-6.673 E23.9357
G1 X-14.529 Y-8.678 E24.04267
G1 X-13.607 Y-10.626 E24.1502
G1 X-12.544 Y-12.474 E24.25656
G1 X-11.447 Y-14.065 E24.35297
G1 X-11.042 Y-14.582 E24.38574
G1 X-10.577 Y-15.046 E24.41851
G1 X-10.059 Y-15.451 E24.45131
G1 X-9.496 Y-15.789 E24.48408
G1 X-8.896 Y-16.057 E24.51686
G1 X-8.268 Y-16.249 E24.54962
G1 X-7.621 Y-16.364 E24.58241
G1 X-7.001 Y-16.4 E24.61339
G1 X7.001 Y-16.4 E25.31195
G1 X7.657 Y-16.36 E25.34474
G1 X8.303 Y-16.241 E25.37751
G1 X8.93 Y-16.044 E25.4103
G1 X9.528 Y-15.772 E25.44308
G1 X10.089 Y-15.43 E25.47586
G1 X10.604 Y-15.022 E25.50864
G1 X11.066 Y-14.555 E25.54141
G1 X11.447 Y-14.064 E25.57242
G1 X12.544 Y-12.473 E25.66883
G1 X13.609 Y-10.621 E25.77542
G1 X14.524 Y-8.687 E25.88216
G1 X15.291 Y-6.668 E25.98991
G1 X15.879 Y-4.626 E26.09592
G1 X16.31 Y-2.522 E26.20307
G1 X16.569 Y-.387 E26.31037
G1 X16.646 Y1.543 E26.40673
G1 X16.634 Y2.173 E26.43817
G1 X16.585 Y2.812 E26.47014
G1 X16.46 Y3.623 E26.51108
G1 X16.318 Y4.233 E26.54233
G1 X16.084 Y4.985 E26.58162
G1 X15.852 Y5.575 E26.61325
G1 X15.506 Y6.295 E26.6531
G1 X15.196 Y6.833 E26.68408
G1 X14.746 Y7.495 E26.72402
G1 X14.349 Y7.995 E26.75587
G1 X13.788 Y8.6 E26.79703
G1 X12.836 Y9.482 E26.86178
G1 X12.569 Y9.873 E26.8854
G1 X12.433 Y10.315 E26.90847
G1 X12.4 Y11 E26.94269
G1 X12.36 Y11.656 E26.97548
G1 X12.241 Y12.302 E27.00825
G1 X12.044 Y12.929 E27.04104
G1 X11.772 Y13.527 E27.07381
G1 X11.43 Y14.088 E27.10659
G1 X11.022 Y14.603 E27.13937
G1 X10.555 Y15.065 E27.17214
G1 X10.035 Y15.466 E27.2049
G1 X9.471 Y15.802 E27.23766
G1 X8.869 Y16.066 E27.27045
G1 X8.24 Y16.256 E27.30323
G1 X7.593 Y16.367 E27.33598
G1 X7 Y16.4 E27.36561
G1 X-7 Y16.4 E28.06408
G1 X-7.656 Y16.36 E28.09687
G1 X-8.302 Y16.241 E28.12964
G1 X-8.929 Y16.044 E28.16243
G1 X-9.527 Y15.772 E28.1952
G1 X-10.088 Y15.43 E28.22798
G1 X-10.603 Y15.022 E28.26076
G1 X-11.065 Y14.555 E28.29353
G1 X-11.466 Y14.035 E28.32629
G1 X-11.802 Y13.471 E28.35905
G1 X-12.066 Y12.869 E28.39184
G1 X-12.256 Y12.24 E28.42462
G1 X-12.367 Y11.593 E28.45737
G1 X-12.4 Y11 E28.48701
G1 X-12.433 Y10.315 E28.52122
G1 X-12.569 Y9.875 E28.5442
G1 X-12.835 Y9.481 E28.56791
G1 X-13.792 Y8.595 E28.63298
G1 X-14.345 Y8 E28.6735
G1 X-14.734 Y7.512 E28.70464
G1 X-15.188 Y6.845 E28.74489
G1 X-15.502 Y6.301 E28.77623
G1 X-15.846 Y5.589 E28.81568
G1 X-16.083 Y4.99 E28.84782
G1 X-16.329 Y4.193 E28.88943
G1 X-16.468 Y3.578 E28.92089
G1 X-16.585 Y2.802 E28.96004
G1 X-16.634 Y2.165 E28.99191
G1 X-16.646 Y1.533 E29.02345
G0 F3600 X-16.246 Y1.549
G1 F1800 X-16.169 Y-.359 E29.11872
G1 X-15.916 Y-2.447 E29.22365
G1 X-15.49 Y-4.531 E29.32977
G1 X-14.908 Y-6.55 E29.4346
G1 X-14.158 Y-8.528 E29.54014
G1 X-13.258 Y-10.429 E29.64507
G1 X-12.2 Y-12.268 E29.75092
G1 X-11.118 Y-13.838 E29.84605
G1 X-10.727 Y-14.335 E29.8776
G1 X-10.276 Y-14.778 E29.90914
G1 X-9.773 Y-15.161 E29.94068
G1 X-9.226 Y-15.478 E29.97222
G1 X-8.643 Y-15.723 E30.00377
G1 X-8.034 Y-15.892 E30.0353
G1 X-7.292 Y-16 E30.07271
G1 X7.001 Y-16 E30.78579
G1 X7.632 Y-15.96 E30.81734
G1 X8.253 Y-15.841 E30.84888
G1 X8.853 Y-15.644 E30.88039
G1 X9.425 Y-15.373 E30.91197
G1 X9.957 Y-15.033 E30.94346
G1 X10.442 Y-14.627 E30.97502
G1 X10.952 Y-14.078 E31.0124
G1 X12.2 Y-12.267 E31.12213
G1 X13.26 Y-10.425 E31.22816
G1 X14.16 Y-8.523 E31.33314
G1 X14.904 Y-6.563 E31.43773
G1 X15.492 Y-4.523 E31.54365
G1 X15.916 Y-2.455 E31.64897
G1 X16.169 Y-.36 E31.75425
G1 X16.246 Y1.559 E31.85006
G1 X16.235 Y2.142 E31.87916
G1 X16.186 Y2.781 E31.91113
G1 X16.071 Y3.533 E31.94908
G1 X15.929 Y4.143 E31.98033
G1 X15.712 Y4.839 E32.0167
G1 X15.48 Y5.429 E32.04833
G1 X15.159 Y6.095 E32.08522
G1 X14.849 Y6.633 E32.11619
G1 X14.433 Y7.246 E32.15315
G1 X14.036 Y7.746 E32.18501
G1 X13.517 Y8.306 E32.2231
G1 X12.542 Y9.209 E32.2894
G1 X12.36 Y9.437 E32.30395
G1 X12.102 Y9.969 E32.33345
