;FLAVOR:Marlin
;TIME:8916
;Filament used: 6.8765m
;Layer height: 0.15
;MINX:-32.8
;MINY:-60.3
;MINZ:0.3
;MAXX:32.8
;MAXY:60.3
;MAXZ:39
;Generated with Cura_SteamEngine main
M140 S60
M105
M190 S60
M104 S200
M105
M109 S200
M82 ;absolute extrusion mode
G21 ;metric values
G90 ;absolute positioning
M82 ;set extruder to absolute mode
M107 ;start with the fan off
G28 ;Home all axes (max endstops)
G1 Z15.0 F9000 ;move the platform down 15mm
G92 E0 ;zero the extruded length
G1 F200 E3 ;extrude 3mm of feed stock
G92 E0 ;zero the extruded length again
G1 F9000
;Put printing message on LCD screen
M117 Printing...
G92 E0
G92 E0
G1 F1500 E-6.5
;LAYER_COUNT:259
;LAYER:0
M107
G0 F3600 X32.8 Y52.5 Z0.3
G0 X31.403 Y56.954
;TYPE:SKIRT
G1 F1500 E0
G1 F1800 X30.92 Y57.578 E0.03937
G1 X30.377 Y58.151 E0.07875
G1 X29.778 Y58.666 E0.11816
G1 X29.13 Y59.117 E0.15755
G1 X28.439 Y59.501 E0.19699
G1 X27.714 Y59.813 E0.23637
G1 X26.961 Y60.05 E0.27575
G1 X26.187 Y60.209 E0.31517
G1 X25.305 Y60.3 E0.35941
G1 X-25 Y60.3 E2.86914
G1 X-25.789 Y60.26 E2.90855
G1 X-26.569 Y60.141 E2.94792
G1 X-27.334 Y59.943 E2.98734
G1 X-28.074 Y59.669 E3.02671
G1 X-28.783 Y59.321 E3.06611
G1 X-29.454 Y58.903 E3.10555
G1 X-30.078 Y58.42 E3.14492
G1 X-30.651 Y57.877 E3.1843
G1 X-31.166 Y57.278 E3.22371
G1 X-31.617 Y56.63 E3.2631
G1 X-32.001 Y55.939 E3.30254
G1 X-32.313 Y55.214 E3.34192
G1 X-32.55 Y54.461 E3.3813
G1 X-32.709 Y53.687 E3.42073
G1 X-32.8 Y52.805 E3.46496
G1 X-32.8 Y-52.5 E8.71865
G1 X-32.76 Y-53.289 E8.75806
G1 X-32.641 Y-54.069 E8.79743
G1 X-32.443 Y-54.834 E8.83685
G1 X-32.169 Y-55.574 E8.87622
G1 X-31.821 Y-56.283 E8.91562
G1 X-31.403 Y-56.954 E8.95506
G1 X-30.92 Y-57.578 E8.99443
G1 X-30.377 Y-58.151 E9.03382
G1 X-29.778 Y-58.666 E9.07323
G1 X-29.13 Y-59.117 E9.11262
G1 X-28.439 Y-59.501 E9.15206
G1 X-27.714 Y-59.813 E9.19143
G1 X-26.961 Y-60.05 E9.23082
G1 X-26.187 Y-60.209 E9.27024
G1 X-25.305 Y-60.3 E9.31447
G1 X25 Y-60.3 E11.8242
G1 X25.789 Y-60.26 E11.86362
G1 X26.569 Y-60.141 E11.90298
G1 X27.334 Y-59.943 E11.9424
G1 X28.074 Y-59.669 E11.98177
G1 X28.783 Y-59.321 E12.02118
G1 X29.454 Y-58.903 E12.06062
G1 X30.078 Y-58.42 E12.09998
G1 X30.651 Y-57.877 E12.13937
G1 X31.166 Y-57.278 E12.17878
G1 X31.617 Y-56.63 E12.21817
G1 X32.001 Y-55.939 E12.25761
G1 X32.313 Y-55.214 E12.29698
G1 X32.55 Y-54.461 E12.33637
G1 X32.709 Y-53.687 E12.37579
G1 X32.8 Y-52.805 E12.42003
G1 X32.8 Y52.5 E17.67371
G1 X32.76 Y53.289 E17.71313
G1 X32.641 Y54.069 E17.75249
G1 X32.443 Y54.834 E17.79192
G1 X32.169 Y55.574 E17.83128
G1 X31.821 Y56.283 E17.87069
G1 X31.403 Y56.954 E17.91013
G1 F1500 E11.41013
G0 F3600 X26.957 Y58.383
G1 F1500 E17.91013
G1 F1800 X26.277 Y58.567 E17.94527
G1 X25.581 Y58.673 E17.9804
G1 X25 Y58.7 E18.00942
G1 X-25 Y58.7 E20.50393
G1 X-25.703 Y58.66 E20.53906
G1 X-26.397 Y58.541 E20.57418
G1 X-27.072 Y58.343 E20.60928
G1 X-27.721 Y58.071 E20.64439
G1 X-28.335 Y57.726 E20.67952
G1 X-28.906 Y57.315 E20.71462
G1 X-29.427 Y56.841 E20.74976
G1 X-29.891 Y56.311 E20.78491
G1 X-30.291 Y55.732 E20.82002
G1 X-30.623 Y55.111 E20.85515
G1 X-30.883 Y54.457 E20.89026
G1 X-31.067 Y53.777 E20.92541
G1 X-31.173 Y53.081 E20.96053
G1 X-31.2 Y52.5 E20.98955
G1 X-31.2 Y-52.5 E26.22802
G1 X-31.16 Y-53.203 E26.26315
G1 X-31.041 Y-53.897 E26.29828
G1 X-30.843 Y-54.572 E26.33337
G1 X-30.571 Y-55.221 E26.36848
G1 X-30.226 Y-55.835 E26.40362
G1 X-29.815 Y-56.406 E26.43872
G1 X-29.341 Y-56.927 E26.47386
G1 X-28.811 Y-57.391 E26.509
G1 X-28.232 Y-57.791 E26.54411
G1 X-27.611 Y-58.123 E26.57924
G1 X-26.957 Y-58.383 E26.61435
G1 X-26.277 Y-58.567 E26.6495
G1 X-25.581 Y-58.673 E26.68462
G1 X-25 Y-58.7 E26.71364
G1 X25 Y-58.7 E29.20815
G1 X25.703 Y-58.66 E29.24328
G1 X26.397 Y-58.541 E29.27841
G1 X27.072 Y-58.343 E29.3135
G1 X27.721 Y-58.071 E29.34861
G1 X28.335 Y-57.726 E29.38375
G1 X28.906 Y-57.315 E29.41885
G1 X29.427 Y-56.841 E29.45399
G1 X29.891 Y-56.311 E29.48913
G1 X30.291 Y-55.732 E29.52424
G1 X30.623 Y-55.111 E29.55937
G1 X30.883 Y-54.457 E29.59448
G1 X31.067 Y-53.777 E29.62963
G1 X31.173 Y-53.081 E29.66475
G1 X31.2 Y-52.5 E29.69377
G1 X31.2 Y52.5 E34.93224
G1 X31.16 Y53.203 E34.96737
G1 X31.041 Y53.897 E35.0025
G1 X30.843 Y54.572 E35.03759
G1 X30.571 Y55.221 E35.0727
G1 X30.226 Y55.835 E35.10784
G1 X29.815 Y56.406 E35.14294
G1 X29.341 Y56.927 E35.17808
G1 X28.811 Y57.391 E35.21322
G1 X28.232 Y57.791 E35.24833
G1 X27.611 Y58.123 E35.28346
G1 X26.957 Y58.383 E35.31858
G0 F3600 X25 Y58.3
G1 F1800 X-25 Y58.3 E37.81309
G1 X-25.68 Y58.26 E37.84707
G1 X-26.35 Y58.141 E37.88102
G1 X-27.002 Y57.944 E37.915
G1 X-27.626 Y57.672 E37.94896
G1 X-28.214 Y57.328 E37.98295
G1 X-28.758 Y56.918 E38.01693
G1 X-29.249 Y56.447 E38.05088
G1 X-29.683 Y55.922 E38.08486
G1 X-30.052 Y55.35 E38.11882
G1 X-30.351 Y54.738 E38.1528
G1 X-30.576 Y54.096 E38.18674
G1 X-30.725 Y53.431 E38.22074
G1 X-30.8 Y52.5 E38.26734
G1 X-30.8 Y-52.5 E43.50581
G1 X-30.76 Y-53.18 E43.5398
G1 X-30.641 Y-53.85 E43.57374
G1 X-30.444 Y-54.502 E43.60773
G1 X-30.172 Y-55.126 E43.64169
G1 X-29.828 Y-55.714 E43.67567
G1 X-29.418 Y-56.258 E43.70966
G1 X-28.947 Y-56.749 E43.7436
G1 X-28.422 Y-57.183 E43.77759
G1 X-27.85 Y-57.552 E43.81155
G1 X-27.238 Y-57.851 E43.84553
G1 X-26.596 Y-58.076 E43.87947
G1 X-25.931 Y-58.225 E43.91347
G1 X-25 Y-58.3 E43.96007
G1 X25 Y-58.3 E46.45458
G1 X25.68 Y-58.26 E46.48856
G1 X26.35 Y-58.141 E46.52251
G1 X27.002 Y-57.944 E46.55649
G1 X27.626 Y-57.672 E46.59045
G1 X28.214 Y-57.328 E46.62444
G1 X28.758 Y-56.918 E46.65842
G1 X29.249 Y-56.447 E46.69237
G1 X29.683 Y-55.922 E46.72635
G1 X30.052 Y-55.35 E46.76031
G1 X30.351 Y-54.738 E46.79429
G1 X30.576 Y-54.096 E46.82823
G1 X30.725 Y-53.431 E46.86223
G1 X30.8 Y-52.5 E46.90883
G1 X30.8 Y52.5 E52.1473
G1 X30.76 Y53.18 E52.18129
G1 X30.641 Y53.85 E52.21523
G1 X30.444 Y54.502 E52.24922
G1 X30.172 Y55.126 E52.28318
G1 X29.828 Y55.714 E52.31716
G1 X29.418 Y56.258 E52.35115
G1 X28.947 Y56.749 E52.38509
G1 X28.422 Y57.183 E52.41908
G1 X27.85 Y57.552 E52.45304
G1 X27.238 Y57.851 E52.48702
G1 X26.596 Y58.076 E52.52096
G1 X25.931 Y58.225 E52.55496
G1 X25 Y58.3 E52.60156
G0 F3600 X25 Y57.9
G1 F1800 X-25 Y57.9 E55.09607
G1 X-25.656 Y57.86 E55.12885
G1 X-26.302 Y57.741 E55.16163
G1 X-26.929 Y57.544 E55.19441
G1 X-27.527 Y57.272 E55.22719
G1 X-28.088 Y56.93 E55.25997
G1 X-28.603 Y56.522 E55.29275
G1 X-29.065 Y56.055 E55.32552
G1 X-29.466 Y55.535 E55.35828
G1 X-29.802 Y54.971 E55.39104
G1 X-30.066 Y54.369 E55.42383
G1 X-30.256 Y53.74 E55.45661
G1 X-30.367 Y53.093 E55.48936
G1 X-30.4 Y52.5 E55.51899
G1 X-30.4 Y-52.5 E60.75746
G1 X-30.36 Y-53.156 E60.79025
G1 X-30.241 Y-53.802 E60.82302
G1 X-30.044 Y-54.429 E60.85581
G1 X-29.772 Y-55.027 E60.88859
G1 X-29.43 Y-55.588 E60.92137
G1 X-29.022 Y-56.103 E60.95415
G1 X-28.555 Y-56.565 E60.98692
G1 X-28.035 Y-56.966 E61.01968
G1 X-27.471 Y-57.302 E61.05243
G1 X-26.869 Y-57.566 E61.08523
G1 X-26.24 Y-57.756 E61.11801
G1 X-25.593 Y-57.867 E61.15076
G1 X-25 Y-57.9 E61.18039
G1 X25 Y-57.9 E63.6749
G1 X25.656 Y-57.86 E63.70769
G1 X26.302 Y-57.741 E63.74046
G1 X26.929 Y-57.544 E63.77325
G1 X27.527 Y-57.272 E63.80603
G1 X28.088 Y-56.93 E63.83881
G1 X28.603 Y-56.522 E63.87159
G1 X29.065 Y-56.055 E63.90436
G1 X29.466 Y-55.535 E63.93712
G1 X29.802 Y-54.971 E63.96987
G1 X30.066 Y-54.369 E64.00267
G1 X30.256 Y-53.74 E64.03545
G1 X30.367 Y-53.093 E64.0682
G1 X30.4 Y-52.5 E64.09783
G1 X30.4 Y52.5 E69.3363
G1 X30.36 Y53.156 E69.36909
G1 X30.241 Y53.802 E69.40186
G1 X30.044 Y54.429 E69.43465
G1 X29.772 Y55.027 E69.46743
G1 X29.43 Y55.588 E69.50021
G1 X29.022 Y56.103 E69.53298
G1 X28.555 Y56.565 E69.56576
G1 X28.035 Y56.966 E69.59852
G1 X27.471 Y57.302 E69.63127
G1 X26.869 Y57.566 E69.66407
G1 X26.24 Y57.756 E69.69685
G1 X25.593 Y57.867 E69.7296
G1 X25 Y57.9 E69.75923
G0 F3600 X25 Y57.5
G1 F1800 X-25 Y57.5 E72.25374
G1 X-25.631 Y57.46 E72.28528
G1 X-26.252 Y57.341 E72.31683
G1 X-26.852 Y57.144 E72.34834
G1 X-27.424 Y56.873 E72.37991
G1 X-27.956 Y56.533 E72.41141
G1 X-28.441 Y56.127 E72.44297
G1 X-28.871 Y55.664 E72.47449
G1 X-29.24 Y55.15 E72.50606
G1 X-29.54 Y54.594 E72.53758
G1 X-29.768 Y54.005 E72.56909
G1 X-29.92 Y53.391 E72.60065
G1 X-30 Y52.5 E72.64528
G1 X-30 Y-52.5 E77.88375
G1 X-29.96 Y-53.131 E77.91529
G1 X-29.841 Y-53.752 E77.94684
G1 X-29.644 Y-54.352 E77.97834
G1 X-29.373 Y-54.924 E78.00992
G1 X-29.033 Y-55.456 E78.04142
G1 X-28.627 Y-55.941 E78.07298
G1 X-28.164 Y-56.371 E78.1045
G1 X-27.65 Y-56.74 E78.13607
G1 X-27.094 Y-57.04 E78.16759
G1 X-26.505 Y-57.268 E78.1991
G1 X-25.891 Y-57.42 E78.23066
G1 X-25 Y-57.5 E78.27529
G1 X25 Y-57.5 E80.7698
G1 X25.631 Y-57.46 E80.80134
G1 X26.252 Y-57.341 E80.83289
G1 X26.852 Y-57.144 E80.86439
G1 X27.424 Y-56.873 E80.89597
G1 X27.956 Y-56.533 E80.92747
G1 X28.441 Y-56.127 E80.95903
G1 X28.871 Y-55.664 E80.99055
G1 X29.24 Y-55.15 E81.02212
G1 X29.54 Y-54.594 E81.05364
G1 X29.768 Y-54.005 E81.08515
G1 X29.92 Y-53.391 E81.1167
G1 X30 Y-52.5 E81.16134
G1 X30 Y52.5 E86.39981
G1 X29.96 Y53.131 E86.43135
G1 X29.841 Y53.752 E86.4629
G1 X29.644 Y54.352 E86.4944
G1 X29.373 Y54.924 E86.52598
G1 X29.033 Y55.456 E86.55748
G1 X28.627 Y55.941 E86.58903
G1 X28.164 Y56.371 E86.62056
G1 X27.65 Y56.74 E86.65213
G1 X27.094 Y57.04 E86.68365
G1 X26.505 Y57.268 E86.71516
G1 X25.891 Y57.42 E86.74671
G1 X25 Y57.5 E86.79134
G0 F3600 X25 Y57.1
G1 F1800 X-25 Y57.1 E89.28585
G1 X-25.605 Y57.06 E89.3161
G1 X-26.199 Y56.941 E89.34633
G1 X-26.773 Y56.745 E89.37659
G1 X-27.316 Y56.474 E89.40686
G1 X-27.819 Y56.135 E89.43713
G1 X-28.272 Y55.733 E89.46734
G1 X-28.669 Y55.275 E89.49758
G1 X-29.002 Y54.768 E89.52784
G1 X-29.266 Y54.222 E89.5581
G1 X-29.455 Y53.646 E89.58835
G1 X-29.567 Y53.05 E89.6186
G1 X-29.6 Y52.5 E89.64609
G1 X-29.6 Y-52.5 E94.88456
G1 X-29.56 Y-53.105 E94.91481
G1 X-29.441 Y-53.699 E94.94503
G1 X-29.245 Y-54.273 E94.97529
G1 X-28.974 Y-54.816 E95.00557
G1 X-28.635 Y-55.319 E95.03583
G1 X-28.233 Y-55.772 E95.06605
G1 X-27.775 Y-56.169 E95.09629
G1 X-27.268 Y-56.502 E95.12655
G1 X-26.722 Y-56.766 E95.15681
G1 X-26.146 Y-56.955 E95.18705
G1 X-25.55 Y-57.067 E95.21731
G1 X-25 Y-57.1 E95.2448
G1 X25 Y-57.1 E97.73931
G1 X25.605 Y-57.06 E97.76956
G1 X26.199 Y-56.941 E97.79978
G1 X26.773 Y-56.745 E97.83004
G1 X27.316 Y-56.474 E97.86032
G1 X27.819 Y-56.135 E97.89058
G1 X28.272 Y-55.733 E97.92079
G1 X28.669 Y-55.275 E97.95103
G1 X29.002 Y-54.768 E97.9813
G1 X29.266 Y-54.222 E98.01155
G1 X29.455 Y-53.646 E98.0418
G1 X29.567 Y-53.05 E98.07205
G1 X29.6 Y-52.5 E98.09954
G1 X29.6 Y52.5 E103.33801
G1 X29.56 Y53.105 E103.36826
G1 X29.441 Y53.699 E103.39849
G1 X29.245 Y54.273 E103.42875
G1 X28.974 Y54.816 E103.45902
G1 X28.635 Y55.319 E103.48929
G1 X28.233 Y55.772 E103.5195
G1 X27.775 Y56.169 E103.54974
G1 X27.268 Y56.502 E103.58
G1 X26.722 Y56.766 E103.61026
G1 X26.146 Y56.955 E103.6405
G1 X25.55 Y57.067 E103.67076
G1 X25 Y57.1 E103.69825
G0 F3600 X25 Y56.7
G1 F1800 X-25 Y56.7 E106.19276
G1 X-25.578 Y56.66 E106.22166
G1 X-26.145 Y56.541 E106.25057
G1 X-26.69 Y56.345 E106.27946
G1 X-27.203 Y56.076 E106.30836
G1 X-27.674 Y55.739 E106.33726
G1 X-28.094 Y55.34 E106.36616
G1 X-28.456 Y54.887 E106.39509
G1 X-28.751 Y54.389 E106.42396
G1 X-28.976 Y53.855 E106.45287
G1 X-29.124 Y53.295 E106.48177
G1 X-29.2 Y52.5 E106.52162
G1 X-29.2 Y-52.5 E111.76009
G1 X-29.16 Y-53.078 E111.78899
G1 X-29.041 Y-53.645 E111.8179
G1 X-28.845 Y-54.19 E111.84679
G1 X-28.576 Y-54.703 E111.87569
G1 X-28.239 Y-55.174 E111.90458
G1 X-27.84 Y-55.594 E111.93349
G1 X-27.387 Y-55.956 E111.96242
G1 X-26.889 Y-56.251 E111.99129
G1 X-26.355 Y-56.476 E112.0202
G1 X-25.795 Y-56.624 E112.0491
G1 X-25 Y-56.7 E112.08894
G1 X25 Y-56.7 E114.58345
G1 X25.578 Y-56.66 E114.61236
G1 X26.145 Y-56.541 E114.64126
G1 X26.69 Y-56.345 E114.67016
G1 X27.203 Y-56.076 E114.69906
G1 X27.674 Y-55.739 E114.72795
G1 X28.094 Y-55.34 E114.75685
G1 X28.456 Y-54.887 E114.78578
G1 X28.751 Y-54.389 E114.81466
G1 X28.976 Y-53.855 E114.84357
G1 X29.124 Y-53.295 E114.87247
G1 X29.2 Y-52.5 E114.91231
G1 X29.2 Y52.5 E120.15078
G1 X29.16 Y53.078 E120.17969
G1 X29.041 Y53.645 E120.20859
G1 X28.845 Y54.19 E120.23749
G1 X28.576 Y54.703 E120.26639
G1 X28.239 Y55.174 E120.29528
G1 X27.84 Y55.594 E120.32418
G1 X27.387 Y55.956 E120.35311
G1 X26.889 Y56.251 E120.38199
G1 X26.355 Y56.476 E120.4109
G1 X25.795 Y56.624 E120.4398
G1 X25 Y56.7 E120.47964
G0 F3600 X25 Y56.3
G1 F1800 X-25 Y56.3 E122.97415
G1 X-25.55 Y56.26 E123.00166
G1 X-26.088 Y56.141 E123.02915
G1 X-26.603 Y55.945 E123.05664
G1 X-27.084 Y55.677 E123.08411
G1 X-27.522 Y55.343 E123.11159
G1 X-27.906 Y54.948 E123.13908
G1 X-28.23 Y54.502 E123.16658
G1 X-28.485 Y54.014 E123.19405
G1 X-28.668 Y53.494 E123.22155
G1 X-28.773 Y52.953 E123.24905
G1 X-28.8 Y52.5 E123.27169
G1 X-28.8 Y-52.5 E128.51016
G1 X-28.76 Y-53.05 E128.53767
G1 X-28.641 Y-53.588 E128.56516
G1 X-28.445 Y-54.103 E128.59265
G1 X-28.177 Y-54.584 E128.62012
G1 X-27.843 Y-55.022 E128.6476
G1 X-27.448 Y-55.406 E128.67509
G1 X-27.002 Y-55.73 E128.70259
G1 X-26.514 Y-55.985 E128.73006
G1 X-25.994 Y-56.168 E128.75756
G1 X-25.453 Y-56.273 E128.78506
G1 X-25 Y-56.3 E128.8077
G1 X25 Y-56.3 E131.30221
G1 X25.55 Y-56.26 E131.32972
G1 X26.088 Y-56.141 E131.35721
G1 X26.603 Y-55.945 E131.3847
G1 X27.084 Y-55.677 E131.41217
G1 X27.522 Y-55.343 E131.43965
G1 X27.906 Y-54.948 E131.46714
G1 X28.23 Y-54.502 E131.49464
G1 X28.485 Y-54.014 E131.52211
G1 X28.668 Y-53.494 E131.54961
G1 X28.773 Y-52.953 E131.57711
G1 X28.8 Y-52.5 E131.59975
G1 X28.8 Y52.5 E136.83822
G1 X28.76 Y53.05 E136.86573
G1 X28.641 Y53.588 E136.89322
G1 X28.445 Y54.103 E136.92071
G1 X28.177 Y54.584 E136.94818
G1 X27.843 Y55.022 E136.97566
G1 X27.448 Y55.406 E137.00315
G1 X27.002 Y55.73 E137.03065
G1 X26.514 Y55.985 E137.05812
G1 X25.994 Y56.168 E137.08562
G1 X25.453 Y56.273 E137.11311
G1 X25 Y56.3 E137.13576
G0 F3600 X25 Y55.9
G1 F1800 X-25 Y55.9 E139.63027
G1 X-25.52 Y55.86 E139.65628
G1 X-26.027 Y55.741 E139.68227
G1 X-26.51 Y55.546 E139.70825
G1 X-26.958 Y55.28 E139.73425
G1 X-27.36 Y54.948 E139.76026
G1 X-27.706 Y54.558 E139.78627
G1 X-27.989 Y54.12 E139.81229
G1 X-28.202 Y53.645 E139.83826
G1 X-28.339 Y53.142 E139.86427
G1 X-28.4 Y52.5 E139.89644
G1 X-28.4 Y-52.5 E145.13491
G1 X-28.36 Y-53.02 E145.16093
G1 X-28.241 Y-53.527 E145.18691
G1 X-28.046 Y-54.01 E145.2129
G1 X-27.78 Y-54.458 E145.23889
G1 X-27.448 Y-54.86 E145.2649
G1 X-27.058 Y-55.206 E145.29091
G1 X-26.62 Y-55.489 E145.31693
G1 X-26.145 Y-55.702 E145.3429
G1 X-25.642 Y-55.839 E145.36891
G1 X-25 Y-55.9 E145.40108
G1 X25 Y-55.9 E147.89559
G1 X25.52 Y-55.86 E147.92161
G1 X26.027 Y-55.741 E147.9476
G1 X26.51 Y-55.546 E147.97358
G1 X26.958 Y-55.28 E147.99958
G1 X27.36 Y-54.948 E148.02559
G1 X27.706 Y-54.558 E148.0516
G1 X27.989 Y-54.12 E148.07762
G1 X28.202 Y-53.645 E148.10359
G1 X28.339 Y-53.142 E148.1296
G1 X28.4 Y-52.5 E148.16177
G1 X28.4 Y52.5 E153.40024
G1 X28.36 Y53.02 E153.42626
G1 X28.241 Y53.527 E153.45224
G1 X28.046 Y54.01 E153.47823
G1 X27.78 Y54.458 E153.50422
G1 X27.448 Y54.86 E153.53023
G1 X27.058 Y55.206 E153.55624
G1 X26.62 Y55.489 E153.58226
G1 X26.145 Y55.702 E153.60823
G1 X25.642 Y55.839 E153.63424
G1 X25 Y55.9 E153.66641
G0 F3600 X25.221 Y55.5
G1 F1800 X-25 Y55.5 E156.17195
G1 X-25.488 Y55.46 E156.19638
G1 X-25.963 Y55.341 E156.22081
G1 X-26.412 Y55.147 E156.24521
G1 X-26.824 Y54.882 E156.26965
G1 X-27.187 Y54.554 E156.29406
G1 X-27.492 Y54.171 E156.31849
G1 X-27.73 Y53.743 E156.34292
G1 X-27.896 Y53.283 E156.36732
G1 X-28 Y52.721 E156.39583
G1 X-28 Y-52.5 E161.64533
G1 X-27.96 Y-52.988 E161.66975
G1 X-27.841 Y-53.463 E161.69419
G1 X-27.647 Y-53.912 E161.71859
G1 X-27.382 Y-54.324 E161.74303
G1 X-27.054 Y-54.687 E161.76744
G1 X-26.671 Y-54.992 E161.79186
G1 X-26.243 Y-55.23 E161.81629
G1 X-25.783 Y-55.396 E161.84069
G1 X-25.221 Y-55.5 E161.86921
G1 X25 Y-55.5 E164.37474
G1 X25.488 Y-55.46 E164.39917
G1 X25.963 Y-55.341 E164.4236
G1 X26.412 Y-55.147 E164.448
G1 X26.824 Y-54.882 E164.47244
G1 X27.187 Y-54.554 E164.49685
G1 X27.492 Y-54.171 E164.52128
G1 X27.73 Y-53.743 E164.54571
G1 X27.896 Y-53.283 E164.57011
G1 X28 Y-52.721 E164.59862
G1 X28 Y52.5 E169.84812
G1 X27.96 Y52.988 E169.87255
G1 X27.841 Y53.463 E169.89698
