;FLAVOR:Marlin
;TIME:5535
;Filament used: 4.74793m
;Layer height: 0.15
;MINX:-43.5
;MINY:-46.143
;MINZ:0.3
;MAXX:38.783
;MAXY:42.371
;MAXZ:11.85
;Generated with Cura_SteamEngine main
M140 S60
M105
M190 S60
M104 S200
M105
M109 S200
M82 ;absolute extrusion mode
G21 ;metric values
G90 ;absolute positioning
M82 ;set extruder to absolute mode
M107 ;start with the fan off
G28 ;Home all axes (max endstops)
G1 Z15.0 F9000 ;move the platform down 15mm
G92 E0 ;zero the extruded length
G1 F200 E3 ;extrude 3mm of feed stock
G92 E0 ;zero the extruded length again
G1 F9000
;Put printing message on LCD screen
M117 Printing...
G92 E0
G92 E0
G1 F1500 E-6.5
;LAYER_COUNT:78
;LAYER:0
M107
G0 F3600 X-2.899 Y-25.843 Z0.3
G0 X-4.105 Y-32.692
;TYPE:SKIRT
G1 F1500 E0
G1 F1800 X-3.801 Y-31.84 E0.04513
G1 X-3.268 Y-29.619 E0.15908
G1 X-3.102 Y-28.73 E0.2042
G1 X-2.923 Y-26.456 E0.318
G1 X-2.899 Y-25.843 E0.34861
G1 X-2.899 Y34.491 E3.35869
G1 X-2.939 Y35.28 E3.3981
G1 X-3.058 Y36.06 E3.43746
G1 X-3.256 Y36.825 E3.47689
G1 X-3.53 Y37.565 E3.51626
G1 X-3.878 Y38.274 E3.55566
G1 X-4.296 Y38.945 E3.5951
G1 X-4.779 Y39.569 E3.63447
G1 X-5.322 Y40.142 E3.67385
G1 X-5.921 Y40.657 E3.71326
G1 X-6.569 Y41.108 E3.75265
G1 X-7.26 Y41.492 E3.79209
G1 X-7.985 Y41.804 E3.83147
G1 X-8.738 Y42.041 E3.87085
G1 X-9.512 Y42.2 E3.91027
G1 X-10.334 Y42.282 E3.95149
G1 X-11.486 Y42.336 E4.00902
G1 X-12.275 Y42.333 E4.04839
G1 X-13.061 Y42.251 E4.08781
G1 X-13.834 Y42.089 E4.12722
G1 X-14.209 Y41.97 E4.14684
G1 X-14.385 Y42.032 E4.15615
G1 X-15.152 Y42.218 E4.19553
G1 X-15.935 Y42.325 E4.23496
G1 X-16.606 Y42.354 E4.26846
G1 X-26.225 Y42.351 E4.74836
G1 X-26.973 Y42.344 E4.78568
G1 X-28.882 Y42.355 E4.88092
G1 X-29.671 Y42.319 E4.92032
G1 X-30.452 Y42.204 E4.95971
G1 X-31.199 Y42.016 E4.99814
G1 X-32.069 Y42.229 E5.04282
G1 X-32.851 Y42.337 E5.08221
G1 X-34.02 Y42.352 E5.14054
G1 X-34.993 Y42.291 E5.18917
G1 X-35.7 Y42.291 E5.22445
G1 X-36.489 Y42.251 E5.26386
G1 X-37.269 Y42.132 E5.30322
G1 X-38.034 Y41.934 E5.34265
G1 X-38.774 Y41.66 E5.38202
G1 X-39.483 Y41.312 E5.42142
G1 X-40.154 Y40.894 E5.46086
G1 X-40.778 Y40.411 E5.50023
G1 X-41.351 Y39.868 E5.53961
G1 X-41.866 Y39.269 E5.57902
G1 X-42.317 Y38.621 E5.61841
G1 X-42.701 Y37.93 E5.65785
G1 X-43.013 Y37.205 E5.69723
G1 X-43.25 Y36.452 E5.73661
G1 X-43.409 Y35.678 E5.77603
G1 X-43.5 Y34.796 E5.82027
G1 X-43.5 Y-25.841 E8.84546
G1 X-43.476 Y-26.453 E8.87602
G1 X-43.322 Y-28.41 E8.97396
G1 X-43.205 Y-29.311 E9.01929
G1 X-42.674 Y-31.523 E9.13278
G1 X-42.419 Y-32.389 E9.17782
G1 X-41.544 Y-34.501 E9.29187
G1 X-41.152 Y-35.326 E9.33744
G1 X-39.963 Y-37.265 E9.45092
G1 X-39.453 Y-38.009 E9.49592
G1 X-37.971 Y-39.745 E9.60979
G1 X-37.351 Y-40.401 E9.65483
G1 X-35.614 Y-41.885 E9.76881
G1 X-34.892 Y-42.441 E9.81427
G1 X-32.948 Y-43.631 E9.92798
G1 X-32.156 Y-44.062 E9.97297
G1 X-30.047 Y-44.936 E10.08686
G1 X-29.197 Y-45.239 E10.13189
G1 X-26.978 Y-45.772 E10.24574
G1 X-26.094 Y-45.938 E10.29061
G1 X-23.811 Y-46.118 E10.40487
G1 X-22.907 Y-46.143 E10.44998
G1 X-20.631 Y-45.964 E10.56389
G1 X-19.733 Y-45.847 E10.60907
G1 X-17.515 Y-45.314 E10.72287
G1 X-16.654 Y-45.061 E10.76764
G1 X-14.542 Y-44.186 E10.8817
G1 X-13.728 Y-43.8 E10.92664
G1 X-11.781 Y-42.609 E11.04051
G1 X-11.035 Y-42.098 E11.08562
G1 X-9.295 Y-40.612 E11.19978
G1 X-8.639 Y-39.991 E11.24485
G1 X-7.155 Y-38.254 E11.35883
G1 X-6.607 Y-37.542 E11.40365
G1 X-5.413 Y-35.595 E11.5176
G1 X-4.98 Y-34.803 E11.56263
G1 X-4.105 Y-32.692 E11.67664
G1 F1500 E5.17664
G0 F3600 X-8.067 Y-37.474
G1 F1500 E11.67664
G1 F1800 X-7.46 Y-36.638 E11.72818
G1 X-6.436 Y-34.968 E11.82591
G1 X-5.965 Y-34.045 E11.87761
G1 X-5.214 Y-32.233 E11.97547
G1 X-4.893 Y-31.247 E12.0272
G1 X-4.435 Y-29.339 E12.1251
G1 X-4.273 Y-28.316 E12.17677
G1 X-4.119 Y-26.361 E12.27461
G1 X-4.099 Y-25.843 E12.30047
G1 X-4.099 Y34.491 E15.31055
G1 X-4.139 Y35.216 E15.34677
G1 X-4.258 Y35.933 E15.38303
G1 X-4.456 Y36.632 E15.41928
G1 X-4.729 Y37.305 E15.45551
G1 X-5.074 Y37.944 E15.49174
G1 X-5.488 Y38.541 E15.52799
G1 X-5.964 Y39.089 E15.5642
G1 X-6.498 Y39.582 E15.60046
G1 X-7.083 Y40.012 E15.63668
G1 X-7.712 Y40.376 E15.67294
G1 X-8.377 Y40.669 E15.70919
G1 X-9.07 Y40.887 E15.74544
G1 X-9.782 Y41.027 E15.78164
G1 X-10.39 Y41.084 E15.8121
G1 X-11.542 Y41.138 E15.86964
G1 X-12.268 Y41.132 E15.90586
G1 X-12.99 Y41.046 E15.94214
G1 X-13.697 Y40.882 E15.97835
G1 X-14.217 Y40.698 E16.00587
G1 X-14.423 Y40.783 E16.01698
G1 X-15.121 Y40.985 E16.05324
G1 X-15.836 Y41.109 E16.08944
G1 X-16.606 Y41.154 E16.12792
G1 X-26.214 Y41.151 E16.60727
G1 X-26.968 Y41.144 E16.64488
G1 X-28.888 Y41.155 E16.74068
G1 X-29.614 Y41.119 E16.77694
G1 X-30.331 Y41.004 E16.81317
G1 X-31.031 Y40.81 E16.84941
G1 X-31.193 Y40.745 E16.85812
G1 X-31.982 Y40.982 E16.89922
G1 X-32.696 Y41.114 E16.93544
G1 X-33.421 Y41.166 E16.97171
G1 X-33.945 Y41.154 E16.99786
G1 X-34.95 Y41.091 E17.04809
G1 X-35.7 Y41.091 E17.08551
G1 X-36.425 Y41.051 E17.12174
G1 X-37.142 Y40.932 E17.158
G1 X-37.841 Y40.734 E17.19424
G1 X-38.514 Y40.461 E17.23048
G1 X-39.153 Y40.116 E17.26671
G1 X-39.75 Y39.702 E17.30295
G1 X-40.298 Y39.226 E17.33916
G1 X-40.791 Y38.692 E17.37542
G1 X-41.221 Y38.107 E17.41165
G1 X-41.585 Y37.478 E17.4479
G1 X-41.878 Y36.813 E17.48416
G1 X-42.096 Y36.12 E17.5204
G1 X-42.236 Y35.408 E17.5566
G1 X-42.3 Y34.491 E17.60246
G1 X-42.3 Y-25.841 E20.61244
G1 X-42.28 Y-26.359 E20.6383
G1 X-42.126 Y-28.316 E20.73624
G1 X-41.964 Y-29.338 E20.78786
G1 X-41.507 Y-31.243 E20.8856
G1 X-41.187 Y-32.229 E20.93732
G1 X-40.436 Y-34.042 E21.03522
G1 X-39.965 Y-34.965 E21.08692
G1 X-38.94 Y-36.637 E21.18476
G1 X-38.332 Y-37.474 E21.23638
G1 X-37.058 Y-38.966 E21.33426
G1 X-36.327 Y-39.697 E21.38583
G1 X-34.834 Y-40.973 E21.48382
G1 X-33.992 Y-41.585 E21.53575
G1 X-32.321 Y-42.608 E21.6335
G1 X-31.401 Y-43.077 E21.68501
G1 X-29.588 Y-43.828 E21.78292
G1 X-28.604 Y-44.147 E21.83453
G1 X-26.698 Y-44.605 E21.93232
G1 X-25.674 Y-44.768 E21.98405
G1 X-23.717 Y-44.922 E22.08199
G1 X-22.681 Y-44.922 E22.13368
G1 X-20.725 Y-44.768 E22.23156
G1 X-19.701 Y-44.605 E22.2833
G1 X-17.795 Y-44.147 E22.38109
G1 X-16.812 Y-43.828 E22.43265
G1 X-15.001 Y-43.078 E22.53045
G1 X-14.08 Y-42.609 E22.58201
G1 X-12.407 Y-41.585 E22.67987
G1 X-11.566 Y-40.974 E22.73173
G1 X-10.075 Y-39.7 E22.82957
G1 X-9.343 Y-38.968 E22.88122
G1 X-8.067 Y-37.474 E22.97924
G1 F1500 E16.47924
G0 F3600 X-13.034 Y-40.562
G1 F1500 E22.97924
G1 F1800 X-12.345 Y-40.061 E23.02174
G1 X-10.854 Y-38.787 E23.11959
G1 X-10.256 Y-38.189 E23.16178
G1 X-8.98 Y-36.695 E23.2598
G1 X-8.483 Y-36.011 E23.30198
G1 X-7.459 Y-34.341 E23.39971
G1 X-7.073 Y-33.586 E23.44202
G1 X-6.322 Y-31.774 E23.53988
G1 X-6.06 Y-30.966 E23.58225
G1 X-5.602 Y-29.058 E23.68015
G1 X-5.47 Y-28.222 E23.72237
G1 X-5.299 Y-26.051 E23.83102
G1 X-5.299 Y34.491 E26.85147
G1 X-5.339 Y35.147 E26.88426
G1 X-5.458 Y35.793 E26.91703
G1 X-5.655 Y36.42 E26.94982
G1 X-5.927 Y37.018 E26.9826
G1 X-6.269 Y37.579 E27.01538
G1 X-6.677 Y38.094 E27.04816
G1 X-7.144 Y38.556 E27.08093
G1 X-7.664 Y38.957 E27.11369
G1 X-8.228 Y39.293 E27.14644
G1 X-8.83 Y39.557 E27.17924
G1 X-9.459 Y39.747 E27.21202
G1 X-10.195 Y39.873 E27.24927
G1 X-11.598 Y39.939 E27.31935
G1 X-12.255 Y39.93 E27.35213
G1 X-12.906 Y39.841 E27.38491
G1 X-13.541 Y39.674 E27.41766
G1 X-14.237 Y39.396 E27.45506
G1 X-14.557 Y39.551 E27.4728
G1 X-15.179 Y39.763 E27.50558
G1 X-15.822 Y39.897 E27.53835
G1 X-16.606 Y39.954 E27.57757
G1 X-26.204 Y39.951 E28.05641
G1 X-26.965 Y39.944 E28.09438
G1 X-28.895 Y39.955 E28.19067
G1 X-29.551 Y39.919 E28.22345
G1 X-30.198 Y39.803 E28.25624
G1 X-30.825 Y39.61 E28.28897
G1 X-31.214 Y39.435 E28.31025
G1 X-31.376 Y39.518 E28.31933
G1 X-31.993 Y39.743 E28.3521
G1 X-32.633 Y39.892 E28.38488
G1 X-33.286 Y39.961 E28.41764
G1 X-33.87 Y39.956 E28.44678
G1 X-34.907 Y39.891 E28.49861
G1 X-35.7 Y39.891 E28.53818
G1 X-36.356 Y39.851 E28.57097
G1 X-37.002 Y39.732 E28.60374
G1 X-37.629 Y39.535 E28.63653
G1 X-38.227 Y39.263 E28.6693
G1 X-38.788 Y38.921 E28.70208
G1 X-39.303 Y38.513 E28.73486
G1 X-39.765 Y38.046 E28.76763
G1 X-40.166 Y37.526 E28.8004
G1 X-40.502 Y36.962 E28.83315
G1 X-40.766 Y36.36 E28.86594
G1 X-40.956 Y35.731 E28.89872
G1 X-41.067 Y35.084 E28.93147
G1 X-41.1 Y34.491 E28.96111
G1 X-41.1 Y-26.049 E31.98146
G1 X-40.929 Y-28.222 E32.09021
G1 X-40.797 Y-29.058 E32.13243
G1 X-40.34 Y-30.963 E32.23017
G1 X-40.078 Y-31.77 E32.2725
G1 X-39.327 Y-33.583 E32.3704
G1 X-38.942 Y-34.338 E32.41268
G1 X-37.917 Y-36.01 E32.51053
G1 X-37.42 Y-36.695 E32.55275
G1 X-36.146 Y-38.187 E32.65063
G1 X-35.547 Y-38.785 E32.69286
G1 X-34.054 Y-40.061 E32.79084
G1 X-33.366 Y-40.561 E32.83327
G1 X-31.695 Y-41.584 E32.93102
G1 X-30.942 Y-41.968 E32.97319
G1 X-29.129 Y-42.719 E33.07109
G1 X-28.324 Y-42.981 E33.11333
G1 X-26.418 Y-43.439 E33.21113
G1 X-25.58 Y-43.571 E33.25345
G1 X-23.623 Y-43.725 E33.35139
G1 X-22.775 Y-43.725 E33.3937
G1 X-20.819 Y-43.571 E33.49158
G1 X-19.981 Y-43.439 E33.53391
G1 X-18.075 Y-42.981 E33.6317
G1 X-17.271 Y-42.719 E33.67389
G1 X-15.46 Y-41.969 E33.77168
G1 X-14.707 Y-41.586 E33.81383
G1 X-13.034 Y-40.562 E33.91169
G1 F1500 E27.41169
G0 F3600 X-18.356 Y-41.814
G1 F1500 E33.91169
G1 F1800 X-17.73 Y-41.61 E33.94454
G1 X-15.919 Y-40.86 E34.04233
G1 X-15.333 Y-40.562 E34.07513
G1 X-13.66 Y-39.538 E34.17299
G1 X-13.125 Y-39.149 E34.20599
G1 X-11.634 Y-37.875 E34.30383
G1 X-11.168 Y-37.41 E34.33668
G1 X-9.892 Y-35.916 E34.4347
G1 X-9.506 Y-35.383 E34.46753
G1 X-8.482 Y-33.713 E34.56526
G1 X-8.182 Y-33.126 E34.59815
G1 X-7.431 Y-31.314 E34.69601
G1 X-7.227 Y-30.686 E34.72895
G1 X-6.769 Y-28.778 E34.82685
G1 X-6.666 Y-28.128 E34.85968
G1 X-6.499 Y-26.008 E34.96578
G1 X-6.499 Y34.491 E37.98408
G1 X-6.539 Y35.069 E38.01299
G1 X-6.658 Y35.636 E38.04189
G1 X-6.854 Y36.181 E38.07079
G1 X-7.123 Y36.694 E38.09969
G1 X-7.46 Y37.165 E38.12858
G1 X-7.859 Y37.585 E38.15748
G1 X-8.312 Y37.947 E38.18641
G1 X-8.81 Y38.242 E38.21529
G1 X-9.344 Y38.467 E38.2442
G1 X-9.904 Y38.615 E38.2731
G1 X-10.502 Y38.686 E38.30314
G1 X-11.654 Y38.74 E38.36068
G1 X-12.234 Y38.728 E38.38962
G1 X-12.805 Y38.635 E38.41848
G1 X-13.359 Y38.465 E38.44739
G1 X-13.884 Y38.22 E38.4763
G1 X-14.207 Y38.011 E38.49549
G1 X-14.795 Y38.344 E38.5292
G1 X-15.334 Y38.557 E38.55812
G1 X-15.897 Y38.694 E38.58703
G1 X-16.605 Y38.754 E38.62248
G1 X-26.193 Y38.751 E39.10082
G1 X-26.961 Y38.744 E39.13914
G1 X-28.902 Y38.755 E39.23598
G1 X-29.48 Y38.718 E39.26487
G1 X-30.047 Y38.602 E39.29375
G1 X-30.594 Y38.409 E39.32269
G1 X-31.239 Y38.075 E39.35892
G1 X-31.579 Y38.285 E39.37886
G1 X-32.109 Y38.519 E39.40777
G1 X-32.667 Y38.677 E39.4367
G1 X-33.24 Y38.757 E39.46556
G1 X-33.795 Y38.759 E39.49325
G1 X-34.879 Y38.691 E39.54744
G1 X-35.7 Y38.691 E39.5884
G1 X-36.278 Y38.651 E39.61731
G1 X-36.845 Y38.532 E39.64621
G1 X-37.39 Y38.336 E39.6751
G1 X-37.903 Y38.067 E39.704
G1 X-38.374 Y37.73 E39.7329
G1 X-38.794 Y37.331 E39.7618
G1 X-39.156 Y36.878 E39.79073
G1 X-39.451 Y36.38 E39.81961
G1 X-39.676 Y35.846 E39.84852
G1 X-39.824 Y35.286 E39.87741
G1 X-39.9 Y34.491 E39.91726
G1 X-39.9 Y-26.005 E42.93541
G1 X-39.733 Y-28.127 E43.04161
G1 X-39.63 Y-28.778 E43.07449
G1 X-39.173 Y-30.683 E43.17223
G1 X-38.969 Y-31.31 E43.20512
G1 X-38.218 Y-33.123 E43.30303
G1 X-37.919 Y-33.711 E43.33594
G1 X-36.894 Y-35.383 E43.43378
G1 X-36.507 Y-35.915 E43.4666
G1 X-35.233 Y-37.407 E43.56448
G1 X-34.768 Y-37.873 E43.59733
G1 X-33.275 Y-39.149 E43.69531
G1 X-32.739 Y-39.538 E43.72835
G1 X-31.068 Y-40.561 E43.8261
G1 X-30.482 Y-40.859 E43.8589
G1 X-28.669 Y-41.61 E43.9568
G1 X-28.043 Y-41.814 E43.98965
G1 X-26.137 Y-42.272 E44.08745
G1 X-25.485 Y-42.375 E44.12038
G1 X-23.528 Y-42.529 E44.21832
G1 X-22.869 Y-42.529 E44.2512
G1 X-20.913 Y-42.375 E44.34908
G1 X-20.262 Y-42.272 E44.38197
G1 X-18.356 Y-41.814 E44.47976
G1 F1500 E37.97976
G0 F3600 X-23.199 Y-40.549
G1 F1500 E44.47976
G1 F1800 X-20.897 Y-40.367 E44.59497
G1 X-18.651 Y-39.828 E44.7102
G1 X-16.528 Y-38.948 E44.82486
G1 X-14.555 Y-37.741 E44.94025
G1 X-12.801 Y-36.243 E45.05533
G1 X-11.303 Y-34.489 E45.17041
G1 X-10.096 Y-32.52 E45.28563
G1 X-9.212 Y-30.386 E45.40087
G1 X-8.674 Y-28.144 E45.5159
G1 X-8.499 Y-25.927 E45.62685
G1 X-8.499 Y34.491 E48.64111
G1 X-8.539 Y34.908 E48.66201
G1 X-8.657 Y35.31 E48.68292
G1 X-8.85 Y35.682 E48.70382
G1 X-9.109 Y36.011 E48.72471
G1 X-9.426 Y36.285 E48.74562
G1 X-9.789 Y36.494 E48.76651
G1 X-10.186 Y36.63 E48.78745
G1 X-10.596 Y36.689 E48.80812
G1 X-11.748 Y36.743 E48.86565
G1 X-12.167 Y36.722 E48.88658
G1 X-12.574 Y36.623 E48.90748
G1 X-12.955 Y36.448 E48.9284
G1 X-13.295 Y36.204 E48.94928
G1 X-13.696 Y35.743 E48.97976
G1 X-13.845 Y35.544 E48.99216
G1 X-13.997 Y35.438 E49.00141
G1 X-14.181 Y35.389 E49.01091
G1 X-14.359 Y35.405 E49.01982
G1 X-14.588 Y35.506 E49.03231
G1 X-15.016 Y36.076 E49.06787
G1 X-15.333 Y36.35 E49.08878
G1 X-15.697 Y36.558 E49.10969
G1 X-16.093 Y36.694 E49.13058
G1 X-16.605 Y36.754 E49.1563
G1 X-26.175 Y36.751 E49.63375
G1 X-26.954 Y36.744 E49.67262
G1 X-28.913 Y36.755 E49.77035
G1 X-29.33 Y36.717 E49.79124
G1 X-29.733 Y36.601 E49.81216
G1 X-30.106 Y36.411 E49.83305
G1 X-30.437 Y36.153 E49.85399
G1 X-30.869 Y35.648 E49.88714
G1 X-31.031 Y35.554 E49.89649
G1 X-31.214 Y35.517 E49.9058
G1 X-31.538 Y35.599 E49.92247
G1 X-32.103 Y36.24 E49.9651
G1 X-32.446 Y36.48 E49.98599
G1 X-32.829 Y36.652 E50.00694
G1 X-33.237 Y36.747 E50.02784
G1 X-33.67 Y36.763 E50.04945
G1 X-34.818 Y36.691 E50.10684
G1 X-35.7 Y36.691 E50.15084
G1 X-36.117 Y36.651 E50.17174
G1 X-36.519 Y36.533 E50.19264
G1 X-36.891 Y36.34 E50.21355
G1 X-37.22 Y36.081 E50.23444
G1 X-37.494 Y35.764 E50.25535
G1 X-37.703 Y35.401 E50.27624
G1 X-37.839 Y35.004 E50.29718
G1 X-37.9 Y34.491 E50.32295
G1 X-37.9 Y-25.925 E53.33712
G1 X-37.726 Y-28.142 E53.44807
G1 X-37.186 Y-30.39 E53.56341
G1 X-36.305 Y-32.518 E53.67832
G1 X-35.099 Y-34.484 E53.79338
G1 X-33.603 Y-36.237 E53.90836
G1 X-31.84 Y-37.743 E54.02404
G1 X-29.873 Y-38.947 E54.1391
G1 X-27.748 Y-39.828 E54.25386
G1 X-25.502 Y-40.367 E54.3691
G1 X-23.199 Y-40.549 E54.48435
G1 F1500 E47.98435
G0 F3600 X-27.621 Y-39.447
G1 F1500 E54.48435
G1 F1800 X-25.441 Y-39.971 E54.59621
G1 X-23.199 Y-40.147 E54.70841
G1 X-20.958 Y-39.971 E54.82056
G1 X-18.778 Y-39.447 E54.93242
G1 X-16.708 Y-38.589 E55.04421
G1 X-14.795 Y-37.419 E55.15608
G1 X-13.082 Y-35.955 E55.2685
G1 X-11.628 Y-34.252 E55.38022
G1 X-10.452 Y-32.335 E55.49242
G1 X-9.595 Y-30.266 E55.60415
G1 X-9.07 Y-28.079 E55.71636
G1 X-8.899 Y-25.843 E55.82824
G1 X-8.899 Y34.491 E58.83832
G1 X-8.939 Y34.868 E58.85723
G1 X-9.057 Y35.228 E58.87613
G1 X-9.247 Y35.555 E58.895
G1 X-9.502 Y35.836 E58.91393
G1 X-9.811 Y36.056 E58.93286
G1 X-10.158 Y36.208 E58.95176
G1 X-10.615 Y36.289 E58.97491
G1 X-11.767 Y36.343 E59.03245
G1 X-12.145 Y36.321 E59.05134
G1 X-12.51 Y36.22 E59.07023
G1 X-12.846 Y36.045 E59.08913
G1 X-13.138 Y35.803 E59.10805
G1 X-13.523 Y35.291 E59.14001
G1 X-13.834 Y35.071 E59.15902
G1 X-14.147 Y34.989 E59.17516
G1 X-14.305 Y34.99 E59.18304
G1 X-14.616 Y35.071 E59.19908
G1 X-14.927 Y35.291 E59.21808
G1 X-15.33 Y35.825 E59.25146
G1 X-15.624 Y36.064 E59.27036
G1 X-15.962 Y36.236 E59.28928
G1 X-16.407 Y36.354 E59.31225
G1 X-26.172 Y36.351 E59.79943
G1 X-26.953 Y36.344 E59.83839
G1 X-28.915 Y36.355 E59.93628
G1 X-29.292 Y36.317 E59.95518
G1 X-29.653 Y36.201 E59.9741
G1 X-29.981 Y36.012 E59.99299
G1 X-30.328 Y35.683 E60.01684
G1 X-30.587 Y35.361 E60.03746
G1 X-30.767 Y35.234 E60.04845
G1 X-31.098 Y35.125 E60.06584
G1 X-31.383 Y35.13 E60.08006
G1 X-31.682 Y35.234 E60.09585
G1 X-31.866 Y35.365 E60.10712
G1 X-32.391 Y35.959 E60.14667
G1 X-32.707 Y36.167 E60.16555
G1 X-33.061 Y36.304 E60.18448
G1 X-33.49 Y36.373 E60.20616
G1 X-34.793 Y36.291 E60.2713
G1 X-35.7 Y36.291 E60.31655
G1 X-36.077 Y36.251 E60.33546
G1 X-36.437 Y36.133 E60.35436
G1 X-36.764 Y35.943 E60.37323
G1 X-37.045 Y35.688 E60.39216
G1 X-37.265 Y35.379 E60.41109
G1 X-37.417 Y35.032 E60.42999
G1 X-37.5 Y34.491 E60.45729
G1 X-37.5 Y-25.841 E63.46727
G1 X-37.329 Y-28.079 E63.57925
G1 X-36.805 Y-30.263 E63.6913
G1 X-35.946 Y-32.338 E63.80334
G1 X-34.775 Y-34.248 E63.91512
G1 X-33.319 Y-35.953 E64.02697
