;FLAVOR:Marlin
;TIME:2669
;Filament used: 2.14838m
;Layer height: 0.15
;MINX:-25.2
;MINY:-42.356
;MINZ:0.3
;MAXX:25.2
;MAXY:32.595
;MAXZ:8.55
;Generated with Cura_SteamEngine main
M140 S60
M105
M190 S60
M104 S200
M105
M109 S200
M82 ;absolute extrusion mode
G21 ;metric values
G90 ;absolute positioning
M82 ;set extruder to absolute mode
M107 ;start with the fan off
G28 ;Home all axes (max endstops)
G1 Z15.0 F9000 ;move the platform down 15mm
G92 E0 ;zero the extruded length
G1 F200 E3 ;extrude 3mm of feed stock
G92 E0 ;zero the extruded length again
G1 F9000
;Put printing message on LCD screen
M117 Printing...
G92 E0
G92 E0
G1 F1500 E-6.5
;LAYER_COUNT:56
;LAYER:0
M107
G0 F3600 X23.235 Y-4.867 Z0.3
;TYPE:SKIRT
G1 F1500 E0
G1 F1800 X23.565 Y-4.483 E0.02526
G1 X24.016 Y-3.835 E0.06465
G1 X24.4 Y-3.144 E0.10409
G1 X24.712 Y-2.419 E0.14347
G1 X24.949 Y-1.666 E0.18285
G1 X25.108 Y-.892 E0.22227
G1 X25.199 Y-0.01 E0.26651
G1 X25.2 Y24.795 E1.50403
G1 X25.16 Y25.583 E1.5434
G1 X25.041 Y26.364 E1.58281
G1 X24.843 Y27.128 E1.62219
G1 X24.569 Y27.869 E1.6616
G1 X24.221 Y28.578 E1.70101
G1 X23.804 Y29.248 E1.74038
G1 X23.321 Y29.873 E1.77979
G1 X22.777 Y30.446 E1.8192
G1 X22.178 Y30.96 E1.85858
G1 X21.53 Y31.412 E1.898
G1 X20.84 Y31.796 E1.93739
G1 X20.114 Y32.108 E1.97682
G1 X19.361 Y32.344 E2.01619
G1 X18.588 Y32.504 E2.05557
G1 X17.705 Y32.595 E2.09986
G1 X-17.399 Y32.595 E3.8512
G1 X-18.188 Y32.555 E3.89062
G1 X-18.968 Y32.436 E3.92998
G1 X-19.733 Y32.238 E3.9694
G1 X-20.473 Y31.964 E4.00877
G1 X-21.182 Y31.616 E4.04818
G1 X-21.853 Y31.198 E4.08762
G1 X-22.477 Y30.715 E4.12698
G1 X-23.05 Y30.172 E4.16637
G1 X-23.565 Y29.573 E4.20578
G1 X-24.016 Y28.925 E4.24517
G1 X-24.4 Y28.234 E4.28461
G1 X-24.712 Y27.509 E4.32398
G1 X-24.949 Y26.756 E4.36337
G1 X-25.108 Y25.982 E4.40279
G1 X-25.199 Y25.1 E4.44703
G1 X-25.2 Y0.295 E5.68455
G1 X-25.16 Y-.493 E5.72392
G1 X-25.041 Y-1.274 E5.76333
G1 X-24.843 Y-2.038 E5.80271
G1 X-24.569 Y-2.779 E5.84212
G1 X-24.221 Y-3.488 E5.88153
G1 X-23.804 Y-4.158 E5.9209
G1 X-23.235 Y-4.894 E5.96731
G1 X-23.565 Y-5.278 E5.99257
G1 X-24.016 Y-5.926 E6.03196
G1 X-24.4 Y-6.617 E6.0714
G1 X-24.712 Y-7.342 E6.11078
G1 X-24.949 Y-8.095 E6.15016
G1 X-25.108 Y-8.869 E6.18958
G1 X-25.199 Y-9.751 E6.23382
G1 X-25.2 Y-34.556 E7.47134
G1 X-25.16 Y-35.344 E7.51071
G1 X-25.041 Y-36.125 E7.55012
G1 X-24.843 Y-36.889 E7.5895
G1 X-24.569 Y-37.63 E7.62891
G1 X-24.221 Y-38.339 E7.66832
G1 X-23.804 Y-39.009 E7.70769
G1 X-23.321 Y-39.634 E7.7471
G1 X-22.777 Y-40.207 E7.78651
G1 X-22.178 Y-40.721 E7.82589
G1 X-21.53 Y-41.173 E7.86531
G1 X-20.84 Y-41.557 E7.9047
G1 X-20.114 Y-41.869 E7.94413
G1 X-19.361 Y-42.105 E7.9835
G1 X-18.588 Y-42.265 E8.02288
G1 X-17.705 Y-42.356 E8.06717
G1 X17.399 Y-42.356 E9.81851
G1 X18.188 Y-42.316 E9.85793
G1 X18.968 Y-42.197 E9.89729
G1 X19.733 Y-41.999 E9.93671
G1 X20.473 Y-41.725 E9.97608
G1 X21.182 Y-41.377 E10.01549
G1 X21.853 Y-40.959 E10.05493
G1 X22.477 Y-40.476 E10.09429
G1 X23.05 Y-39.933 E10.13368
G1 X23.565 Y-39.334 E10.17309
G1 X24.016 Y-38.686 E10.21248
G1 X24.4 Y-37.995 E10.25192
G1 X24.712 Y-37.27 E10.29129
G1 X24.949 Y-36.517 E10.33068
G1 X25.108 Y-35.743 E10.3701
G1 X25.199 Y-34.861 E10.41434
G1 X25.2 Y-10.056 E11.65186
G1 X25.16 Y-9.268 E11.69123
G1 X25.041 Y-8.487 E11.73064
G1 X24.843 Y-7.723 E11.77002
G1 X24.569 Y-6.982 E11.80943
G1 X24.221 Y-6.273 E11.84884
G1 X23.804 Y-5.603 E11.88821
G1 X23.235 Y-4.867 E11.93462
G0 F3600 X22.675 Y-4.881
G1 F1800 X22.869 Y-4.689 E11.94824
G1 X23.357 Y-4.094 E11.98663
G1 X23.78 Y-3.452 E12.02499
G1 X24.135 Y-2.769 E12.06339
G1 X24.416 Y-2.054 E12.10172
G1 X24.622 Y-1.312 E12.14014
G1 X24.75 Y-.554 E12.17849
G1 X24.799 Y0.295 E12.22091
G1 X24.8 Y24.795 E13.44322
G1 X24.76 Y25.563 E13.48159
G1 X24.641 Y26.323 E13.51997
G1 X24.443 Y27.066 E13.55833
G1 X24.169 Y27.785 E13.59672
G1 X23.822 Y28.471 E13.63507
G1 X23.406 Y29.118 E13.67345
G1 X22.925 Y29.718 E13.71182
G1 X22.384 Y30.265 E13.7502
G1 X21.789 Y30.753 E13.78859
G1 X21.147 Y31.176 E13.82695
G1 X20.465 Y31.531 E13.86531
G1 X19.749 Y31.812 E13.90368
G1 X19.008 Y32.018 E13.94205
G1 X18.249 Y32.146 E13.98045
G1 X17.4 Y32.195 E14.02288
G1 X-17.399 Y32.195 E15.75901
G1 X-18.167 Y32.155 E15.79738
G1 X-18.927 Y32.036 E15.83575
G1 X-19.67 Y31.838 E15.87412
G1 X-20.389 Y31.564 E15.9125
G1 X-21.075 Y31.217 E15.95086
G1 X-21.722 Y30.801 E15.98923
G1 X-22.322 Y30.32 E16.0276
G1 X-22.869 Y29.779 E16.06598
G1 X-23.357 Y29.184 E16.10437
G1 X-23.78 Y28.542 E16.14273
G1 X-24.135 Y27.859 E16.18113
G1 X-24.416 Y27.144 E16.21946
G1 X-24.622 Y26.402 E16.25788
G1 X-24.75 Y25.644 E16.29623
G1 X-24.799 Y24.795 E16.33866
G1 X-24.8 Y0.295 E17.56097
G1 X-24.76 Y-.473 E17.59934
G1 X-24.641 Y-1.233 E17.63771
G1 X-24.443 Y-1.976 E17.67608
G1 X-24.169 Y-2.695 E17.71446
G1 X-23.822 Y-3.381 E17.75282
G1 X-23.406 Y-4.028 E17.79119
G1 X-22.925 Y-4.628 E17.82956
G1 X-22.675 Y-4.88 E17.84727
G1 X-22.869 Y-5.072 E17.86089
G1 X-23.357 Y-5.667 E17.89928
G1 X-23.78 Y-6.309 E17.93763
G1 X-24.135 Y-6.992 E17.97604
G1 X-24.416 Y-7.707 E18.01436
G1 X-24.622 Y-8.449 E18.05278
G1 X-24.75 Y-9.207 E18.09114
G1 X-24.799 Y-10.056 E18.13356
G1 X-24.8 Y-34.556 E19.35587
G1 X-24.76 Y-35.324 E19.39424
G1 X-24.641 Y-36.084 E19.43262
G1 X-24.443 Y-36.827 E19.47098
G1 X-24.169 Y-37.546 E19.50937
G1 X-23.822 Y-38.232 E19.54772
G1 X-23.406 Y-38.879 E19.5861
G1 X-22.925 Y-39.479 E19.62446
G1 X-22.384 Y-40.026 E19.66285
G1 X-21.789 Y-40.514 E19.70124
G1 X-21.147 Y-40.937 E19.73959
G1 X-20.465 Y-41.292 E19.77795
G1 X-19.749 Y-41.573 E19.81633
G1 X-19.008 Y-41.779 E19.8547
G1 X-18.249 Y-41.907 E19.8931
G1 X-17.4 Y-41.956 E19.93553
G1 X17.399 Y-41.956 E21.67166
G1 X18.167 Y-41.916 E21.71002
G1 X18.927 Y-41.797 E21.7484
G1 X19.67 Y-41.599 E21.78676
G1 X20.389 Y-41.325 E21.82515
G1 X21.075 Y-40.978 E21.86351
G1 X21.722 Y-40.562 E21.90188
G1 X22.322 Y-40.081 E21.94025
G1 X22.869 Y-39.54 E21.97863
G1 X23.357 Y-38.945 E22.01702
G1 X23.78 Y-38.303 E22.05538
G1 X24.135 Y-37.62 E22.09378
G1 X24.416 Y-36.905 E22.13211
G1 X24.622 Y-36.163 E22.17053
G1 X24.75 Y-35.405 E22.20888
G1 X24.799 Y-34.556 E22.25131
G1 X24.8 Y-10.056 E23.47362
G1 X24.76 Y-9.288 E23.51198
G1 X24.641 Y-8.528 E23.55036
G1 X24.443 Y-7.785 E23.58872
G1 X24.169 Y-7.066 E23.62711
G1 X23.822 Y-6.38 E23.66547
G1 X23.406 Y-5.733 E23.70384
G1 X22.925 Y-5.133 E23.74221
G1 X22.675 Y-4.881 E23.75992
G0 F3600 X22.11 Y-4.887
G1 F1800 X22.683 Y-4.297 E23.80095
G1 X23.142 Y-3.707 E23.83824
G1 X23.537 Y-3.071 E23.87559
G1 X23.861 Y-2.397 E23.9129
G1 X24.111 Y-1.692 E23.95022
G1 X24.285 Y-.964 E23.98757
G1 X24.38 Y-.222 E24.02489
G1 X24.399 Y0.295 E24.0507
G1 X24.4 Y24.795 E25.27301
G1 X24.36 Y25.542 E25.31033
G1 X24.241 Y26.28 E25.34762
G1 X24.043 Y27.002 E25.38497
G1 X23.77 Y27.698 E25.42227
G1 X23.424 Y28.361 E25.45958
G1 X23.009 Y28.984 E25.49693
G1 X22.53 Y29.558 E25.53423
G1 X21.992 Y30.078 E25.57156
G1 X21.402 Y30.538 E25.60888
G1 X20.766 Y30.932 E25.64621
G1 X20.092 Y31.257 E25.68354
G1 X19.387 Y31.507 E25.72086
G1 X18.659 Y31.681 E25.7582
G1 X17.917 Y31.776 E25.79552
G1 X17.4 Y31.795 E25.82133
G1 X-17.399 Y31.795 E27.55746
G1 X-18.146 Y31.755 E27.59478
G1 X-18.884 Y31.636 E27.63208
G1 X-19.606 Y31.438 E27.66943
G1 X-20.302 Y31.165 E27.70673
G1 X-20.965 Y30.818 E27.74406
G1 X-21.588 Y30.403 E27.78141
G1 X-22.162 Y29.924 E27.8187
G1 X-22.683 Y29.387 E27.85603
G1 X-23.142 Y28.797 E27.89333
G1 X-23.537 Y28.161 E27.93068
G1 X-23.861 Y27.487 E27.96799
G1 X-24.111 Y26.782 E28.00531
G1 X-24.285 Y26.054 E28.04265
G1 X-24.38 Y25.312 E28.07997
G1 X-24.399 Y24.795 E28.10578
G1 X-24.4 Y0.295 E29.32809
G1 X-24.36 Y-.452 E29.36541
G1 X-24.241 Y-1.19 E29.40271
G1 X-24.043 Y-1.912 E29.44006
G1 X-23.77 Y-2.608 E29.47736
G1 X-23.424 Y-3.271 E29.51467
G1 X-23.009 Y-3.894 E29.55201
G1 X-22.53 Y-4.468 E29.58931
G1 X-22.11 Y-4.874 E29.61845
G1 X-22.683 Y-5.464 E29.65949
G1 X-23.142 Y-6.054 E29.69678
G1 X-23.537 Y-6.69 E29.73413
G1 X-23.861 Y-7.364 E29.77144
G1 X-24.111 Y-8.069 E29.80876
G1 X-24.285 Y-8.797 E29.8461
G1 X-24.38 Y-9.539 E29.88342
G1 X-24.399 Y-10.056 E29.90923
G1 X-24.4 Y-34.556 E31.13154
G1 X-24.36 Y-35.303 E31.16887
G1 X-24.241 Y-36.041 E31.20616
G1 X-24.043 Y-36.763 E31.24351
G1 X-23.77 Y-37.459 E31.28081
G1 X-23.424 Y-38.122 E31.31812
G1 X-23.009 Y-38.745 E31.35547
G1 X-22.53 Y-39.319 E31.39277
G1 X-21.992 Y-39.839 E31.4301
G1 X-21.402 Y-40.299 E31.46742
G1 X-20.766 Y-40.693 E31.50474
G1 X-20.092 Y-41.018 E31.54208
G1 X-19.387 Y-41.268 E31.57939
G1 X-18.659 Y-41.442 E31.61674
G1 X-17.917 Y-41.537 E31.65406
G1 X-17.4 Y-41.556 E31.67987
G1 X17.399 Y-41.556 E33.416
G1 X18.146 Y-41.516 E33.45332
G1 X18.884 Y-41.397 E33.49061
G1 X19.606 Y-41.199 E33.52796
G1 X20.302 Y-40.926 E33.56526
G1 X20.965 Y-40.579 E33.6026
G1 X21.588 Y-40.164 E33.63994
G1 X22.162 Y-39.685 E33.67724
G1 X22.683 Y-39.148 E33.71457
G1 X23.142 Y-38.558 E33.75186
G1 X23.537 Y-37.922 E33.78922
G1 X23.861 Y-37.248 E33.82653
G1 X24.111 Y-36.543 E33.86384
G1 X24.285 Y-35.815 E33.90119
G1 X24.38 Y-35.073 E33.93851
G1 X24.399 Y-34.556 E33.96432
G1 X24.4 Y-10.056 E35.18663
G1 X24.36 Y-9.309 E35.22395
G1 X24.241 Y-8.571 E35.26124
G1 X24.043 Y-7.849 E35.29859
G1 X23.77 Y-7.153 E35.33589
G1 X23.424 Y-6.49 E35.3732
G1 X23.009 Y-5.867 E35.41055
G1 X22.53 Y-5.293 E35.44785
G1 X22.11 Y-4.887 E35.47699
G0 F3600 X21.499 Y-4.872
G1 F1800 X21.997 Y-4.44 E35.50988
G1 X22.49 Y-3.906 E35.54614
G1 X22.92 Y-3.321 E35.58236
G1 X23.284 Y-2.692 E35.61862
G1 X23.577 Y-2.027 E35.65488
G1 X23.795 Y-1.334 E35.69112
G1 X23.935 Y-.622 E35.72732
G1 X23.999 Y0.295 E35.77318
G1 X24 Y24.795 E36.99549
G1 X23.96 Y25.52 E37.03172
G1 X23.841 Y26.236 E37.06793
G1 X23.643 Y26.935 E37.10417
G1 X23.37 Y27.609 E37.14045
G1 X23.025 Y28.248 E37.17668
G1 X22.611 Y28.845 E37.21293
G1 X22.135 Y29.393 E37.24914
G1 X21.601 Y29.885 E37.28537
G1 X21.016 Y30.316 E37.32162
G1 X20.387 Y30.68 E37.35788
G1 X19.723 Y30.973 E37.39409
G1 X19.03 Y31.191 E37.43033
G1 X18.317 Y31.331 E37.46658
G1 X17.4 Y31.395 E37.51244
G1 X-17.399 Y31.395 E39.24857
G1 X-18.124 Y31.355 E39.2848
G1 X-18.841 Y31.236 E39.32106
G1 X-19.54 Y31.038 E39.3573
G1 X-20.213 Y30.765 E39.39353
G1 X-20.852 Y30.42 E39.42976
G1 X-21.449 Y30.006 E39.46601
G1 X-21.997 Y29.53 E39.50222
G1 X-22.49 Y28.996 E39.53848
G1 X-22.92 Y28.411 E39.5747
G1 X-23.284 Y27.782 E39.61096
G1 X-23.577 Y27.117 E39.64722
G1 X-23.795 Y26.424 E39.68346
G1 X-23.935 Y25.712 E39.71966
G1 X-23.999 Y24.795 E39.76552
G1 X-24 Y0.295 E40.98783
G1 X-23.96 Y-.43 E41.02406
G1 X-23.841 Y-1.146 E41.06027
G1 X-23.643 Y-1.845 E41.09651
G1 X-23.37 Y-2.519 E41.13279
G1 X-23.025 Y-3.158 E41.16902
G1 X-22.611 Y-3.755 E41.20527
G1 X-22.135 Y-4.303 E41.24148
G1 X-21.499 Y-4.889 E41.28463
G1 X-21.997 Y-5.321 E41.31752
G1 X-22.49 Y-5.855 E41.35378
G1 X-22.92 Y-6.44 E41.39
G1 X-23.284 Y-7.069 E41.42626
G1 X-23.577 Y-7.734 E41.46251
G1 X-23.795 Y-8.427 E41.49876
G1 X-23.935 Y-9.139 E41.53496
G1 X-23.999 Y-10.056 E41.58082
G1 X-24 Y-34.556 E42.80313
G1 X-23.96 Y-35.281 E42.83935
G1 X-23.841 Y-35.997 E42.87556
G1 X-23.643 Y-36.696 E42.91181
G1 X-23.37 Y-37.37 E42.94809
G1 X-23.025 Y-38.009 E42.98432
G1 X-22.611 Y-38.606 E43.02056
G1 X-22.135 Y-39.154 E43.05678
G1 X-21.601 Y-39.646 E43.093
G1 X-21.016 Y-40.077 E43.12925
G1 X-20.387 Y-40.441 E43.16551
G1 X-19.723 Y-40.734 E43.20172
G1 X-19.03 Y-40.952 E43.23796
G1 X-18.317 Y-41.092 E43.27422
G1 X-17.4 Y-41.156 E43.32008
G1 X17.399 Y-41.156 E45.05621
G1 X18.124 Y-41.116 E45.09243
G1 X18.841 Y-40.997 E45.12869
G1 X19.54 Y-40.799 E45.16494
G1 X20.213 Y-40.526 E45.20117
G1 X20.852 Y-40.181 E45.2374
G1 X21.449 Y-39.767 E45.27365
G1 X21.997 Y-39.291 E45.30986
G1 X22.49 Y-38.757 E45.34612
G1 X22.92 Y-38.172 E45.38234
G1 X23.284 Y-37.543 E45.4186
G1 X23.577 Y-36.878 E45.45485
G1 X23.795 Y-36.185 E45.4911
G1 X23.935 Y-35.473 E45.5273
G1 X23.999 Y-34.556 E45.57316
G1 X24 Y-10.056 E46.79547
G1 X23.96 Y-9.331 E46.83169
G1 X23.841 Y-8.615 E46.8679
G1 X23.643 Y-7.916 E46.90415
G1 X23.37 Y-7.242 E46.94043
G1 X23.025 Y-6.603 E46.97666
G1 X22.611 Y-6.006 E47.0129
G1 X22.135 Y-5.458 E47.04912
G1 X21.499 Y-4.872 E47.09226
G0 F3600 X20.802 Y-4.882
G1 F1800 X21.305 Y-4.52 E47.12318
G1 X21.826 Y-4.046 E47.15832
G1 X22.29 Y-3.516 E47.19347
G1 X22.69 Y-2.937 E47.22857
G1 X23.022 Y-2.316 E47.26371
G1 X23.282 Y-1.662 E47.29882
G1 X23.466 Y-.982 E47.33396
G1 X23.572 Y-.286 E47.36909
G1 X23.599 Y0.295 E47.3981
G1 X23.6 Y24.795 E48.62041
G1 X23.56 Y25.498 E48.65554
G1 X23.441 Y26.191 E48.69062
G1 X23.243 Y26.867 E48.72577
G1 X22.971 Y27.516 E48.76087
G1 X22.626 Y28.13 E48.79601
G1 X22.215 Y28.701 E48.83111
G1 X21.741 Y29.222 E48.86625
G1 X21.211 Y29.685 E48.90136
G1 X20.632 Y30.086 E48.9365
G1 X20.011 Y30.418 E48.97163
G1 X19.357 Y30.678 E49.00674
G1 X18.678 Y30.862 E49.04184
G1 X17.982 Y30.968 E49.07696
G1 X17.4 Y30.995 E49.10603
G1 X-17.399 Y30.995 E50.84216
G1 X-18.102 Y30.955 E50.87729
G1 X-18.796 Y30.836 E50.91242
G1 X-19.471 Y30.638 E50.94751
G1 X-20.12 Y30.366 E50.98262
G1 X-20.734 Y30.021 E51.01776
G1 X-21.305 Y29.61 E51.05286
G1 X-21.826 Y29.136 E51.088
G1 X-22.29 Y28.606 E51.12314
G1 X-22.69 Y28.027 E51.15825
G1 X-23.022 Y27.406 E51.19338
G1 X-23.282 Y26.752 E51.2285
G1 X-23.466 Y26.072 E51.26364
G1 X-23.572 Y25.376 E51.29876
G1 X-23.599 Y24.795 E51.32778
G1 X-23.6 Y0.295 E52.55009
G1 X-23.56 Y-.408 E52.58522
G1 X-23.441 Y-1.101 E52.6203
G1 X-23.243 Y-1.777 E52.65544
G1 X-22.971 Y-2.426 E52.69055
G1 X-22.626 Y-3.04 E52.72569
G1 X-22.215 Y-3.611 E52.76079
G1 X-21.741 Y-4.132 E52.79593
G1 X-21.211 Y-4.595 E52.83104
G1 X-20.802 Y-4.879 E52.85588
G1 X-21.305 Y-5.241 E52.8868
G1 X-21.826 Y-5.715 E52.92194
G1 X-22.29 Y-6.245 E52.95708
G1 X-22.69 Y-6.824 E52.99219
G1 X-23.022 Y-7.445 E53.02732
G1 X-23.282 Y-8.099 E53.06244
G1 X-23.466 Y-8.779 E53.09758
G1 X-23.572 Y-9.475 E53.13271
G1 X-23.599 Y-10.056 E53.16172
G1 X-23.6 Y-34.556 E54.38403
G1 X-23.56 Y-35.259 E54.41916
G1 X-23.441 Y-35.952 E54.45424
G1 X-23.243 Y-36.628 E54.48938
G1 X-22.971 Y-37.277 E54.52449
G1 X-22.626 Y-37.891 E54.55963
G1 X-22.215 Y-38.462 E54.59473
G1 X-21.741 Y-38.983 E54.62987
G1 X-21.211 Y-39.446 E54.66498
G1 X-20.632 Y-39.847 E54.70012
G1 X-20.011 Y-40.179 E54.73525
G1 X-19.357 Y-40.439 E54.77036
G1 X-18.678 Y-40.623 E54.80546
G1 X-17.982 Y-40.729 E54.84058
G1 X-17.4 Y-40.756 E54.86965
G1 X17.399 Y-40.756 E56.60578
G1 X18.102 Y-40.716 E56.64091
G1 X18.796 Y-40.597 E56.67604
G1 X19.471 Y-40.399 E56.71113
G1 X20.12 Y-40.127 E56.74624
G1 X20.734 Y-39.782 E56.78138
G1 X21.305 Y-39.371 E56.81648
G1 X21.826 Y-38.897 E56.85162
G1 X22.29 Y-38.367 E56.88676
G1 X22.69 Y-37.788 E56.92187
G1 X23.022 Y-37.167 E56.957
G1 X23.282 Y-36.513 E56.99211
G1 X23.466 Y-35.833 E57.02726
G1 X23.572 Y-35.137 E57.06238
G1 X23.599 Y-34.556 E57.0914
G1 X23.6 Y-10.056 E58.31371
G1 X23.56 Y-9.353 E58.34884
G1 X23.441 Y-8.66 E58.38392
G1 X23.243 Y-7.984 E58.41906
G1 X22.971 Y-7.335 E58.45417
G1 X22.626 Y-6.721 E58.48931
G1 X22.215 Y-6.15 E58.52441
G1 X21.741 Y-5.629 E58.55955
G1 X21.211 Y-5.166 E58.59466
G1 X20.802 Y-4.882 E58.6195
G0 F3600 X20.006 Y-4.885
G1 F1800 X20.613 Y-4.533 E58.65451
G1 X21.157 Y-4.123 E58.68849
G1 X21.648 Y-3.652 E58.72244
G1 X22.082 Y-3.127 E58.75642
G1 X22.451 Y-2.555 E58.79038
G1 X22.75 Y-1.943 E58.82436
G1 X22.975 Y-1.301 E58.8583
G1 X23.124 Y-.636 E58.8923
G1 X23.199 Y0.295 E58.9389
G1 X23.2 Y24.795 E60.16121
G1 X23.16 Y25.474 E60.19514
G1 X23.041 Y26.145 E60.22914
G1 X22.844 Y26.797 E60.26312
G1 X22.572 Y27.421 E60.29708
G1 X22.228 Y28.009 E60.33107
G1 X21.818 Y28.552 E60.36501
G1 X21.348 Y29.044 E60.39896
G1 X20.822 Y29.478 E60.43298
G1 X20.25 Y29.846 E60.46692
G1 X19.638 Y30.146 E60.50092
G1 X18.996 Y30.371 E60.53486
G1 X18.332 Y30.52 E60.56881
G1 X17.4 Y30.595 E60.61546
G1 X-17.399 Y30.595 E62.35159
G1 X-18.079 Y30.555 E62.38557
G1 X-18.749 Y30.436 E62.41952
G1 X-19.401 Y30.239 E62.4535
G1 X-20.025 Y29.967 E62.48746
G1 X-20.613 Y29.623 E62.52145
G1 X-21.157 Y29.213 E62.55543
G1 X-21.648 Y28.742 E62.58938
G1 X-22.082 Y28.217 E62.62336
G1 X-22.451 Y27.645 E62.65732
G1 X-22.75 Y27.033 E62.6913
G1 X-22.975 Y26.391 E62.72524
G1 X-23.124 Y25.726 E62.75924
