;FLAVOR:Marlin
;TIME:3772
;Filament used: 3.19502m
;Layer height: 0.15
;MINX:-36.813
;MINY:-44.92
;MINZ:0.3
;MAXX:38.641
;MAXY:44.919
;MAXZ:3.75
;Generated with Cura_SteamEngine main
M140 S60
M105
M190 S60
M104 S200
M105
M109 S200
M82 ;absolute extrusion mode
G21 ;metric values
G90 ;absolute positioning
M82 ;set extruder to absolute mode
M107 ;start with the fan off
G28 ;Home all axes (max endstops)
G1 Z15.0 F9000 ;move the platform down 15mm
G92 E0 ;zero the extruded length
G1 F200 E3 ;extrude 3mm of feed stock
G92 E0 ;zero the extruded length again
G1 F9000
;Put printing message on LCD screen
M117 Printing...
G92 E0
G92 E0
G1 F1500 E-6.5
;LAYER_COUNT:24
;LAYER:0
M107
G0 F3600 X0.787 Y-26.12 Z0.3
G0 X-.345 Y-32.504
;TYPE:SKIRT
G1 F1500 E0
G1 F1800 X-0.04 Y-31.645 E0.04548
G1 X0.436 Y-29.661 E0.14727
G1 X0.602 Y-28.774 E0.19229
G1 X0.763 Y-26.734 E0.29438
G1 X0.787 Y-26.12 E0.32504
G1 X0.787 Y33.88 E3.31845
G1 X0.761 Y34.518 E3.35031
G1 X0.717 Y35.054 E3.37714
G1 X0.593 Y35.982 E3.42385
G1 X0.375 Y36.844 E3.46821
G1 X0.143 Y37.599 E3.50761
G1 X-0.048 Y38.076 E3.53325
G1 X-.264 Y38.567 E3.56001
G1 X-.676 Y39.389 E3.60588
G1 X-1.165 Y40.138 E3.65051
G1 X-1.629 Y40.776 E3.68986
G1 X-1.956 Y41.155 E3.71484
G1 X-2.322 Y41.553 E3.74181
G1 X-2.885 Y42.106 E3.78119
G1 X-3.285 Y42.439 E3.80715
G1 X-3.707 Y42.766 E3.83379
G1 X-4.464 Y43.293 E3.8798
G1 X-5.248 Y43.717 E3.92427
G1 X-6.09 Y44.118 E3.9708
G1 X-6.926 Y44.406 E4.01491
G1 X-7.685 Y44.625 E4.05432
G1 X-8.178 Y44.723 E4.0794
G1 X-8.711 Y44.812 E4.10636
G1 X-9.496 Y44.903 E4.14579
G1 X-9.996 Y44.919 E4.17075
G1 X-10.531 Y44.919 E4.19744
G1 X-11.32 Y44.879 E4.23685
G1 X-11.818 Y44.812 E4.26192
G1 X-12.35 Y44.723 E4.28883
G1 X-13.248 Y44.526 E4.3347
G1 X-14.099 Y44.234 E4.37958
G1 X-14.958 Y43.891 E4.42573
G1 X-15.754 Y43.46 E4.47089
G1 X-16.546 Y42.978 E4.51714
G1 X-17.248 Y42.433 E4.56148
G1 X-18.031 Y41.758 E4.61306
G1 X-18.385 Y42.106 E4.63782
G1 X-18.785 Y42.439 E4.66379
G1 X-19.207 Y42.766 E4.69043
G1 X-19.964 Y43.293 E4.73644
G1 X-20.748 Y43.717 E4.78091
G1 X-21.59 Y44.118 E4.82744
G1 X-22.426 Y44.406 E4.87155
G1 X-23.185 Y44.625 E4.91096
G1 X-23.678 Y44.723 E4.93604
G1 X-24.211 Y44.812 E4.963
G1 X-24.996 Y44.903 E5.00243
G1 X-25.496 Y44.919 E5.02739
G1 X-26.031 Y44.919 E5.05408
G1 X-26.82 Y44.879 E5.09349
G1 X-27.318 Y44.812 E5.11856
G1 X-27.85 Y44.723 E5.14547
G1 X-28.748 Y44.526 E5.19134
G1 X-29.599 Y44.234 E5.23622
G1 X-30.458 Y43.891 E5.28237
G1 X-31.254 Y43.46 E5.32753
G1 X-32.046 Y42.978 E5.37378
G1 X-32.748 Y42.433 E5.41812
G1 X-33.346 Y41.918 E5.4575
G1 X-33.704 Y41.553 E5.483
G1 X-34.07 Y41.155 E5.50998
G1 X-34.664 Y40.44 E5.55635
G1 X-35.154 Y39.689 E5.60109
G1 X-35.621 Y38.888 E5.64735
G1 X-35.978 Y38.076 E5.6916
G1 X-36.259 Y37.338 E5.731
G1 X-36.401 Y36.844 E5.75664
G1 X-36.532 Y36.325 E5.78335
G1 X-36.714 Y35.409 E5.82994
G1 X-36.787 Y34.523 E5.87429
G1 X-36.813 Y33.882 E5.9063
G1 X-36.813 Y-26.118 E8.89971
G1 X-36.789 Y-26.727 E8.93012
G1 X-36.654 Y-28.45 E9.01634
G1 X-36.539 Y-29.345 E9.06136
G1 X-36.061 Y-31.336 E9.16352
G1 X-35.805 Y-32.206 E9.20876
G1 X-35.021 Y-34.098 E9.31094
G1 X-34.633 Y-34.913 E9.35597
G1 X-33.576 Y-36.642 E9.45707
G1 X-33.065 Y-37.389 E9.50223
G1 X-31.727 Y-38.958 E9.6051
G1 X-31.106 Y-39.617 E9.65028
G1 X-29.546 Y-40.95 E9.75265
G1 X-28.833 Y-41.499 E9.79754
G1 X-27.084 Y-42.571 E9.89989
G1 X-26.287 Y-43.006 E9.94519
G1 X-24.393 Y-43.789 E10.04744
G1 X-23.54 Y-44.092 E10.0926
G1 X-21.558 Y-44.568 E10.19429
G1 X-20.663 Y-44.735 E10.23971
G1 X-18.623 Y-44.895 E10.3418
G1 X-17.723 Y-44.92 E10.38672
G1 X-15.681 Y-44.76 E10.48891
G1 X-14.787 Y-44.645 E10.53388
G1 X-12.791 Y-44.165 E10.6363
G1 X-11.93 Y-43.911 E10.68108
G1 X-10.04 Y-43.13 E10.78311
G1 X-9.227 Y-42.745 E10.82799
G1 X-7.472 Y-41.669 E10.93069
G1 X-6.727 Y-41.159 E10.97573
G1 X-5.171 Y-39.831 E11.07779
G1 X-4.518 Y-39.213 E11.12265
G1 X-3.182 Y-37.649 E11.22527
G1 X-2.632 Y-36.936 E11.27019
G1 X-1.562 Y-35.19 E11.37236
G1 X-1.127 Y-34.392 E11.4177
G1 X-.345 Y-32.504 E11.51965
G1 F1500 E5.01965
G0 F3600 X-3.486 Y-37.39
G1 F1500 E11.51965
G1 F1800 X-2.961 Y-36.707 E11.56263
G1 X-1.903 Y-34.981 E11.66363
G1 X-1.489 Y-34.221 E11.70681
G1 X-.715 Y-32.351 E11.80778
G1 X-.424 Y-31.53 E11.85124
G1 X0.047 Y-29.568 E11.9519
G1 X0.205 Y-28.715 E11.99518
G1 X0.364 Y-26.703 E12.09588
G1 X0.387 Y-26.12 E12.12498
G1 X0.387 Y33.88 E15.1184
G1 X0.362 Y34.485 E15.14861
G1 X0.318 Y35.021 E15.17544
G1 X0.2 Y35.9 E15.21968
G1 X-0.013 Y36.746 E15.26321
G1 X-.28 Y37.61 E15.30832
G1 X-.63 Y38.406 E15.35171
G1 X-1.027 Y39.194 E15.39573
G1 X-1.5 Y39.919 E15.43891
G1 X-2.027 Y40.642 E15.48355
G1 X-2.616 Y41.282 E15.52694
G1 X-3.258 Y41.912 E15.57182
G1 X-3.952 Y42.449 E15.6156
G1 X-4.678 Y42.953 E15.65969
G1 X-5.439 Y43.365 E15.70286
G1 X-6.242 Y43.748 E15.74725
G1 X-7.056 Y44.028 E15.7902
G1 X-7.915 Y44.274 E15.83477
G1 X-8.777 Y44.418 E15.87838
G1 X-9.664 Y44.519 E15.92291
G1 X-10.531 Y44.519 E15.96617
G1 X-11.427 Y44.472 E16.01093
G1 X-12.284 Y44.329 E16.05428
G1 X-13.156 Y44.135 E16.09885
G1 X-13.969 Y43.856 E16.14173
G1 X-14.792 Y43.525 E16.18599
G1 X-15.563 Y43.108 E16.22972
G1 X-16.318 Y42.649 E16.2738
G1 X-17.002 Y42.117 E16.31703
G1 X-17.584 Y41.614 E16.35541
G1 X-18.008 Y41.176 E16.38582
G1 X-18.758 Y41.912 E16.43825
G1 X-19.452 Y42.449 E16.48202
G1 X-20.178 Y42.953 E16.52612
G1 X-20.939 Y43.365 E16.56929
G1 X-21.742 Y43.748 E16.61368
G1 X-22.556 Y44.028 E16.65662
G1 X-23.415 Y44.274 E16.7012
G1 X-24.277 Y44.418 E16.7448
G1 X-25.164 Y44.519 E16.78934
G1 X-26.031 Y44.519 E16.8326
G1 X-26.927 Y44.472 E16.87736
G1 X-27.784 Y44.329 E16.92071
G1 X-28.656 Y44.135 E16.96527
G1 X-29.469 Y43.856 E17.00816
G1 X-30.292 Y43.525 E17.05241
G1 X-31.063 Y43.108 E17.09614
G1 X-31.818 Y42.649 E17.14022
G1 X-32.502 Y42.117 E17.18346
G1 X-33.185 Y41.527 E17.22848
G1 X-33.776 Y40.884 E17.27206
G1 X-34.344 Y40.197 E17.31653
G1 X-34.819 Y39.47 E17.35985
G1 X-35.265 Y38.703 E17.40412
G1 X-35.612 Y37.915 E17.44707
G1 X-35.93 Y37.074 E17.49193
G1 X-36.144 Y36.227 E17.53552
G1 X-36.317 Y35.349 E17.58016
G1 X-36.388 Y34.49 E17.62316
G1 X-36.413 Y33.882 E17.65352
G1 X-36.413 Y-26.118 E20.64694
G1 X-36.39 Y-26.696 E20.67579
G1 X-36.255 Y-28.419 E20.76202
G1 X-36.144 Y-29.276 E20.80513
G1 X-35.672 Y-31.243 E20.90605
G1 X-35.427 Y-32.073 E20.94923
G1 X-34.651 Y-33.945 E21.05033
G1 X-34.276 Y-34.73 E21.09373
G1 X-33.235 Y-36.433 E21.19331
G1 X-32.747 Y-37.145 E21.23637
G1 X-31.422 Y-38.699 E21.33826
G1 X-30.826 Y-39.329 E21.38153
G1 X-29.286 Y-40.645 E21.48259
G1 X-28.598 Y-41.174 E21.52589
G1 X-26.875 Y-42.23 E21.62671
G1 X-26.116 Y-42.643 E21.66982
G1 X-24.24 Y-43.419 E21.7711
G1 X-23.426 Y-43.707 E21.81418
G1 X-21.464 Y-44.179 E21.91486
G1 X-20.615 Y-44.337 E21.95794
G1 X-18.591 Y-44.496 E22.05923
G1 X-17.734 Y-44.519 E22.102
G1 X-15.713 Y-44.361 E22.20314
G1 X-14.847 Y-44.248 E22.24671
G1 X-12.885 Y-43.776 E22.34739
G1 X-12.055 Y-43.531 E22.39056
G1 X-10.193 Y-42.761 E22.49109
G1 X-9.409 Y-42.388 E22.5344
G1 X-7.681 Y-41.328 E22.63554
G1 X-6.965 Y-40.837 E22.67885
G1 X-5.431 Y-39.527 E22.77949
G1 X-4.801 Y-38.929 E22.82283
G1 X-3.486 Y-37.39 E22.92382
G1 F1500 E16.42382
G0 F3600 X-10.252 Y-36.805
G1 F1500 E22.92382
G1 F1800 X-8.673 Y-35.457 E23.0274
G1 X-7.327 Y-33.88 E23.13084
G1 X-6.245 Y-32.116 E23.23408
G1 X-5.455 Y-30.207 E23.33716
G1 X-4.97 Y-28.186 E23.44085
G1 X-4.813 Y-26.204 E23.54004
G1 X-4.813 Y33.975 E26.54238
G1 X-4.879 Y34.774 E26.58238
G1 X-5.101 Y35.654 E26.62766
G1 X-5.461 Y36.473 E26.67229
G1 X-5.955 Y37.23 E26.71739
G1 X-6.572 Y37.901 E26.76287
G1 X-7.279 Y38.449 E26.80749
G1 X-8.071 Y38.878 E26.85243
G1 X-8.922 Y39.17 E26.89732
G1 X-9.814 Y39.319 E26.94244
G1 X-10.715 Y39.319 E26.98739
G1 X-11.605 Y39.17 E27.03241
G1 X-12.454 Y38.879 E27.07718
G1 X-13.247 Y38.449 E27.12219
G1 X-13.956 Y37.899 E27.16695
G1 X-14.571 Y37.23 E27.21229
G1 X-15.065 Y36.473 E27.25739
G1 X-15.425 Y35.655 E27.30198
G1 X-15.646 Y34.78 E27.347
G1 X-15.752 Y33.503 E27.41093
G1 X-15.844 Y33.137 E27.42976
G1 X-15.997 Y32.789 E27.44872
G1 X-16.205 Y32.471 E27.46768
G1 X-16.462 Y32.192 E27.48661
G1 X-16.752 Y31.966 E27.50495
G1 X-17.094 Y31.781 E27.52435
G1 X-17.449 Y31.659 E27.54307
G1 X-17.827 Y31.596 E27.56219
G1 X-18.199 Y31.596 E27.58075
G1 X-18.58 Y31.66 E27.60003
G1 X-18.93 Y31.78 E27.61849
G1 X-19.266 Y31.962 E27.63755
G1 X-19.564 Y32.193 E27.65636
G1 X-19.825 Y32.477 E27.67561
G1 X-20.031 Y32.792 E27.69438
G1 X-20.181 Y33.135 E27.71306
G1 X-20.274 Y33.501 E27.7319
G1 X-20.379 Y34.774 E27.79563
G1 X-20.601 Y35.654 E27.8409
G1 X-20.961 Y36.473 E27.88554
G1 X-21.455 Y37.23 E27.93064
G1 X-22.072 Y37.901 E27.97611
G1 X-22.779 Y38.449 E28.02074
G1 X-23.571 Y38.878 E28.06568
G1 X-24.422 Y39.17 E28.11056
G1 X-25.314 Y39.319 E28.15568
G1 X-26.215 Y39.319 E28.20063
G1 X-27.105 Y39.17 E28.24565
G1 X-27.954 Y38.879 E28.29043
G1 X-28.747 Y38.449 E28.33543
G1 X-29.456 Y37.899 E28.3802
G1 X-30.071 Y37.23 E28.42554
G1 X-30.565 Y36.473 E28.47064
G1 X-30.925 Y35.654 E28.51527
G1 X-31.147 Y34.774 E28.56055
G1 X-31.213 Y33.978 E28.6004
G1 X-31.213 Y-26.201 E31.60274
G1 X-31.058 Y-28.185 E31.70202
G1 X-30.575 Y-30.199 E31.80535
G1 X-29.779 Y-32.117 E31.90895
G1 X-28.708 Y-33.868 E32.01136
G1 X-27.357 Y-35.452 E32.11522
G1 X-25.771 Y-36.809 E32.21936
G1 X-24.011 Y-37.887 E32.32233
G1 X-22.095 Y-38.679 E32.42576
G1 X-20.081 Y-39.163 E32.5291
G1 X-18.013 Y-39.325 E32.63259
G1 X-15.945 Y-39.163 E32.73608
G1 X-13.931 Y-38.679 E32.83942
G1 X-12.022 Y-37.89 E32.94247
G1 X-10.252 Y-36.805 E33.04605
G1 F1500 E26.54605
G0 F3600 X-16.188 Y-37.642
G0 X-16.199 Y-37.578
G1 F1500 E33.04605
G1 F1800 X-14.429 Y-37.153 E33.13686
G1 X-12.745 Y-36.457 E33.22777
G1 X-11.194 Y-35.506 E33.31854
G1 X-9.81 Y-34.325 E33.40931
G1 X-8.624 Y-32.935 E33.50047
G1 X-7.678 Y-31.392 E33.59077
G1 X-6.98 Y-29.707 E33.68176
G1 X-6.555 Y-27.933 E33.77277
G1 X-6.413 Y-26.12 E33.8635
G1 X-6.415 Y33.929 E36.85935
G1 X-6.463 Y34.516 E36.88874
G1 X-6.618 Y35.129 E36.92028
G1 X-6.874 Y35.711 E36.952
G1 X-7.224 Y36.247 E36.98394
G1 X-7.655 Y36.716 E37.01572
G1 X-8.158 Y37.106 E37.04747
G1 X-8.713 Y37.406 E37.07895
G1 X-9.319 Y37.614 E37.11091
G1 X-9.945 Y37.719 E37.14258
G1 X-10.582 Y37.719 E37.17436
G1 X-11.207 Y37.614 E37.20598
G1 X-11.814 Y37.406 E37.23799
G1 X-12.369 Y37.106 E37.26947
G1 X-12.871 Y36.716 E37.30118
G1 X-13.302 Y36.247 E37.33296
G1 X-13.652 Y35.711 E37.3649
G1 X-13.908 Y35.129 E37.39662
G1 X-14.063 Y34.516 E37.42816
G1 X-14.169 Y33.239 E37.49209
G1 X-14.327 Y32.611 E37.5244
G1 X-14.585 Y32.025 E37.55634
G1 X-14.936 Y31.488 E37.58835
G1 X-15.375 Y31.011 E37.62069
G1 X-15.878 Y30.619 E37.65251
G1 X-16.449 Y30.311 E37.68487
G1 X-17.052 Y30.103 E37.7167
G1 X-17.694 Y29.996 E37.74917
G1 X-18.333 Y29.996 E37.78105
G1 X-18.974 Y30.103 E37.81347
G1 X-19.575 Y30.31 E37.84518
G1 X-20.146 Y30.618 E37.87755
G1 X-20.652 Y31.012 E37.90955
G1 X-21.09 Y31.489 E37.94185
G1 X-21.442 Y32.026 E37.97389
G1 X-21.701 Y32.617 E38.00608
G1 X-21.858 Y33.24 E38.03813
G1 X-21.963 Y34.516 E38.10201
G1 X-22.118 Y35.129 E38.13355
G1 X-22.374 Y35.711 E38.16527
G1 X-22.724 Y36.247 E38.19721
G1 X-23.155 Y36.716 E38.22899
G1 X-23.658 Y37.106 E38.26074
G1 X-24.213 Y37.406 E38.29222
G1 X-24.819 Y37.614 E38.32418
G1 X-25.445 Y37.719 E38.35585
G1 X-26.082 Y37.719 E38.38763
G1 X-26.707 Y37.614 E38.41925
G1 X-27.314 Y37.406 E38.45126
G1 X-27.869 Y37.106 E38.48274
G1 X-28.371 Y36.716 E38.51445
G1 X-28.802 Y36.247 E38.54623
G1 X-29.152 Y35.711 E38.57817
G1 X-29.408 Y35.129 E38.60989
G1 X-29.563 Y34.515 E38.64148
G1 X-29.613 Y33.882 E38.67316
G1 X-29.611 Y-26.165 E41.66892
G1 X-29.472 Y-27.933 E41.7574
G1 X-29.048 Y-29.704 E41.84825
G1 X-28.351 Y-31.386 E41.93908
G1 X-27.409 Y-32.926 E42.02915
G1 X-26.218 Y-34.322 E42.1207
G1 X-24.829 Y-35.509 E42.21185
G1 X-23.288 Y-36.454 E42.30204
G1 X-21.597 Y-37.153 E42.39333
G1 X-19.827 Y-37.578 E42.48414
G1 X-18.013 Y-37.721 E42.57492
G1 X-16.199 Y-37.578 E42.6657
G1 F1500 E36.1657
G0 F3600 X-16.195 Y-37.643
G0 X-18.013 Y-37.786
G0 X-19.838 Y-37.642
G0 X-21.44 Y-37.258
G0 X-23.292 Y-36.522
G0 X-23.113 Y-36.092
G1 F1500 E42.6657
G1 F1800 X-21.488 Y-36.766 E42.75347
G1 X-19.751 Y-37.183 E42.84259
G1 X-17.997 Y-37.318 E42.93036
G1 X-16.275 Y-37.183 E43.01654
G1 X-14.538 Y-36.766 E43.10566
G1 X-12.944 Y-36.107 E43.19171
G1 X-11.419 Y-35.172 E43.28095
G1 X-10.084 Y-34.029 E43.36863
G1 X-8.942 Y-32.689 E43.45647
G1 X-8.041 Y-31.219 E43.54249
G1 X-7.367 Y-29.597 E43.63012
G1 X-6.95 Y-27.857 E43.71939
G1 X-6.813 Y-26.12 E43.80632
G1 X-6.814 Y33.896 E46.80053
G1 X-6.863 Y34.465 E46.82902
G1 X-7.005 Y35.016 E46.85741
G1 X-7.221 Y35.507 E46.88417
G1 X-7.55 Y36.01 E46.91415
G1 X-7.94 Y36.431 E46.94279
G1 X-8.362 Y36.758 E46.96942
G1 X-8.865 Y37.033 E46.99802
G1 X-9.398 Y37.219 E47.02618
G1 X-9.996 Y37.319 E47.05643
G1 X-10.531 Y37.319 E47.08312
G1 X-11.128 Y37.219 E47.11332
G1 X-11.662 Y37.033 E47.14154
G1 X-12.165 Y36.758 E47.17014
G1 X-12.586 Y36.431 E47.19673
G1 X-12.976 Y36.01 E47.22536
G1 X-13.305 Y35.507 E47.25535
G1 X-13.532 Y34.984 E47.28379
G1 X-13.663 Y34.465 E47.3105
G1 X-13.772 Y33.174 E47.37513
G1 X-13.947 Y32.482 E47.41075
G1 X-14.233 Y31.832 E47.44617
G1 X-14.62 Y31.24 E47.48146
G1 X-15.099 Y30.719 E47.51677
G1 X-15.661 Y30.281 E47.55232
G1 X-16.286 Y29.944 E47.58774
G1 X-16.958 Y29.713 E47.62319
G1 X-17.658 Y29.596 E47.6586
G1 X-18.369 Y29.596 E47.69407
G1 X-19.068 Y29.713 E47.72943
G1 X-19.738 Y29.943 E47.76477
G1 X-20.364 Y30.281 E47.80027
G1 X-20.927 Y30.719 E47.83585
G1 X-21.405 Y31.24 E47.87113
G1 X-21.796 Y31.837 E47.90673
G1 X-22.08 Y32.483 E47.94194
G1 X-22.255 Y33.175 E47.97755
G1 X-22.363 Y34.465 E48.04213
G1 X-22.505 Y35.016 E48.07052
G1 X-22.721 Y35.507 E48.09728
G1 X-23.05 Y36.01 E48.12727
G1 X-23.44 Y36.431 E48.1559
G1 X-23.862 Y36.758 E48.18253
G1 X-24.365 Y37.033 E48.21113
G1 X-24.898 Y37.219 E48.2393
G1 X-25.496 Y37.319 E48.26955
G1 X-26.031 Y37.319 E48.29624
G1 X-26.628 Y37.219 E48.32644
G1 X-27.162 Y37.033 E48.35465
G1 X-27.665 Y36.758 E48.38325
G1 X-28.086 Y36.431 E48.40984
G1 X-28.476 Y36.01 E48.43848
G1 X-28.805 Y35.507 E48.46846
G1 X-29.032 Y34.984 E48.49691
G1 X-29.163 Y34.465 E48.52361
G1 X-29.213 Y33.882 E48.5528
G1 X-29.212 Y-26.134 E51.54701
G1 X-29.077 Y-27.857 E51.63324
G1 X-28.661 Y-29.594 E51.72235
G1 X-28 Y-31.189 E51.80849
G1 X-27.093 Y-32.676 E51.89538
G1 X-25.944 Y-34.027 E51.98387
G1 X-24.583 Y-35.191 E52.07321
G1 X-23.113 Y-36.092 E52.15923
G1 F1500 E45.65923
G0 F3600 X-23.355 Y-36.487
G0 X-24.871 Y-35.558
G0 X-26.123 Y-34.488
G0 X-28.709 Y-31.566
G1 F1500 E52.15923
G1 F1800 X-27.734 Y-33.162 E52.25254
G1 X-26.502 Y-34.606 E52.34724
G1 X-25.065 Y-35.834 E52.44154
G1 X-23.467 Y-36.813 E52.53504
G1 X-21.722 Y-37.535 E52.62925
G1 X-19.89 Y-37.975 E52.72325
G1 X-18.013 Y-38.122 E52.81718
G1 X-16.136 Y-37.975 E52.91111
G1 X-14.304 Y-37.535 E53.00511
G1 X-12.566 Y-36.816 E53.09895
G1 X-10.957 Y-35.83 E53.19309
G1 X-9.53 Y-34.612 E53.28669
G1 X-8.297 Y-33.168 E53.38143
G1 X-7.319 Y-31.571 E53.47485
G1 X-6.599 Y-29.834 E53.56866
G1 X-6.158 Y-27.994 E53.66306
G1 X-6.016 Y-26.199 E53.75289
G1 X-6.016 Y33.962 E56.75434
G1 X-6.067 Y34.581 E56.78532
G1 X-6.238 Y35.257 E56.82011
G1 X-6.521 Y35.901 E56.85521
G1 X-6.907 Y36.494 E56.89051
G1 X-7.384 Y37.012 E56.92564
G1 X-7.94 Y37.443 E56.96074
G1 X-8.555 Y37.776 E56.99563
G1 X-9.213 Y38.002 E57.03034
G1 X-9.915 Y38.119 E57.06584
G1 X-10.612 Y38.119 E57.10062
G1 X-11.313 Y38.002 E57.13607
G1 X-11.972 Y37.776 E57.17083
G1 X-12.588 Y37.442 E57.20579
G1 X-13.142 Y37.011 E57.24081
G1 X-13.619 Y36.494 E57.2759
G1 X-14.005 Y35.901 E57.3112
G1 X-14.288 Y35.257 E57.3463
G1 X-14.459 Y34.581 E57.38109
G1 X-14.565 Y33.302 E57.44511
G1 X-14.707 Y32.741 E57.47399
G1 X-14.937 Y32.219 E57.50244
G1 X-15.254 Y31.733 E57.53139
G1 X-15.645 Y31.309 E57.56017
G1 X-16.103 Y30.952 E57.58914
G1 X-16.603 Y30.682 E57.61749
G1 X-17.158 Y30.491 E57.64677
G1 X-17.724 Y30.396 E57.6754
G1 X-18.303 Y30.396 E57.70429
G1 X-18.868 Y30.491 E57.73287
G1 X-19.418 Y30.68 E57.76189
G1 X-19.928 Y30.955 E57.7908
G1 X-20.379 Y31.306 E57.81931
G1 X-20.775 Y31.738 E57.84855
G1 X-21.089 Y32.216 E57.87708
